(G-CODE GENERATED BY FLATCAM v8.994 - www.flatcam.org - Version Date: 2020/11/7)

(Name: Gerber_BoardOutlineLayer.GKO_cutout_2_cnc)
(Type: G-code from Geometry)
(Units: MM)

(Created on Sunday, 21 August 2022 at 18:20)

(This preprocessor is the default preprocessor used by FlatCAM.)
(It is made to work with MACH3 compatible motion controllers.)

(TOOL DIAMETER: 3.0 mm)
(Feedrate_XY: 120.0 mm/min)
(Feedrate_Z: 60.0 mm/min)
(Feedrate rapids 1500.0 mm/min)

(Z_Cut: -2.0 mm)
(DepthPerCut: 0.6 mm <=>4 passes)
(Z_Move: 4.0 mm)
(Z Start: None mm)
(Z End: 15.0 mm)
(X,Y End: None mm)
(Steps per circle: 64)
(Preprocessor Geometry: default)

(X range:   -1.7271 ...   46.5270  mm)
(Y range:  -13.2270 ...    1.7271  mm)

(Spindle Speed: 1000.0 RPM)
G21
G90
G94

G01 F120.00

M5
G00 Z15.0000
G00 X0.0000 Y0.0000
T1
M6    
(MSG, Change to Tool Dia = 3.0000)
M0
G00 Z15.0000

M03 S1000.0
G01 F120.00
G00 X-1.7271 Y-3.6500
G01 F60.00
G01 Z-0.6000
G01 F120.00
G01 X-1.7271 Y-0.0000
G01 X-1.7251 Y0.0785
G01 X-1.7245 Y0.0910
G01 X-1.7091 Y0.2472
G01 X-1.7073 Y0.2596
G01 X-1.6767 Y0.4136
G01 X-1.6736 Y0.4257
G01 X-1.6281 Y0.5759
G01 X-1.6249 Y0.5848
G01 X-1.5638 Y0.7327
G01 X-1.5584 Y0.7440
G01 X-1.4844 Y0.8825
G01 X-1.4780 Y0.8932
G01 X-1.3883 Y1.0271
G01 X-1.3834 Y1.0337
G01 X-1.2837 Y1.1551
G01 X-1.2754 Y1.1643
G01 X-1.1643 Y1.2754
G01 X-1.1551 Y1.2837
G01 X-1.0337 Y1.3834
G01 X-1.0276 Y1.3879
G01 X-0.8932 Y1.4780
G01 X-0.8825 Y1.4844
G01 X-0.7440 Y1.5584
G01 X-0.7327 Y1.5638
G01 X-0.5828 Y1.6256
G01 X-0.5759 Y1.6281
G01 X-0.4257 Y1.6736
G01 X-0.4136 Y1.6767
G01 X-0.2596 Y1.7073
G01 X-0.2472 Y1.7091
G01 X-0.0910 Y1.7245
G01 X-0.0785 Y1.7251
G01 X0.0000 Y1.7271
G01 X44.7999 Y1.7271
G01 X44.8784 Y1.7251
G01 X44.8909 Y1.7245
G01 X45.0471 Y1.7091
G01 X45.0595 Y1.7073
G01 X45.2135 Y1.6767
G01 X45.2256 Y1.6736
G01 X45.3758 Y1.6281
G01 X45.3876 Y1.6239
G01 X45.5326 Y1.5638
G01 X45.5439 Y1.5584
G01 X45.6824 Y1.4844
G01 X45.6931 Y1.4780
G01 X45.8236 Y1.3908
G01 X45.8336 Y1.3834
G01 X45.9550 Y1.2837
G01 X45.9643 Y1.2754
G01 X46.0753 Y1.1643
G01 X46.0837 Y1.1551
G01 X46.1833 Y1.0337
G01 X46.1907 Y1.0237
G01 X46.2779 Y0.8932
G01 X46.2843 Y0.8825
G01 X46.3584 Y0.7440
G01 X46.3637 Y0.7327
G01 X46.4238 Y0.5876
G01 X46.4280 Y0.5759
G01 X46.4736 Y0.4257
G01 X46.4766 Y0.4136
G01 X46.5072 Y0.2596
G01 X46.5090 Y0.2472
G01 X46.5244 Y0.0910
G01 X46.5250 Y0.0785
G01 X46.5270 Y-0.0000
G01 X46.5270 Y-3.6500
G00 X46.5270 Y-3.6500
G01 F60.00
G01 Z-1.2000
G01 F120.00
G01 X46.5270 Y-0.0000
G01 X46.5250 Y0.0785
G01 X46.5244 Y0.0910
G01 X46.5090 Y0.2472
G01 X46.5072 Y0.2596
G01 X46.4766 Y0.4136
G01 X46.4736 Y0.4257
G01 X46.4280 Y0.5759
G01 X46.4238 Y0.5876
G01 X46.3637 Y0.7327
G01 X46.3584 Y0.7440
G01 X46.2843 Y0.8825
G01 X46.2779 Y0.8932
G01 X46.1907 Y1.0237
G01 X46.1833 Y1.0337
G01 X46.0837 Y1.1551
G01 X46.0753 Y1.1643
G01 X45.9643 Y1.2754
G01 X45.9550 Y1.2837
G01 X45.8336 Y1.3834
G01 X45.8236 Y1.3908
G01 X45.6931 Y1.4780
G01 X45.6824 Y1.4844
G01 X45.5439 Y1.5584
G01 X45.5326 Y1.5638
G01 X45.3876 Y1.6239
G01 X45.3758 Y1.6281
G01 X45.2256 Y1.6736
G01 X45.2135 Y1.6767
G01 X45.0595 Y1.7073
G01 X45.0471 Y1.7091
G01 X44.8909 Y1.7245
G01 X44.8784 Y1.7251
G01 X44.7999 Y1.7271
G01 X0.0000 Y1.7271
G01 X-0.0785 Y1.7251
G01 X-0.0910 Y1.7245
G01 X-0.2472 Y1.7091
G01 X-0.2596 Y1.7073
G01 X-0.4136 Y1.6767
G01 X-0.4257 Y1.6736
G01 X-0.5759 Y1.6281
G01 X-0.5828 Y1.6256
G01 X-0.7327 Y1.5638
G01 X-0.7440 Y1.5584
G01 X-0.8825 Y1.4844
G01 X-0.8932 Y1.4780
G01 X-1.0276 Y1.3879
G01 X-1.0337 Y1.3834
G01 X-1.1551 Y1.2837
G01 X-1.1643 Y1.2754
G01 X-1.2754 Y1.1643
G01 X-1.2837 Y1.1551
G01 X-1.3834 Y1.0337
G01 X-1.3883 Y1.0271
G01 X-1.4780 Y0.8932
G01 X-1.4844 Y0.8825
G01 X-1.5584 Y0.7440
G01 X-1.5638 Y0.7327
G01 X-1.6249 Y0.5848
G01 X-1.6281 Y0.5759
G01 X-1.6736 Y0.4257
G01 X-1.6767 Y0.4136
G01 X-1.7073 Y0.2596
G01 X-1.7091 Y0.2472
G01 X-1.7245 Y0.0910
G01 X-1.7251 Y0.0785
G01 X-1.7271 Y-0.0000
G01 X-1.7271 Y-3.6500
G00 X-1.7271 Y-3.6500
G01 F60.00
G01 Z-1.8000
G01 F120.00
G01 X-1.7271 Y-0.0000
G01 X-1.7251 Y0.0785
G01 X-1.7245 Y0.0910
G01 X-1.7091 Y0.2472
G01 X-1.7073 Y0.2596
G01 X-1.6767 Y0.4136
G01 X-1.6736 Y0.4257
G01 X-1.6281 Y0.5759
G01 X-1.6249 Y0.5848
G01 X-1.5638 Y0.7327
G01 X-1.5584 Y0.7440
G01 X-1.4844 Y0.8825
G01 X-1.4780 Y0.8932
G01 X-1.3883 Y1.0271
G01 X-1.3834 Y1.0337
G01 X-1.2837 Y1.1551
G01 X-1.2754 Y1.1643
G01 X-1.1643 Y1.2754
G01 X-1.1551 Y1.2837
G01 X-1.0337 Y1.3834
G01 X-1.0276 Y1.3879
G01 X-0.8932 Y1.4780
G01 X-0.8825 Y1.4844
G01 X-0.7440 Y1.5584
G01 X-0.7327 Y1.5638
G01 X-0.5828 Y1.6256
G01 X-0.5759 Y1.6281
G01 X-0.4257 Y1.6736
G01 X-0.4136 Y1.6767
G01 X-0.2596 Y1.7073
G01 X-0.2472 Y1.7091
G01 X-0.0910 Y1.7245
G01 X-0.0785 Y1.7251
G01 X0.0000 Y1.7271
G01 X44.7999 Y1.7271
G01 X44.8784 Y1.7251
G01 X44.8909 Y1.7245
G01 X45.0471 Y1.7091
G01 X45.0595 Y1.7073
G01 X45.2135 Y1.6767
G01 X45.2256 Y1.6736
G01 X45.3758 Y1.6281
G01 X45.3876 Y1.6239
G01 X45.5326 Y1.5638
G01 X45.5439 Y1.5584
G01 X45.6824 Y1.4844
G01 X45.6931 Y1.4780
G01 X45.8236 Y1.3908
G01 X45.8336 Y1.3834
G01 X45.9550 Y1.2837
G01 X45.9643 Y1.2754
G01 X46.0753 Y1.1643
G01 X46.0837 Y1.1551
G01 X46.1833 Y1.0337
G01 X46.1907 Y1.0237
G01 X46.2779 Y0.8932
G01 X46.2843 Y0.8825
G01 X46.3584 Y0.7440
G01 X46.3637 Y0.7327
G01 X46.4238 Y0.5876
G01 X46.4280 Y0.5759
G01 X46.4736 Y0.4257
G01 X46.4766 Y0.4136
G01 X46.5072 Y0.2596
G01 X46.5090 Y0.2472
G01 X46.5244 Y0.0910
G01 X46.5250 Y0.0785
G01 X46.5270 Y-0.0000
G01 X46.5270 Y-3.6500
G00 X46.5270 Y-3.6500
G01 F60.00
G01 Z-2.0000
G01 F120.00
G01 X46.5270 Y-0.0000
G01 X46.5250 Y0.0785
G01 X46.5244 Y0.0910
G01 X46.5090 Y0.2472
G01 X46.5072 Y0.2596
G01 X46.4766 Y0.4136
G01 X46.4736 Y0.4257
G01 X46.4280 Y0.5759
G01 X46.4238 Y0.5876
G01 X46.3637 Y0.7327
G01 X46.3584 Y0.7440
G01 X46.2843 Y0.8825
G01 X46.2779 Y0.8932
G01 X46.1907 Y1.0237
G01 X46.1833 Y1.0337
G01 X46.0837 Y1.1551
G01 X46.0753 Y1.1643
G01 X45.9643 Y1.2754
G01 X45.9550 Y1.2837
G01 X45.8336 Y1.3834
G01 X45.8236 Y1.3908
G01 X45.6931 Y1.4780
G01 X45.6824 Y1.4844
G01 X45.5439 Y1.5584
G01 X45.5326 Y1.5638
G01 X45.3876 Y1.6239
G01 X45.3758 Y1.6281
G01 X45.2256 Y1.6736
G01 X45.2135 Y1.6767
G01 X45.0595 Y1.7073
G01 X45.0471 Y1.7091
G01 X44.8909 Y1.7245
G01 X44.8784 Y1.7251
G01 X44.7999 Y1.7271
G01 X0.0000 Y1.7271
G01 X-0.0785 Y1.7251
G01 X-0.0910 Y1.7245
G01 X-0.2472 Y1.7091
G01 X-0.2596 Y1.7073
G01 X-0.4136 Y1.6767
G01 X-0.4257 Y1.6736
G01 X-0.5759 Y1.6281
G01 X-0.5828 Y1.6256
G01 X-0.7327 Y1.5638
G01 X-0.7440 Y1.5584
G01 X-0.8825 Y1.4844
G01 X-0.8932 Y1.4780
G01 X-1.0276 Y1.3879
G01 X-1.0337 Y1.3834
G01 X-1.1551 Y1.2837
G01 X-1.1643 Y1.2754
G01 X-1.2754 Y1.1643
G01 X-1.2837 Y1.1551
G01 X-1.3834 Y1.0337
G01 X-1.3883 Y1.0271
G01 X-1.4780 Y0.8932
G01 X-1.4844 Y0.8825
G01 X-1.5584 Y0.7440
G01 X-1.5638 Y0.7327
G01 X-1.6249 Y0.5848
G01 X-1.6281 Y0.5759
G01 X-1.6736 Y0.4257
G01 X-1.6767 Y0.4136
G01 X-1.7073 Y0.2596
G01 X-1.7091 Y0.2472
G01 X-1.7245 Y0.0910
G01 X-1.7251 Y0.0785
G01 X-1.7271 Y-0.0000
G01 X-1.7271 Y-3.6500
G00 Z4.0000
G00 X46.5270 Y-7.6500
G01 F60.00
G01 Z-0.6000
G01 F120.00
G01 X46.5270 Y-11.5000
G01 X46.5250 Y-11.5785
G01 X46.5244 Y-11.5909
G01 X46.5090 Y-11.7472
G01 X46.5072 Y-11.7595
G01 X46.4766 Y-11.9135
G01 X46.4736 Y-11.9256
G01 X46.4280 Y-12.0759
G01 X46.4238 Y-12.0876
G01 X46.3637 Y-12.2327
G01 X46.3584 Y-12.2440
G01 X46.2843 Y-12.3824
G01 X46.2779 Y-12.3931
G01 X46.1907 Y-12.5237
G01 X46.1833 Y-12.5337
G01 X46.0837 Y-12.6551
G01 X46.0753 Y-12.6643
G01 X45.9643 Y-12.7753
G01 X45.9550 Y-12.7837
G01 X45.8336 Y-12.8833
G01 X45.8236 Y-12.8908
G01 X45.6931 Y-12.9780
G01 X45.6824 Y-12.9844
G01 X45.5439 Y-13.0584
G01 X45.5326 Y-13.0637
G01 X45.3876 Y-13.1238
G01 X45.3758 Y-13.1280
G01 X45.2256 Y-13.1736
G01 X45.2135 Y-13.1766
G01 X45.0595 Y-13.2073
G01 X45.0471 Y-13.2091
G01 X44.8909 Y-13.2245
G01 X44.8784 Y-13.2251
G01 X44.7999 Y-13.2270
G01 X0.0000 Y-13.2270
G01 X-0.0785 Y-13.2251
G01 X-0.0910 Y-13.2245
G01 X-0.2472 Y-13.2091
G01 X-0.2596 Y-13.2073
G01 X-0.4136 Y-13.1766
G01 X-0.4257 Y-13.1736
G01 X-0.5759 Y-13.1280
G01 X-0.5876 Y-13.1238
G01 X-0.7327 Y-13.0637
G01 X-0.7440 Y-13.0584
G01 X-0.8825 Y-12.9844
G01 X-0.8932 Y-12.9780
G01 X-1.0237 Y-12.8908
G01 X-1.0337 Y-12.8833
G01 X-1.1551 Y-12.7837
G01 X-1.1643 Y-12.7753
G01 X-1.2754 Y-12.6643
G01 X-1.2837 Y-12.6551
G01 X-1.3834 Y-12.5337
G01 X-1.3908 Y-12.5237
G01 X-1.4780 Y-12.3931
G01 X-1.4844 Y-12.3824
G01 X-1.5584 Y-12.2440
G01 X-1.5638 Y-12.2327
G01 X-1.6239 Y-12.0876
G01 X-1.6281 Y-12.0759
G01 X-1.6736 Y-11.9256
G01 X-1.6767 Y-11.9135
G01 X-1.7073 Y-11.7595
G01 X-1.7091 Y-11.7472
G01 X-1.7245 Y-11.5909
G01 X-1.7251 Y-11.5785
G01 X-1.7271 Y-11.5000
G01 X-1.7271 Y-7.6500
G00 X-1.7271 Y-7.6500
G01 F60.00
G01 Z-1.2000
G01 F120.00
G01 X-1.7271 Y-11.5000
G01 X-1.7251 Y-11.5785
G01 X-1.7245 Y-11.5909
G01 X-1.7091 Y-11.7472
G01 X-1.7073 Y-11.7595
G01 X-1.6767 Y-11.9135
G01 X-1.6736 Y-11.9256
G01 X-1.6281 Y-12.0759
G01 X-1.6239 Y-12.0876
G01 X-1.5638 Y-12.2327
G01 X-1.5584 Y-12.2440
G01 X-1.4844 Y-12.3824
G01 X-1.4780 Y-12.3931
G01 X-1.3908 Y-12.5237
G01 X-1.3834 Y-12.5337
G01 X-1.2837 Y-12.6551
G01 X-1.2754 Y-12.6643
G01 X-1.1643 Y-12.7753
G01 X-1.1551 Y-12.7837
G01 X-1.0337 Y-12.8833
G01 X-1.0237 Y-12.8908
G01 X-0.8932 Y-12.9780
G01 X-0.8825 Y-12.9844
G01 X-0.7440 Y-13.0584
G01 X-0.7327 Y-13.0637
G01 X-0.5876 Y-13.1238
G01 X-0.5759 Y-13.1280
G01 X-0.4257 Y-13.1736
G01 X-0.4136 Y-13.1766
G01 X-0.2596 Y-13.2073
G01 X-0.2472 Y-13.2091
G01 X-0.0910 Y-13.2245
G01 X-0.0785 Y-13.2251
G01 X0.0000 Y-13.2270
G01 X44.7999 Y-13.2270
G01 X44.8784 Y-13.2251
G01 X44.8909 Y-13.2245
G01 X45.0471 Y-13.2091
G01 X45.0595 Y-13.2073
G01 X45.2135 Y-13.1766
G01 X45.2256 Y-13.1736
G01 X45.3758 Y-13.1280
G01 X45.3876 Y-13.1238
G01 X45.5326 Y-13.0637
G01 X45.5439 Y-13.0584
G01 X45.6824 Y-12.9844
G01 X45.6931 Y-12.9780
G01 X45.8236 Y-12.8908
G01 X45.8336 Y-12.8833
G01 X45.9550 Y-12.7837
G01 X45.9643 Y-12.7753
G01 X46.0753 Y-12.6643
G01 X46.0837 Y-12.6551
G01 X46.1833 Y-12.5337
G01 X46.1907 Y-12.5237
G01 X46.2779 Y-12.3931
G01 X46.2843 Y-12.3824
G01 X46.3584 Y-12.2440
G01 X46.3637 Y-12.2327
G01 X46.4238 Y-12.0876
G01 X46.4280 Y-12.0759
G01 X46.4736 Y-11.9256
G01 X46.4766 Y-11.9135
G01 X46.5072 Y-11.7595
G01 X46.5090 Y-11.7472
G01 X46.5244 Y-11.5909
G01 X46.5250 Y-11.5785
G01 X46.5270 Y-11.5000
G01 X46.5270 Y-7.6500
G00 X46.5270 Y-7.6500
G01 F60.00
G01 Z-1.8000
G01 F120.00
G01 X46.5270 Y-11.5000
G01 X46.5250 Y-11.5785
G01 X46.5244 Y-11.5909
G01 X46.5090 Y-11.7472
G01 X46.5072 Y-11.7595
G01 X46.4766 Y-11.9135
G01 X46.4736 Y-11.9256
G01 X46.4280 Y-12.0759
G01 X46.4238 Y-12.0876
G01 X46.3637 Y-12.2327
G01 X46.3584 Y-12.2440
G01 X46.2843 Y-12.3824
G01 X46.2779 Y-12.3931
G01 X46.1907 Y-12.5237
G01 X46.1833 Y-12.5337
G01 X46.0837 Y-12.6551
G01 X46.0753 Y-12.6643
G01 X45.9643 Y-12.7753
G01 X45.9550 Y-12.7837
G01 X45.8336 Y-12.8833
G01 X45.8236 Y-12.8908
G01 X45.6931 Y-12.9780
G01 X45.6824 Y-12.9844
G01 X45.5439 Y-13.0584
G01 X45.5326 Y-13.0637
G01 X45.3876 Y-13.1238
G01 X45.3758 Y-13.1280
G01 X45.2256 Y-13.1736
G01 X45.2135 Y-13.1766
G01 X45.0595 Y-13.2073
G01 X45.0471 Y-13.2091
G01 X44.8909 Y-13.2245
G01 X44.8784 Y-13.2251
G01 X44.7999 Y-13.2270
G01 X0.0000 Y-13.2270
G01 X-0.0785 Y-13.2251
G01 X-0.0910 Y-13.2245
G01 X-0.2472 Y-13.2091
G01 X-0.2596 Y-13.2073
G01 X-0.4136 Y-13.1766
G01 X-0.4257 Y-13.1736
G01 X-0.5759 Y-13.1280
G01 X-0.5876 Y-13.1238
G01 X-0.7327 Y-13.0637
G01 X-0.7440 Y-13.0584
G01 X-0.8825 Y-12.9844
G01 X-0.8932 Y-12.9780
G01 X-1.0237 Y-12.8908
G01 X-1.0337 Y-12.8833
G01 X-1.1551 Y-12.7837
G01 X-1.1643 Y-12.7753
G01 X-1.2754 Y-12.6643
G01 X-1.2837 Y-12.6551
G01 X-1.3834 Y-12.5337
G01 X-1.3908 Y-12.5237
G01 X-1.4780 Y-12.3931
G01 X-1.4844 Y-12.3824
G01 X-1.5584 Y-12.2440
G01 X-1.5638 Y-12.2327
G01 X-1.6239 Y-12.0876
G01 X-1.6281 Y-12.0759
G01 X-1.6736 Y-11.9256
G01 X-1.6767 Y-11.9135
G01 X-1.7073 Y-11.7595
G01 X-1.7091 Y-11.7472
G01 X-1.7245 Y-11.5909
G01 X-1.7251 Y-11.5785
G01 X-1.7271 Y-11.5000
G01 X-1.7271 Y-7.6500
G00 X-1.7271 Y-7.6500
G01 F60.00
G01 Z-2.0000
G01 F120.00
G01 X-1.7271 Y-11.5000
G01 X-1.7251 Y-11.5785
G01 X-1.7245 Y-11.5909
G01 X-1.7091 Y-11.7472
G01 X-1.7073 Y-11.7595
G01 X-1.6767 Y-11.9135
G01 X-1.6736 Y-11.9256
G01 X-1.6281 Y-12.0759
G01 X-1.6239 Y-12.0876
G01 X-1.5638 Y-12.2327
G01 X-1.5584 Y-12.2440
G01 X-1.4844 Y-12.3824
G01 X-1.4780 Y-12.3931
G01 X-1.3908 Y-12.5237
G01 X-1.3834 Y-12.5337
G01 X-1.2837 Y-12.6551
G01 X-1.2754 Y-12.6643
G01 X-1.1643 Y-12.7753
G01 X-1.1551 Y-12.7837
G01 X-1.0337 Y-12.8833
G01 X-1.0237 Y-12.8908
G01 X-0.8932 Y-12.9780
G01 X-0.8825 Y-12.9844
G01 X-0.7440 Y-13.0584
G01 X-0.7327 Y-13.0637
G01 X-0.5876 Y-13.1238
G01 X-0.5759 Y-13.1280
G01 X-0.4257 Y-13.1736
G01 X-0.4136 Y-13.1766
G01 X-0.2596 Y-13.2073
G01 X-0.2472 Y-13.2091
G01 X-0.0910 Y-13.2245
G01 X-0.0785 Y-13.2251
G01 X0.0000 Y-13.2270
G01 X44.7999 Y-13.2270
G01 X44.8784 Y-13.2251
G01 X44.8909 Y-13.2245
G01 X45.0471 Y-13.2091
G01 X45.0595 Y-13.2073
G01 X45.2135 Y-13.1766
G01 X45.2256 Y-13.1736
G01 X45.3758 Y-13.1280
G01 X45.3876 Y-13.1238
G01 X45.5326 Y-13.0637
G01 X45.5439 Y-13.0584
G01 X45.6824 Y-12.9844
G01 X45.6931 Y-12.9780
G01 X45.8236 Y-12.8908
G01 X45.8336 Y-12.8833
G01 X45.9550 Y-12.7837
G01 X45.9643 Y-12.7753
G01 X46.0753 Y-12.6643
G01 X46.0837 Y-12.6551
G01 X46.1833 Y-12.5337
G01 X46.1907 Y-12.5237
G01 X46.2779 Y-12.3931
G01 X46.2843 Y-12.3824
G01 X46.3584 Y-12.2440
G01 X46.3637 Y-12.2327
G01 X46.4238 Y-12.0876
G01 X46.4280 Y-12.0759
G01 X46.4736 Y-11.9256
G01 X46.4766 Y-11.9135
G01 X46.5072 Y-11.7595
G01 X46.5090 Y-11.7472
G01 X46.5244 Y-11.5909
G01 X46.5250 Y-11.5785
G01 X46.5270 Y-11.5000
G01 X46.5270 Y-7.6500
G00 Z4.0000
M05
G00 Z4.0000
G00 Z15.00


