(G-CODE GENERATED BY FLATCAM v8.994 - www.flatcam.org - Version Date: 2020/11/7)

(Name: Gerber_TopSilkscreenLayer.GTO_iso_combined_cnc)
(Type: G-code from Geometry)
(Units: MM)

(Created on Sunday, 21 August 2022 at 18:16)

(This preprocessor is the default preprocessor used by FlatCAM.)
(It is made to work with MACH3 compatible motion controllers.)

(TOOL DIAMETER: 0.1536 mm)
(Feedrate_XY: 120.0 mm/min)
(Feedrate_Z: 60.0 mm/min)
(Feedrate rapids 1500.0 mm/min)

(Z_Cut: -0.1 mm)
(Z_Move: 2.0 mm)
(Z Start: None mm)
(Z End: 15.0 mm)
(X,Y End: None mm)
(Steps per circle: 64)
(Preprocessor Geometry: default)

(X range:    8.4455 ...   36.1798  mm)
(Y range:  -10.3632 ...   -0.6781  mm)

(Spindle Speed: 1000.0 RPM)
G21
G90
G94

G01 F120.00

M5
G00 Z15.0000
G00 X0.0000 Y0.0000
T2
M6    
(MSG, Change to Tool Dia = 0.1536)
M0
G00 Z15.0000

M03 S1000.0
G01 F120.00
G00 X10.7161 Y-6.7990
G01 F60.00
G01 Z-0.1000
G01 F120.00
G01 X13.1548 Y-6.7990
G01 X11.9355 Y-3.1386
G01 X10.7161 Y-6.7990
G00 Z2.0000
G00 X10.8333 Y-6.7145
G01 F60.00
G01 Z-0.1000
G01 F120.00
G01 X13.0376 Y-6.7145
G01 X11.9355 Y-3.4059
G01 X10.8333 Y-6.7145
G00 Z2.0000
G00 X10.9505 Y-6.6300
G01 F60.00
G01 Z-0.1000
G01 F120.00
G01 X12.9204 Y-6.6300
G01 X11.9355 Y-3.6732
G01 X10.9505 Y-6.6300
G00 Z2.0000
G00 X11.0677 Y-6.5455
G01 F60.00
G01 Z-0.1000
G01 F120.00
G01 X12.8032 Y-6.5455
G01 X11.9355 Y-3.9405
G01 X11.0677 Y-6.5455
G00 Z2.0000
G00 X8.8413 Y-9.9803
G01 F60.00
G01 Z-0.1000
G01 F120.00
G01 X8.9053 Y-10.0301
G01 X8.9128 Y-10.0353
G01 X8.9209 Y-10.0395
G01 X8.9986 Y-10.0746
G01 X9.0056 Y-10.0773
G01 X9.0128 Y-10.0793
G01 X9.1042 Y-10.1007
G01 X9.1112 Y-10.1020
G01 X9.2227 Y-10.1096
G01 X9.2323 Y-10.1097
G01 X9.3374 Y-10.1009
G01 X9.3446 Y-10.0999
G01 X9.3517 Y-10.0983
G01 X9.4421 Y-10.0729
G01 X9.4513 Y-10.0697
G01 X9.4583 Y-10.0663
G01 X9.5360 Y-10.0236
G01 X9.5439 Y-10.0186
G01 X9.5511 Y-10.0128
G01 X9.6162 Y-9.9528
G01 X9.6215 Y-9.9474
G01 X9.6263 Y-9.9415
G01 X9.6802 Y-9.8632
G01 X9.6842 Y-9.8567
G01 X9.6876 Y-9.8498
G01 X9.7292 Y-9.7519
G01 X10.3627 Y-7.8543
G01 X13.5057 Y-7.8543
G01 X14.1391 Y-9.7519
G01 X14.1808 Y-9.8498
G01 X14.1842 Y-9.8567
G01 X14.1882 Y-9.8632
G01 X14.2410 Y-9.9399
G01 X14.2456 Y-9.9459
G01 X14.2522 Y-9.9528
G01 X14.3172 Y-10.0128
G01 X14.3244 Y-10.0186
G01 X14.3323 Y-10.0236
G01 X14.4101 Y-10.0663
G01 X14.4171 Y-10.0697
G01 X14.4244 Y-10.0723
G01 X14.5184 Y-10.0988
G01 X14.5238 Y-10.0999
G01 X14.5310 Y-10.1009
G01 X14.6399 Y-10.1098
G01 X14.7519 Y-10.1025
G01 X14.7589 Y-10.1017
G01 X14.8556 Y-10.0793
G01 X14.8628 Y-10.0773
G01 X14.8697 Y-10.0746
G01 X14.9475 Y-10.0395
G01 X14.9541 Y-10.0361
G01 X14.9618 Y-10.0311
G01 X15.0268 Y-9.9801
G01 X15.0324 Y-9.9753
G01 X15.0387 Y-9.9685
G01 X15.0896 Y-9.9036
G01 X15.0939 Y-9.8976
G01 X15.0992 Y-9.8878
G01 X15.1364 Y-9.8049
G01 X15.1390 Y-9.7959
G01 X15.1604 Y-9.7045
G01 X15.1616 Y-9.6975
G01 X15.1695 Y-9.5819
G01 X15.1642 Y-9.4996
G01 X15.1636 Y-9.4934
G01 X15.1563 Y-9.4527
G01 X15.1457 Y-9.4158
G01 X12.4528 Y-1.3346
G01 X12.4037 Y-1.2168
G01 X12.3998 Y-1.2101
G01 X12.3434 Y-1.1227
G01 X12.3379 Y-1.1153
G01 X12.3330 Y-1.1098
G01 X12.2644 Y-1.0418
G01 X12.2569 Y-1.0352
G01 X12.2503 Y-1.0307
G01 X12.1706 Y-0.9820
G01 X12.1642 Y-0.9784
G01 X12.1574 Y-0.9756
G01 X12.0620 Y-0.9449
G01 X12.0531 Y-0.9426
G01 X12.0457 Y-0.9416
G01 X11.9426 Y-0.9319
G01 X11.9353 Y-0.9316
G01 X11.9280 Y-0.9319
G01 X11.8239 Y-0.9421
G01 X11.8148 Y-0.9435
G01 X11.8078 Y-0.9454
G01 X11.7148 Y-0.9754
G01 X11.7043 Y-0.9797
G01 X11.6976 Y-0.9834
G01 X11.6164 Y-1.0342
G01 X11.6089 Y-1.0395
G01 X11.6022 Y-1.0456
G01 X11.5331 Y-1.1162
G01 X11.5279 Y-1.1221
G01 X11.5234 Y-1.1284
G01 X11.4649 Y-1.2193
G01 X11.4611 Y-1.2260
G01 X11.4111 Y-1.3455
G01 X8.7225 Y-9.4163
G01 X8.7123 Y-9.4537
G01 X8.7047 Y-9.4940
G01 X8.6990 Y-9.5778
G01 X8.6991 Y-9.5860
G01 X8.7062 Y-9.6922
G01 X8.7076 Y-9.7028
G01 X8.7293 Y-9.7959
G01 X8.7314 Y-9.8031
G01 X8.7341 Y-9.8101
G01 X8.7699 Y-9.8894
G01 X8.7734 Y-9.8958
G01 X8.7774 Y-9.9018
G01 X8.8278 Y-9.9668
G01 X8.8341 Y-9.9740
G01 X8.8413 Y-9.9803
G00 Z2.0000
G00 X8.7894 Y-10.0470
G01 F60.00
G01 Z-0.1000
G01 F120.00
G01 X8.8565 Y-10.0991
G01 X8.8660 Y-10.1056
G01 X8.8725 Y-10.1096
G01 X8.8862 Y-10.1165
G01 X8.9639 Y-10.1516
G01 X8.9785 Y-10.1573
G01 X8.9936 Y-10.1616
G01 X9.0850 Y-10.1829
G01 X9.0997 Y-10.1857
G01 X9.1108 Y-10.1868
G01 X9.2170 Y-10.1939
G01 X9.2292 Y-10.1943
G01 X9.2372 Y-10.1940
G01 X9.3444 Y-10.1851
G01 X9.3596 Y-10.1831
G01 X9.3746 Y-10.1796
G01 X9.4650 Y-10.1542
G01 X9.4766 Y-10.1505
G01 X9.4880 Y-10.1458
G01 X9.4990 Y-10.1403
G01 X9.5767 Y-10.0977
G01 X9.5868 Y-10.0916
G01 X9.5964 Y-10.0849
G01 X9.6084 Y-10.0749
G01 X9.6763 Y-10.0122
G01 X9.6846 Y-10.0035
G01 X9.6922 Y-9.9943
G01 X9.7498 Y-9.9111
G01 X9.7582 Y-9.8974
G01 X9.7653 Y-9.8830
G01 X9.8086 Y-9.7809
G01 X10.4235 Y-7.9388
G01 X13.4449 Y-7.9388
G01 X14.0598 Y-9.7809
G01 X14.1031 Y-9.8830
G01 X14.1102 Y-9.8974
G01 X14.1186 Y-9.9111
G01 X14.1714 Y-9.9878
G01 X14.1786 Y-9.9974
G01 X14.1864 Y-10.0065
G01 X14.1949 Y-10.0149
G01 X14.2600 Y-10.0749
G01 X14.2689 Y-10.0825
G01 X14.2783 Y-10.0895
G01 X14.2917 Y-10.0977
G01 X14.3730 Y-10.1423
G01 X14.3879 Y-10.1490
G01 X14.3995 Y-10.1531
G01 X14.4975 Y-10.1806
G01 X14.5125 Y-10.1837
G01 X14.5240 Y-10.1851
G01 X14.6271 Y-10.1937
G01 X14.6392 Y-10.1943
G01 X14.6514 Y-10.1939
G01 X14.7575 Y-10.1868
G01 X14.7724 Y-10.1851
G01 X14.7834 Y-10.1829
G01 X14.8748 Y-10.1616
G01 X14.8899 Y-10.1573
G01 X14.9045 Y-10.1516
G01 X14.9822 Y-10.1165
G01 X14.9961 Y-10.1094
G01 X15.0092 Y-10.1011
G01 X15.0789 Y-10.0466
G01 X15.0849 Y-10.0417
G01 X15.0934 Y-10.0338
G01 X15.1039 Y-10.0223
G01 X15.1561 Y-9.9557
G01 X15.1651 Y-9.9430
G01 X15.1710 Y-9.9330
G01 X15.1762 Y-9.9225
G01 X15.2113 Y-9.8448
G01 X15.2157 Y-9.8339
G01 X15.2182 Y-9.8265
G01 X15.2213 Y-9.8151
G01 X15.2426 Y-9.7237
G01 X15.2448 Y-9.7127
G01 X15.2465 Y-9.6978
G01 X15.2539 Y-9.5831
G01 X15.2536 Y-9.5701
G01 X15.2485 Y-9.4940
G01 X15.2471 Y-9.4809
G01 X15.2386 Y-9.4336
G01 X15.2263 Y-9.3907
G01 X12.5330 Y-1.3079
G01 X12.5288 Y-1.2968
G01 X12.4841 Y-1.1896
G01 X12.4770 Y-1.1748
G01 X12.4708 Y-1.1643
G01 X12.4144 Y-1.0769
G01 X12.4100 Y-1.0705
G01 X12.4029 Y-1.0613
G01 X12.3925 Y-1.0499
G01 X12.3239 Y-0.9818
G01 X12.3178 Y-0.9761
G01 X12.3082 Y-0.9681
G01 X12.2944 Y-0.9587
G01 X12.2114 Y-0.9079
G01 X12.1977 Y-0.9009
G01 X12.1870 Y-0.8964
G01 X12.0878 Y-0.8644
G01 X12.0766 Y-0.8613
G01 X12.0690 Y-0.8596
G01 X12.0536 Y-0.8575
G01 X11.9505 Y-0.8478
G01 X11.9428 Y-0.8473
G01 X11.9313 Y-0.8472
G01 X11.9198 Y-0.8479
G01 X11.8157 Y-0.8580
G01 X11.8042 Y-0.8596
G01 X11.7967 Y-0.8610
G01 X11.7818 Y-0.8650
G01 X11.6889 Y-0.8950
G01 X11.6776 Y-0.8991
G01 X11.6668 Y-0.9040
G01 X11.6529 Y-0.9117
G01 X11.5716 Y-0.9625
G01 X11.5652 Y-0.9668
G01 X11.5560 Y-0.9736
G01 X11.5501 Y-0.9786
G01 X11.5418 Y-0.9865
G01 X11.4727 Y-1.0571
G01 X11.4618 Y-1.0694
G01 X11.4523 Y-1.0827
G01 X11.3939 Y-1.1737
G01 X11.3877 Y-1.1841
G01 X11.3807 Y-1.1987
G01 X11.3316 Y-1.3169
G01 X8.6417 Y-9.3918
G01 X8.6298 Y-9.4357
G01 X8.6211 Y-9.4822
G01 X8.6199 Y-9.4939
G01 X8.6145 Y-9.5744
G01 X8.6148 Y-9.5917
G01 X8.6219 Y-9.6978
G01 X8.6230 Y-9.7090
G01 X8.6257 Y-9.7237
G01 X8.6471 Y-9.8151
G01 X8.6514 Y-9.8302
G01 X8.6571 Y-9.8448
G01 X8.6955 Y-9.9294
G01 X8.7010 Y-9.9394
G01 X8.7095 Y-9.9521
G01 X8.7636 Y-10.0217
G01 X8.7716 Y-10.0308
G01 X8.7772 Y-10.0365
G01 X8.7894 Y-10.0470
G00 Z2.0000
G00 X8.7376 Y-10.1137
G01 F60.00
G01 Z-0.1000
G01 F120.00
G01 X8.8062 Y-10.1670
G01 X8.8158 Y-10.1737
G01 X8.8307 Y-10.1829
G01 X8.8409 Y-10.1885
G01 X8.8514 Y-10.1935
G01 X8.9292 Y-10.2286
G01 X8.9402 Y-10.2332
G01 X8.9514 Y-10.2373
G01 X8.9628 Y-10.2409
G01 X8.9744 Y-10.2439
G01 X9.0658 Y-10.2652
G01 X9.0770 Y-10.2675
G01 X9.0882 Y-10.2694
G01 X9.1052 Y-10.2711
G01 X9.2114 Y-10.2782
G01 X9.2237 Y-10.2787
G01 X9.2422 Y-10.2783
G01 X9.3573 Y-10.2687
G01 X9.3689 Y-10.2672
G01 X9.3804 Y-10.2651
G01 X9.3974 Y-10.2610
G01 X9.4878 Y-10.2356
G01 X9.5056 Y-10.2298
G01 X9.5172 Y-10.2253
G01 X9.5286 Y-10.2201
G01 X9.5396 Y-10.2144
G01 X9.6174 Y-10.1717
G01 X9.6277 Y-10.1657
G01 X9.6426 Y-10.1558
G01 X9.6521 Y-10.1486
G01 X9.6612 Y-10.1410
G01 X9.7307 Y-10.0770
G01 X9.7436 Y-10.0642
G01 X9.7517 Y-10.0551
G01 X9.7594 Y-10.0456
G01 X9.7665 Y-10.0357
G01 X9.8193 Y-9.9590
G01 X9.8260 Y-9.9488
G01 X9.8322 Y-9.9382
G01 X9.8379 Y-9.9273
G01 X9.8429 Y-9.9162
G01 X9.8831 Y-9.8222
G01 X9.8880 Y-9.8098
G01 X10.4844 Y-8.0232
G01 X13.3840 Y-8.0232
G01 X13.9804 Y-9.8098
G01 X13.9853 Y-9.8222
G01 X14.0254 Y-9.9162
G01 X14.0305 Y-9.9273
G01 X14.0392 Y-9.9435
G01 X14.0490 Y-9.9590
G01 X14.1054 Y-10.0407
G01 X14.1128 Y-10.0504
G01 X14.1206 Y-10.0597
G01 X14.1332 Y-10.0728
G01 X14.2071 Y-10.1410
G01 X14.2210 Y-10.1523
G01 X14.2307 Y-10.1592
G01 X14.2407 Y-10.1657
G01 X14.2510 Y-10.1717
G01 X14.3342 Y-10.2173
G01 X14.3455 Y-10.2228
G01 X14.3569 Y-10.2276
G01 X14.3746 Y-10.2338
G01 X14.4710 Y-10.2610
G01 X14.4823 Y-10.2639
G01 X14.4937 Y-10.2662
G01 X14.5053 Y-10.2680
G01 X14.5169 Y-10.2693
G01 X14.6200 Y-10.2779
G01 X14.6385 Y-10.2788
G01 X14.6570 Y-10.2782
G01 X14.7689 Y-10.2706
G01 X14.7802 Y-10.2694
G01 X14.7914 Y-10.2675
G01 X14.8940 Y-10.2439
G01 X14.9056 Y-10.2409
G01 X14.9170 Y-10.2373
G01 X14.9282 Y-10.2332
G01 X14.9392 Y-10.2286
G01 X15.0169 Y-10.1935
G01 X15.0276 Y-10.1884
G01 X15.0380 Y-10.1828
G01 X15.0482 Y-10.1766
G01 X15.0580 Y-10.1700
G01 X15.1310 Y-10.1131
G01 X15.1402 Y-10.1056
G01 X15.1489 Y-10.0976
G01 X15.1573 Y-10.0893
G01 X15.1653 Y-10.0805
G01 X15.2226 Y-10.0079
G01 X15.2297 Y-9.9983
G01 X15.2363 Y-9.9885
G01 X15.2453 Y-9.9732
G01 X15.2507 Y-9.9626
G01 X15.2883 Y-9.8795
G01 X15.2950 Y-9.8629
G01 X15.2989 Y-9.8516
G01 X15.3036 Y-9.8343
G01 X15.3249 Y-9.7429
G01 X15.3282 Y-9.7261
G01 X15.3297 Y-9.7148
G01 X15.3308 Y-9.7035
G01 X15.3379 Y-9.5973
G01 X15.3384 Y-9.5842
G01 X15.3379 Y-9.5645
G01 X15.3328 Y-9.4883
G01 X15.3307 Y-9.4685
G01 X15.3235 Y-9.4274
G01 X15.3209 Y-9.4144
G01 X15.3175 Y-9.4016
G01 X15.3070 Y-9.3655
G01 X12.6131 Y-1.2812
G01 X12.6068 Y-1.2643
G01 X12.5621 Y-1.1571
G01 X12.5570 Y-1.1457
G01 X12.5513 Y-1.1346
G01 X12.5417 Y-1.1185
G01 X12.4854 Y-1.0311
G01 X12.4752 Y-1.0166
G01 X12.4641 Y-1.0028
G01 X12.4520 Y-0.9899
G01 X12.3834 Y-0.9218
G01 X12.3742 Y-0.9131
G01 X12.3595 Y-0.9010
G01 X12.3492 Y-0.8935
G01 X12.3385 Y-0.8866
G01 X12.2537 Y-0.8348
G01 X12.2382 Y-0.8266
G01 X12.2275 Y-0.8217
G01 X12.2166 Y-0.8173
G01 X12.1136 Y-0.7840
G01 X12.1022 Y-0.7807
G01 X12.0849 Y-0.7767
G01 X12.0732 Y-0.7747
G01 X12.0615 Y-0.7733
G01 X11.9584 Y-0.7637
G01 X11.9467 Y-0.7629
G01 X11.9291 Y-0.7627
G01 X11.9116 Y-0.7638
G01 X11.8075 Y-0.7739
G01 X11.7900 Y-0.7763
G01 X11.7785 Y-0.7785
G01 X11.7672 Y-0.7813
G01 X11.7559 Y-0.7846
G01 X11.6629 Y-0.8146
G01 X11.6459 Y-0.8208
G01 X11.6293 Y-0.8283
G01 X11.6185 Y-0.8339
G01 X11.6081 Y-0.8401
G01 X11.5268 Y-0.8909
G01 X11.5171 Y-0.8973
G01 X11.5030 Y-0.9078
G01 X11.4941 Y-0.9154
G01 X11.4814 Y-0.9274
G01 X11.4123 Y-0.9980
G01 X11.3997 Y-1.0119
G01 X11.3919 Y-1.0217
G01 X11.3812 Y-1.0371
G01 X11.3228 Y-1.1280
G01 X11.3134 Y-1.1439
G01 X11.3078 Y-1.1549
G01 X11.3028 Y-1.1662
G01 X11.2565 Y-1.2769
G01 X11.2522 Y-1.2882
G01 X8.5629 Y-9.3610
G01 X8.5590 Y-9.3736
G01 X8.5473 Y-9.4177
G01 X8.5374 Y-9.4704
G01 X8.5356 Y-9.4883
G01 X8.5305 Y-9.5645
G01 X8.5300 Y-9.5842
G01 X8.5305 Y-9.5973
G01 X8.5376 Y-9.7035
G01 X8.5393 Y-9.7205
G01 X8.5411 Y-9.7317
G01 X8.5435 Y-9.7429
G01 X8.5648 Y-9.8343
G01 X8.5695 Y-9.8516
G01 X8.5733 Y-9.8629
G01 X8.5777 Y-9.8740
G01 X8.6176 Y-9.9625
G01 X8.6229 Y-9.9729
G01 X8.6317 Y-9.9879
G01 X8.6381 Y-9.9975
G01 X8.6450 Y-10.0069
G01 X8.6943 Y-10.0704
G01 X8.7021 Y-10.0799
G01 X8.7103 Y-10.0890
G01 X8.7190 Y-10.0977
G01 X8.7281 Y-10.1059
G01 X8.7376 Y-10.1137
G00 Z2.0000
G00 X8.6857 Y-10.1804
G01 F60.00
G01 Z-0.1000
G01 F120.00
G01 X8.7560 Y-10.2349
G01 X8.7688 Y-10.2439
G01 X8.7888 Y-10.2563
G01 X8.8096 Y-10.2672
G01 X8.8944 Y-10.3056
G01 X8.9092 Y-10.3118
G01 X8.9319 Y-10.3198
G01 X8.9552 Y-10.3262
G01 X9.0466 Y-10.3475
G01 X9.0616 Y-10.3506
G01 X9.0767 Y-10.3530
G01 X9.0995 Y-10.3554
G01 X9.2057 Y-10.3625
G01 X9.2306 Y-10.3632
G01 X9.2471 Y-10.3627
G01 X9.3663 Y-10.3527
G01 X9.3819 Y-10.3506
G01 X9.3974 Y-10.3479
G01 X9.4203 Y-10.3423
G01 X9.5107 Y-10.3169
G01 X9.5267 Y-10.3120
G01 X9.5502 Y-10.3031
G01 X9.5729 Y-10.2924
G01 X9.6580 Y-10.2458
G01 X9.6787 Y-10.2334
G01 X9.6919 Y-10.2244
G01 X9.7109 Y-10.2097
G01 X9.7229 Y-10.1991
G01 X9.7939 Y-10.1335
G01 X9.8109 Y-10.1158
G01 X9.8214 Y-10.1033
G01 X9.8361 Y-10.0837
G01 X9.8935 Y-10.0001
G01 X9.9062 Y-9.9790
G01 X9.9138 Y-9.9643
G01 X9.9206 Y-9.9494
G01 X9.9608 Y-9.8554
G01 X9.9674 Y-9.8387
G01 X10.5452 Y-8.1077
G01 X13.3231 Y-8.1077
G01 X13.8980 Y-9.8302
G01 X13.9042 Y-9.8471
G01 X13.9477 Y-9.9493
G01 X13.9546 Y-9.9643
G01 X13.9622 Y-9.9789
G01 X13.9749 Y-10.0001
G01 X14.0323 Y-10.0837
G01 X14.0419 Y-10.0969
G01 X14.0521 Y-10.1096
G01 X14.0687 Y-10.1278
G01 X14.0804 Y-10.1391
G01 X14.1514 Y-10.2044
G01 X14.1637 Y-10.2147
G01 X14.1765 Y-10.2244
G01 X14.1897 Y-10.2334
G01 X14.2034 Y-10.2418
G01 X14.2881 Y-10.2884
G01 X14.3030 Y-10.2961
G01 X14.3182 Y-10.3031
G01 X14.3417 Y-10.3120
G01 X14.3577 Y-10.3169
G01 X14.4557 Y-10.3443
G01 X14.4710 Y-10.3479
G01 X14.4865 Y-10.3506
G01 X14.5099 Y-10.3534
G01 X14.6213 Y-10.3627
G01 X14.6461 Y-10.3632
G01 X14.6627 Y-10.3625
G01 X14.7688 Y-10.3554
G01 X14.7917 Y-10.3530
G01 X14.8068 Y-10.3506
G01 X14.8218 Y-10.3475
G01 X14.9210 Y-10.3242
G01 X14.9441 Y-10.3174
G01 X14.9666 Y-10.3088
G01 X15.0517 Y-10.2705
G01 X15.0660 Y-10.2636
G01 X15.0800 Y-10.2561
G01 X15.1003 Y-10.2434
G01 X15.1197 Y-10.2294
G01 X15.1894 Y-10.1746
G01 X15.2072 Y-10.1588
G01 X15.2239 Y-10.1417
G01 X15.2393 Y-10.1235
G01 X15.2939 Y-10.0536
G01 X15.3075 Y-10.0340
G01 X15.3157 Y-10.0204
G01 X15.3269 Y-9.9992
G01 X15.3653 Y-9.9143
G01 X15.3744 Y-9.8920
G01 X15.3795 Y-9.8767
G01 X15.3858 Y-9.8535
G01 X15.4072 Y-9.7621
G01 X15.4116 Y-9.7395
G01 X15.4137 Y-9.7244
G01 X15.4151 Y-9.7091
G01 X15.4222 Y-9.6030
G01 X15.4229 Y-9.5853
G01 X15.4222 Y-9.5589
G01 X15.4171 Y-9.4827
G01 X15.4142 Y-9.4561
G01 X15.4067 Y-9.4127
G01 X15.4031 Y-9.3953
G01 X15.3987 Y-9.3781
G01 X15.3876 Y-9.3404
G01 X12.6933 Y-1.2545
G01 X12.6847 Y-1.2318
G01 X12.6400 Y-1.1246
G01 X12.6332 Y-1.1093
G01 X12.6256 Y-1.0943
G01 X12.6127 Y-1.0726
G01 X12.5520 Y-0.9787
G01 X12.5379 Y-0.9595
G01 X12.5278 Y-0.9473
G01 X12.5115 Y-0.9299
G01 X12.4368 Y-0.8559
G01 X12.4175 Y-0.8391
G01 X12.4039 Y-0.8287
G01 X12.3826 Y-0.8145
G01 X12.2960 Y-0.7617
G01 X12.2752 Y-0.7506
G01 X12.2608 Y-0.7440
G01 X12.2462 Y-0.7382
G01 X12.2313 Y-0.7330
G01 X12.1317 Y-0.7012
G01 X12.1164 Y-0.6971
G01 X12.1008 Y-0.6937
G01 X12.0851 Y-0.6911
G01 X12.0693 Y-0.6892
G01 X11.9662 Y-0.6796
G01 X11.9505 Y-0.6785
G01 X11.9269 Y-0.6782
G01 X11.9034 Y-0.6797
G01 X11.7993 Y-0.6899
G01 X11.7758 Y-0.6930
G01 X11.7604 Y-0.6960
G01 X11.7451 Y-0.6998
G01 X11.7300 Y-0.7042
G01 X11.6370 Y-0.7342
G01 X11.6141 Y-0.7426
G01 X11.5991 Y-0.7491
G01 X11.5845 Y-0.7563
G01 X11.5633 Y-0.7685
G01 X11.4754 Y-0.8235
G01 X11.4625 Y-0.8324
G01 X11.4501 Y-0.8420
G01 X11.4381 Y-0.8521
G01 X11.4210 Y-0.8683
G01 X11.3519 Y-0.9390
G01 X11.3350 Y-0.9576
G01 X11.3196 Y-0.9775
G01 X11.3101 Y-0.9914
G01 X11.2517 Y-1.0823
G01 X11.2391 Y-1.1038
G01 X11.2316 Y-1.1185
G01 X11.2248 Y-1.1337
G01 X11.1755 Y-1.2519
G01 X11.1700 Y-1.2672
G01 X8.4827 Y-9.3343
G01 X8.4775 Y-9.3513
G01 X8.4689 Y-9.3828
G01 X8.4648 Y-9.3996
G01 X8.4564 Y-9.4427
G01 X8.4538 Y-9.4586
G01 X8.4513 Y-9.4827
G01 X8.4462 Y-9.5589
G01 X8.4455 Y-9.5853
G01 X8.4462 Y-9.6030
G01 X8.4533 Y-9.7091
G01 X8.4556 Y-9.7320
G01 X8.4581 Y-9.7471
G01 X8.4612 Y-9.7621
G01 X8.4845 Y-9.8613
G01 X8.4889 Y-9.8767
G01 X8.4940 Y-9.8920
G01 X8.5031 Y-9.9143
G01 X8.5414 Y-9.9990
G01 X8.5523 Y-10.0198
G01 X8.5604 Y-10.0332
G01 X8.5690 Y-10.0461
G01 X8.5783 Y-10.0587
G01 X8.6276 Y-10.1222
G01 X8.6380 Y-10.1350
G01 X8.6491 Y-10.1472
G01 X8.6607 Y-10.1589
G01 X8.6729 Y-10.1699
G01 X8.6857 Y-10.1804
G00 Z2.0000
G00 X16.7492 Y-0.9197
G01 F60.00
G01 Z-0.1000
G01 F120.00
G01 X16.6999 Y-0.9837
G01 X16.6899 Y-0.9975
G01 X16.6805 Y-1.0118
G01 X16.6720 Y-1.0265
G01 X16.6606 Y-1.0494
G01 X16.6222 Y-1.1347
G01 X16.6135 Y-1.1578
G01 X16.6086 Y-1.1736
G01 X16.6046 Y-1.1895
G01 X16.5819 Y-1.2894
G01 X16.5778 Y-1.3150
G01 X16.5762 Y-1.3323
G01 X16.5691 Y-1.4384
G01 X16.5684 Y-1.4560
G01 X16.5686 Y-1.4736
G01 X16.5742 Y-1.5590
G01 X16.5770 Y-1.5851
G01 X16.5844 Y-1.6288
G01 X16.5876 Y-1.6447
G01 X16.5915 Y-1.6604
G01 X16.6007 Y-1.6934
G01 X16.6056 Y-1.7097
G01 X19.2980 Y-9.7894
G01 X19.3038 Y-9.8053
G01 X19.3517 Y-9.9193
G01 X19.3584 Y-9.9344
G01 X19.3660 Y-9.9490
G01 X19.3786 Y-9.9703
G01 X19.4394 Y-10.0644
G01 X19.4537 Y-10.0838
G01 X19.4641 Y-10.0962
G01 X19.4807 Y-10.1138
G01 X19.5492 Y-10.1814
G01 X19.5663 Y-10.1970
G01 X19.5783 Y-10.2068
G01 X19.5907 Y-10.2160
G01 X19.6035 Y-10.2246
G01 X19.6898 Y-10.2769
G01 X19.7035 Y-10.2848
G01 X19.7247 Y-10.2953
G01 X19.7393 Y-10.3015
G01 X19.7616 Y-10.3094
G01 X19.8535 Y-10.3383
G01 X19.8685 Y-10.3427
G01 X19.8836 Y-10.3463
G01 X19.9065 Y-10.3503
G01 X19.9219 Y-10.3521
G01 X20.0250 Y-10.3618
G01 X20.0404 Y-10.3629
G01 X20.0558 Y-10.3632
G01 X20.0713 Y-10.3629
G01 X20.0866 Y-10.3618
G01 X20.1898 Y-10.3521
G01 X20.2052 Y-10.3503
G01 X20.2205 Y-10.3478
G01 X20.2357 Y-10.3445
G01 X20.2581 Y-10.3383
G01 X20.3501 Y-10.3094
G01 X20.3724 Y-10.3015
G01 X20.3941 Y-10.2920
G01 X20.4151 Y-10.2809
G01 X20.5016 Y-10.2287
G01 X20.5147 Y-10.2204
G01 X20.5273 Y-10.2115
G01 X20.5454 Y-10.1970
G01 X20.5569 Y-10.1867
G01 X20.6310 Y-10.1138
G01 X20.6476 Y-10.0962
G01 X20.6629 Y-10.0775
G01 X20.6723 Y-10.0644
G01 X20.7331 Y-9.9703
G01 X20.7457 Y-9.9490
G01 X20.7532 Y-9.9344
G01 X20.7600 Y-9.9194
G01 X20.8047 Y-9.8132
G01 X20.8136 Y-9.7894
G01 X23.5086 Y-1.7016
G01 X23.5223 Y-1.6520
G01 X23.5261 Y-1.6353
G01 X23.5289 Y-1.6183
G01 X23.5391 Y-1.5462
G01 X23.5408 Y-1.5312
G01 X23.5419 Y-1.5162
G01 X23.5432 Y-1.4690
G01 X23.5432 Y-1.4537
G01 X23.5426 Y-1.4384
G01 X23.5354 Y-1.3322
G01 X23.5338 Y-1.3150
G01 X23.5313 Y-1.2979
G01 X23.5279 Y-1.2810
G01 X23.5052 Y-1.1815
G01 X23.5007 Y-1.1657
G01 X23.4926 Y-1.1423
G01 X23.4861 Y-1.1271
G01 X23.4511 Y-1.0494
G01 X23.4437 Y-1.0340
G01 X23.4355 Y-1.0191
G01 X23.4265 Y-1.0046
G01 X23.4169 Y-0.9905
G01 X23.3625 Y-0.9197
G01 X23.3519 Y-0.9066
G01 X23.3406 Y-0.8941
G01 X23.3288 Y-0.8822
G01 X23.3163 Y-0.8709
G01 X23.3033 Y-0.8603
G01 X23.2398 Y-0.8110
G01 X23.2210 Y-0.7974
G01 X23.2013 Y-0.7852
G01 X23.1808 Y-0.7744
G01 X23.0966 Y-0.7361
G01 X23.0740 Y-0.7269
G01 X23.0586 Y-0.7216
G01 X23.0430 Y-0.7172
G01 X22.9437 Y-0.6939
G01 X22.9287 Y-0.6908
G01 X22.9137 Y-0.6883
G01 X22.8909 Y-0.6860
G01 X22.7858 Y-0.6789
G01 X22.7609 Y-0.6782
G01 X22.7361 Y-0.6793
G01 X22.6244 Y-0.6887
G01 X22.6085 Y-0.6908
G01 X22.5927 Y-0.6937
G01 X22.5693 Y-0.6994
G01 X22.4784 Y-0.7253
G01 X22.4629 Y-0.7302
G01 X22.4401 Y-0.7388
G01 X22.4252 Y-0.7456
G01 X22.4108 Y-0.7530
G01 X22.3256 Y-0.7996
G01 X22.3119 Y-0.8079
G01 X22.2987 Y-0.8169
G01 X22.2860 Y-0.8265
G01 X22.2737 Y-0.8367
G01 X22.1954 Y-0.9083
G01 X22.1777 Y-0.9268
G01 X22.1667 Y-0.9398
G01 X22.1564 Y-0.9534
G01 X22.0987 Y-1.0381
G01 X22.0858 Y-1.0586
G01 X22.0745 Y-1.0800
G01 X22.0678 Y-1.0947
G01 X22.0277 Y-1.1892
G01 X22.0184 Y-1.2138
G01 X20.0558 Y-7.1015
G01 X18.0933 Y-1.2138
G01 X18.0883 Y-1.2000
G01 X18.0828 Y-1.1864
G01 X18.0416 Y-1.0919
G01 X18.0314 Y-1.0706
G01 X18.0197 Y-1.0501
G01 X18.0111 Y-1.0369
G01 X17.9530 Y-0.9523
G01 X17.9375 Y-0.9325
G01 X17.9205 Y-0.9140
G01 X17.9084 Y-0.9024
G01 X17.8370 Y-0.8372
G01 X17.8250 Y-0.8272
G01 X17.8126 Y-0.8178
G01 X17.7997 Y-0.8090
G01 X17.7863 Y-0.8008
G01 X17.7013 Y-0.7538
G01 X17.6792 Y-0.7426
G01 X17.6640 Y-0.7361
G01 X17.6485 Y-0.7304
G01 X17.6327 Y-0.7255
G01 X17.5345 Y-0.6974
G01 X17.5109 Y-0.6922
G01 X17.4869 Y-0.6887
G01 X17.3757 Y-0.6793
G01 X17.3508 Y-0.6782
G01 X17.3259 Y-0.6789
G01 X17.2208 Y-0.6860
G01 X17.1980 Y-0.6883
G01 X17.1755 Y-0.6922
G01 X17.0766 Y-0.7152
G01 X17.0531 Y-0.7216
G01 X17.0377 Y-0.7269
G01 X17.0225 Y-0.7328
G01 X16.9379 Y-0.7712
G01 X16.9171 Y-0.7815
G01 X16.8972 Y-0.7932
G01 X16.8843 Y-0.8018
G01 X16.8719 Y-0.8110
G01 X16.8084 Y-0.8603
G01 X16.7954 Y-0.8709
G01 X16.7829 Y-0.8822
G01 X16.7710 Y-0.8941
G01 X16.7598 Y-0.9066
G01 X16.7492 Y-0.9197
G00 Z2.0000
G00 X16.8161 Y-0.9712
G01 F60.00
G01 Z-0.1000
G01 F120.00
G01 X16.7669 Y-1.0353
G01 X16.7594 Y-1.0455
G01 X16.7524 Y-1.0561
G01 X16.7461 Y-1.0671
G01 X16.7376 Y-1.0841
G01 X16.7025 Y-1.1618
G01 X16.6978 Y-1.1732
G01 X16.6936 Y-1.1847
G01 X16.6900 Y-1.1964
G01 X16.6869 Y-1.2083
G01 X16.6648 Y-1.3060
G01 X16.6617 Y-1.3251
G01 X16.6605 Y-1.3379
G01 X16.6534 Y-1.4441
G01 X16.6529 Y-1.4571
G01 X16.6531 Y-1.4702
G01 X16.6585 Y-1.5534
G01 X16.6605 Y-1.5728
G01 X16.6700 Y-1.6261
G01 X16.6838 Y-1.6769
G01 X19.3782 Y-9.7627
G01 X19.3825 Y-9.7746
G01 X19.4295 Y-9.8866
G01 X19.4346 Y-9.8977
G01 X19.4402 Y-9.9086
G01 X19.4496 Y-9.9245
G01 X19.5059 Y-10.0118
G01 X19.5127 Y-10.0217
G01 X19.5237 Y-10.0360
G01 X19.5316 Y-10.0450
G01 X19.5399 Y-10.0536
G01 X19.6085 Y-10.1212
G01 X19.6169 Y-10.1291
G01 X19.6301 Y-10.1401
G01 X19.6394 Y-10.1470
G01 X19.6538 Y-10.1564
G01 X19.7335 Y-10.2046
G01 X19.7437 Y-10.2105
G01 X19.7542 Y-10.2158
G01 X19.7703 Y-10.2229
G01 X19.7870 Y-10.2288
G01 X19.8789 Y-10.2578
G01 X19.8900 Y-10.2610
G01 X19.9012 Y-10.2637
G01 X19.9126 Y-10.2658
G01 X19.9298 Y-10.2680
G01 X20.0329 Y-10.2777
G01 X20.0501 Y-10.2787
G01 X20.0616 Y-10.2787
G01 X20.0788 Y-10.2777
G01 X20.1819 Y-10.2680
G01 X20.1934 Y-10.2667
G01 X20.2048 Y-10.2648
G01 X20.2217 Y-10.2610
G01 X20.2328 Y-10.2578
G01 X20.3247 Y-10.2288
G01 X20.3358 Y-10.2250
G01 X20.3522 Y-10.2183
G01 X20.3627 Y-10.2132
G01 X20.3731 Y-10.2076
G01 X20.4579 Y-10.1564
G01 X20.4676 Y-10.1502
G01 X20.4770 Y-10.1436
G01 X20.4905 Y-10.1328
G01 X20.4990 Y-10.1252
G01 X20.5717 Y-10.0536
G01 X20.5841 Y-10.0405
G01 X20.5954 Y-10.0266
G01 X20.6024 Y-10.0168
G01 X20.6621 Y-9.9245
G01 X20.6715 Y-9.9087
G01 X20.6771 Y-9.8977
G01 X20.6821 Y-9.8866
G01 X20.7268 Y-9.7804
G01 X20.7335 Y-9.7627
G01 X23.4278 Y-1.6769
G01 X23.4387 Y-1.6378
G01 X23.4431 Y-1.6191
G01 X23.4452 Y-1.6065
G01 X23.4554 Y-1.5344
G01 X23.4567 Y-1.5232
G01 X23.4575 Y-1.5121
G01 X23.4588 Y-1.4554
G01 X23.4511 Y-1.3379
G01 X23.4491 Y-1.3187
G01 X23.4456 Y-1.2998
G01 X23.4233 Y-1.2023
G01 X23.4200 Y-1.1905
G01 X23.4139 Y-1.1731
G01 X23.4091 Y-1.1618
G01 X23.3741 Y-1.0841
G01 X23.3686 Y-1.0727
G01 X23.3625 Y-1.0616
G01 X23.3558 Y-1.0508
G01 X23.3486 Y-1.0403
G01 X23.2917 Y-0.9663
G01 X23.2835 Y-0.9568
G01 X23.2749 Y-0.9477
G01 X23.2659 Y-0.9391
G01 X23.2564 Y-0.9309
G01 X23.1880 Y-0.8777
G01 X23.1787 Y-0.8709
G01 X23.1692 Y-0.8645
G01 X23.1593 Y-0.8586
G01 X23.1441 Y-0.8505
G01 X23.0616 Y-0.8130
G01 X23.0505 Y-0.8083
G01 X23.0392 Y-0.8041
G01 X23.0218 Y-0.7989
G01 X22.9245 Y-0.7762
G01 X22.9133 Y-0.7738
G01 X22.9021 Y-0.7720
G01 X22.8852 Y-0.7703
G01 X22.7739 Y-0.7628
G01 X22.7616 Y-0.7626
G01 X22.7492 Y-0.7630
G01 X22.6394 Y-0.7721
G01 X22.6276 Y-0.7734
G01 X22.6158 Y-0.7752
G01 X22.5983 Y-0.7791
G01 X22.5016 Y-0.8066
G01 X22.4900 Y-0.8102
G01 X22.4786 Y-0.8143
G01 X22.4675 Y-0.8191
G01 X22.4566 Y-0.8243
G01 X22.3730 Y-0.8698
G01 X22.3627 Y-0.8758
G01 X22.3527 Y-0.8822
G01 X22.3430 Y-0.8891
G01 X22.3337 Y-0.8965
G01 X22.3247 Y-0.9043
G01 X22.2587 Y-0.9648
G01 X22.2452 Y-0.9782
G01 X22.2327 Y-0.9926
G01 X22.2214 Y-1.0079
G01 X22.1686 Y-1.0856
G01 X22.1621 Y-1.0957
G01 X22.1561 Y-1.1061
G01 X22.1506 Y-1.1168
G01 X22.1456 Y-1.1277
G01 X22.1055 Y-1.2222
G01 X22.0985 Y-1.2405
G01 X20.0558 Y-7.3686
G01 X18.0131 Y-1.2405
G01 X18.0053 Y-1.2201
G01 X17.9642 Y-1.1256
G01 X17.9592 Y-1.1150
G01 X17.9509 Y-1.0995
G01 X17.9415 Y-1.0847
G01 X17.8881 Y-1.0070
G01 X17.8808 Y-0.9969
G01 X17.8730 Y-0.9872
G01 X17.8604 Y-0.9734
G01 X17.8514 Y-0.9647
G01 X17.7815 Y-0.9009
G01 X17.7726 Y-0.8935
G01 X17.7633 Y-0.8865
G01 X17.7537 Y-0.8799
G01 X17.7438 Y-0.8738
G01 X17.6605 Y-0.8278
G01 X17.6440 Y-0.8195
G01 X17.6327 Y-0.8146
G01 X17.6212 Y-0.8104
G01 X17.6094 Y-0.8067
G01 X17.5190 Y-0.7808
G01 X17.5015 Y-0.7764
G01 X17.4838 Y-0.7734
G01 X17.4718 Y-0.7721
G01 X17.3687 Y-0.7635
G01 X17.3502 Y-0.7626
G01 X17.3316 Y-0.7632
G01 X17.2265 Y-0.7703
G01 X17.2095 Y-0.7720
G01 X17.1928 Y-0.7749
G01 X17.0958 Y-0.7975
G01 X17.0841 Y-0.8005
G01 X17.0668 Y-0.8061
G01 X17.0500 Y-0.8130
G01 X16.9676 Y-0.8505
G01 X16.9574 Y-0.8558
G01 X16.9425 Y-0.8645
G01 X16.9329 Y-0.8709
G01 X16.9237 Y-0.8777
G01 X16.8602 Y-0.9270
G01 X16.8505 Y-0.9349
G01 X16.8412 Y-0.9433
G01 X16.8324 Y-0.9522
G01 X16.8240 Y-0.9615
G01 X16.8161 Y-0.9712
G00 Z2.0000
G00 X16.8831 Y-1.0228
G01 F60.00
G01 Z-0.1000
G01 F120.00
G01 X16.8313 Y-1.0901
G01 X16.8222 Y-1.1041
G01 X16.8146 Y-1.1189
G01 X16.7795 Y-1.1966
G01 X16.7737 Y-1.2116
G01 X16.7693 Y-1.2271
G01 X16.7476 Y-1.3226
G01 X16.7462 Y-1.3309
G01 X16.7448 Y-1.3435
G01 X16.7377 Y-1.4497
G01 X16.7375 Y-1.4669
G01 X16.7428 Y-1.5479
G01 X16.7441 Y-1.5606
G01 X16.7524 Y-1.6076
G01 X16.7647 Y-1.6523
G01 X19.4597 Y-9.7399
G01 X19.5074 Y-9.8538
G01 X19.5144 Y-9.8683
G01 X19.5205 Y-9.8786
G01 X19.5769 Y-9.9660
G01 X19.5837 Y-9.9757
G01 X19.5886 Y-9.9819
G01 X19.5992 Y-9.9934
G01 X19.6678 Y-10.0610
G01 X19.6733 Y-10.0662
G01 X19.6820 Y-10.0734
G01 X19.6880 Y-10.0779
G01 X19.6975 Y-10.0841
G01 X19.7773 Y-10.1324
G01 X19.7908 Y-10.1397
G01 X19.8014 Y-10.1444
G01 X19.8123 Y-10.1482
G01 X19.9043 Y-10.1772
G01 X19.9189 Y-10.1810
G01 X19.9264 Y-10.1825
G01 X19.9377 Y-10.1839
G01 X20.0408 Y-10.1936
G01 X20.0558 Y-10.1943
G01 X20.0709 Y-10.1936
G01 X20.1740 Y-10.1839
G01 X20.1890 Y-10.1818
G01 X20.1964 Y-10.1802
G01 X20.2074 Y-10.1772
G01 X20.3066 Y-10.1457
G01 X20.3208 Y-10.1397
G01 X20.3311 Y-10.1343
G01 X20.4142 Y-10.0841
G01 X20.4267 Y-10.0757
G01 X20.4355 Y-10.0687
G01 X20.4439 Y-10.0610
G01 X20.5124 Y-9.9934
G01 X20.5231 Y-9.9819
G01 X20.5303 Y-9.9725
G01 X20.5347 Y-9.9660
G01 X20.5911 Y-9.8786
G01 X20.5973 Y-9.8683
G01 X20.6043 Y-9.8538
G01 X20.6490 Y-9.7476
G01 X20.6533 Y-9.7360
G01 X23.3470 Y-1.6523
G01 X23.3573 Y-1.6153
G01 X23.3602 Y-1.6030
G01 X23.3717 Y-1.5226
G01 X23.3731 Y-1.5080
G01 X23.3743 Y-1.4572
G01 X23.3669 Y-1.3435
G01 X23.3655 Y-1.3310
G01 X23.3632 Y-1.3185
G01 X23.3424 Y-1.2271
G01 X23.3393 Y-1.2154
G01 X23.3367 Y-1.2078
G01 X23.3321 Y-1.1966
G01 X23.2971 Y-1.1188
G01 X23.2895 Y-1.1040
G01 X23.2804 Y-1.0901
G01 X23.2286 Y-1.0228
G01 X23.2179 Y-1.0103
G01 X23.2091 Y-1.0017
G01 X23.2029 Y-0.9963
G01 X23.1362 Y-0.9445
G01 X23.1238 Y-0.9358
G01 X23.1141 Y-0.9300
G01 X23.1074 Y-0.9266
G01 X23.0267 Y-0.8900
G01 X23.0157 Y-0.8854
G01 X23.0006 Y-0.8807
G01 X22.9053 Y-0.8584
G01 X22.8906 Y-0.8557
G01 X22.8795 Y-0.8546
G01 X22.7703 Y-0.8472
G01 X22.7582 Y-0.8472
G01 X22.7501 Y-0.8477
G01 X22.6465 Y-0.8563
G01 X22.6309 Y-0.8583
G01 X22.6194 Y-0.8609
G01 X22.5247 Y-0.8878
G01 X22.5097 Y-0.8929
G01 X22.4988 Y-0.8977
G01 X22.4917 Y-0.9013
G01 X22.4135 Y-0.9440
G01 X22.4067 Y-0.9479
G01 X22.3969 Y-0.9544
G01 X22.3847 Y-0.9640
G01 X22.3157 Y-1.0271
G01 X22.3040 Y-1.0389
G01 X22.2987 Y-1.0453
G01 X22.2913 Y-1.0554
G01 X22.2384 Y-1.1331
G01 X22.2321 Y-1.1431
G01 X22.2284 Y-1.1500
G01 X22.2234 Y-1.1607
G01 X22.1832 Y-1.2552
G01 X22.1787 Y-1.2673
G01 X20.0558 Y-7.6358
G01 X17.9330 Y-1.2673
G01 X17.9279 Y-1.2539
G01 X17.8835 Y-1.1524
G01 X17.8780 Y-1.1423
G01 X17.8718 Y-1.1325
G01 X17.8185 Y-1.0548
G01 X17.8086 Y-1.0418
G01 X17.8031 Y-1.0357
G01 X17.7944 Y-1.0270
G01 X17.7288 Y-0.9671
G01 X17.7231 Y-0.9621
G01 X17.7140 Y-0.9551
G01 X17.7045 Y-0.9487
G01 X17.6979 Y-0.9449
G01 X17.6197 Y-0.9017
G01 X17.6089 Y-0.8963
G01 X17.6014 Y-0.8931
G01 X17.5862 Y-0.8879
G01 X17.4957 Y-0.8620
G01 X17.4843 Y-0.8591
G01 X17.4726 Y-0.8571
G01 X17.3617 Y-0.8477
G01 X17.3495 Y-0.8471
G01 X17.3373 Y-0.8475
G01 X17.2322 Y-0.8546
G01 X17.2210 Y-0.8557
G01 X17.2064 Y-0.8584
G01 X17.1073 Y-0.8817
G01 X17.0960 Y-0.8854
G01 X17.0849 Y-0.8900
G01 X17.0043 Y-0.9266
G01 X16.9976 Y-0.9300
G01 X16.9878 Y-0.9358
G01 X16.9755 Y-0.9445
G01 X16.9088 Y-0.9963
G01 X16.9026 Y-1.0017
G01 X16.8937 Y-1.0103
G01 X16.8831 Y-1.0228
G00 Z2.0000
G00 X16.9500 Y-1.0743
G01 F60.00
G01 Z-0.1000
G01 F120.00
G01 X16.8996 Y-1.1399
G01 X16.8952 Y-1.1465
G01 X16.8916 Y-1.1536
G01 X16.8566 Y-1.2313
G01 X16.8538 Y-1.2384
G01 X16.8517 Y-1.2458
G01 X16.8304 Y-1.3392
G01 X16.8291 Y-1.3492
G01 X16.8220 Y-1.4554
G01 X16.8219 Y-1.4635
G01 X16.8277 Y-1.5483
G01 X16.8349 Y-1.5891
G01 X16.8455 Y-1.6277
G01 X19.5391 Y-9.7112
G01 X19.5877 Y-9.8262
G01 X19.5915 Y-9.8328
G01 X19.6479 Y-9.9202
G01 X19.6535 Y-9.9278
G01 X19.6585 Y-9.9333
G01 X19.7271 Y-10.0008
G01 X19.7339 Y-10.0068
G01 X19.7412 Y-10.0118
G01 X19.8210 Y-10.0601
G01 X19.8275 Y-10.0636
G01 X19.8377 Y-10.0676
G01 X19.9296 Y-10.0966
G01 X19.9366 Y-10.0984
G01 X19.9455 Y-10.0998
G01 X20.0487 Y-10.1095
G01 X20.0558 Y-10.1098
G01 X20.0630 Y-10.1095
G01 X20.1661 Y-10.0998
G01 X20.1733 Y-10.0988
G01 X20.1820 Y-10.0966
G01 X20.2775 Y-10.0665
G01 X20.2842 Y-10.0636
G01 X20.2907 Y-10.0601
G01 X20.3704 Y-10.0118
G01 X20.3778 Y-10.0068
G01 X20.3846 Y-10.0008
G01 X20.4531 Y-9.9333
G01 X20.4582 Y-9.9278
G01 X20.4638 Y-9.9202
G01 X20.5202 Y-9.8328
G01 X20.5240 Y-9.8262
G01 X20.5732 Y-9.7093
G01 X23.2662 Y-1.6277
G01 X23.2773 Y-1.5869
G01 X23.2881 Y-1.5108
G01 X23.2888 Y-1.5021
G01 X23.2898 Y-1.4589
G01 X23.2819 Y-1.3432
G01 X23.2600 Y-1.2458
G01 X23.2573 Y-1.2366
G01 X23.2201 Y-1.1536
G01 X23.2164 Y-1.1465
G01 X23.2109 Y-1.1383
G01 X23.1616 Y-1.0743
G01 X23.1566 Y-1.0684
G01 X23.1494 Y-1.0617
G01 X23.0844 Y-1.0112
G01 X23.0785 Y-1.0071
G01 X23.0690 Y-1.0019
G01 X22.9918 Y-0.9669
G01 X22.9848 Y-0.9641
G01 X22.9775 Y-0.9620
G01 X22.8861 Y-0.9407
G01 X22.8791 Y-0.9394
G01 X22.7667 Y-0.9316
G01 X22.7571 Y-0.9318
G01 X22.6535 Y-0.9405
G01 X22.6461 Y-0.9415
G01 X22.6388 Y-0.9432
G01 X22.5479 Y-0.9691
G01 X22.5407 Y-0.9715
G01 X22.5321 Y-0.9755
G01 X22.4539 Y-1.0182
G01 X22.4476 Y-1.0220
G01 X22.4402 Y-1.0277
G01 X22.3728 Y-1.0894
G01 X22.3672 Y-1.0950
G01 X22.3611 Y-1.1029
G01 X22.3083 Y-1.1806
G01 X22.3027 Y-1.1903
G01 X22.2588 Y-1.2940
G01 X20.0558 Y-7.9029
G01 X17.8529 Y-1.2940
G01 X17.8504 Y-1.2876
G01 X17.8085 Y-1.1914
G01 X17.8060 Y-1.1865
G01 X17.8022 Y-1.1803
G01 X17.7488 Y-1.1026
G01 X17.7441 Y-1.0964
G01 X17.7373 Y-1.0894
G01 X17.6718 Y-1.0294
G01 X17.6648 Y-1.0237
G01 X17.6571 Y-1.0189
G01 X17.5788 Y-0.9757
G01 X17.5702 Y-0.9716
G01 X17.5629 Y-0.9691
G01 X17.4725 Y-0.9432
G01 X17.4615 Y-0.9409
G01 X17.3546 Y-0.9318
G01 X17.3430 Y-0.9318
G01 X17.2326 Y-0.9394
G01 X17.2256 Y-0.9407
G01 X17.1323 Y-0.9625
G01 X17.1251 Y-0.9647
G01 X17.1199 Y-0.9669
G01 X17.0426 Y-1.0019
G01 X17.0347 Y-1.0061
G01 X17.0273 Y-1.0112
G01 X16.9623 Y-1.0617
G01 X16.9565 Y-1.0670
G01 X16.9500 Y-1.0743
G00 Z2.0000
G00 X23.8976 Y-9.2264
G01 F60.00
G01 Z-0.1000
G01 F120.00
G01 X23.8983 Y-9.2183
G01 X23.9085 Y-9.1686
G01 X25.0005 Y-5.1041
G01 X25.0031 Y-5.0927
G01 X25.0053 Y-5.0773
G01 X25.0097 Y-5.0150
G01 X25.0101 Y-5.0035
G01 X25.0093 Y-4.9881
G01 X24.9908 Y-4.8613
G01 X24.9880 Y-4.8496
G01 X24.9844 Y-4.8382
G01 X24.9799 Y-4.8270
G01 X24.9747 Y-4.8163
G01 X24.9187 Y-4.7234
G01 X24.9117 Y-4.7137
G01 X24.9067 Y-4.7076
G01 X24.8985 Y-4.6989
G01 X24.8898 Y-4.6909
G01 X24.8805 Y-4.6835
G01 X24.8707 Y-4.6768
G01 X24.7800 Y-4.6230
G01 X24.7692 Y-4.6178
G01 X24.7580 Y-4.6134
G01 X24.7465 Y-4.6098
G01 X24.7348 Y-4.6071
G01 X24.6108 Y-4.5896
G01 X24.6029 Y-4.5889
G01 X24.5911 Y-4.5885
G01 X24.5793 Y-4.5890
G01 X24.5715 Y-4.5899
G01 X24.4777 Y-4.6021
G01 X24.4663 Y-4.6043
G01 X24.4550 Y-4.6073
G01 X24.4440 Y-4.6111
G01 X24.4333 Y-4.6157
G01 X24.3546 Y-4.6554
G01 X24.3441 Y-4.6615
G01 X24.3341 Y-4.6685
G01 X24.3246 Y-4.6761
G01 X24.3157 Y-4.6845
G01 X24.2574 Y-4.7498
G01 X24.2500 Y-4.7587
G01 X24.2455 Y-4.7649
G01 X24.2373 Y-4.7779
G01 X24.2304 Y-4.7917
G01 X24.1944 Y-4.8785
G01 X24.1900 Y-4.8904
G01 X23.0502 Y-9.1330
G01 X23.0478 Y-9.1451
G01 X23.0340 Y-9.2311
G01 X23.0331 Y-9.2430
G01 X23.0315 Y-9.2863
G01 X23.0317 Y-9.2976
G01 X23.0323 Y-9.3050
G01 X23.0450 Y-9.4305
G01 X23.0474 Y-9.4462
G01 X23.0513 Y-9.4617
G01 X23.0911 Y-9.5808
G01 X23.0971 Y-9.5961
G01 X23.1026 Y-9.6071
G01 X23.1068 Y-9.6142
G01 X23.1713 Y-9.7189
G01 X23.1798 Y-9.7313
G01 X23.1869 Y-9.7401
G01 X23.1920 Y-9.7457
G01 X23.2819 Y-9.8397
G01 X23.2909 Y-9.8483
G01 X23.3038 Y-9.8587
G01 X23.4110 Y-9.9365
G01 X23.4215 Y-9.9435
G01 X23.4364 Y-9.9515
G01 X23.5565 Y-10.0087
G01 X23.5682 Y-10.0133
G01 X23.5802 Y-10.0171
G01 X23.7052 Y-10.0506
G01 X23.7172 Y-10.0533
G01 X23.7336 Y-10.0555
G01 X23.8717 Y-10.0670
G01 X23.8879 Y-10.0671
G01 X23.9000 Y-10.0662
G01 X24.0213 Y-10.0488
G01 X24.0331 Y-10.0463
G01 X24.0448 Y-10.0429
G01 X24.0524 Y-10.0402
G01 X24.0635 Y-10.0354
G01 X24.0777 Y-10.0278
G01 X24.1618 Y-9.9770
G01 X24.1746 Y-9.9680
G01 X24.1835 Y-9.9604
G01 X24.1892 Y-9.9550
G01 X24.1997 Y-9.9434
G01 X24.2068 Y-9.9341
G01 X24.2111 Y-9.9277
G01 X24.2640 Y-9.8401
G01 X24.2696 Y-9.8293
G01 X24.2729 Y-9.8220
G01 X24.2783 Y-9.8068
G01 X24.2814 Y-9.7950
G01 X24.2829 Y-9.7871
G01 X24.2998 Y-9.6698
G01 X24.3007 Y-9.6622
G01 X24.3014 Y-9.6507
G01 X24.3013 Y-9.6391
G01 X24.3003 Y-9.6276
G01 X24.2822 Y-9.5035
G01 X24.2794 Y-9.4917
G01 X24.2770 Y-9.4840
G01 X24.2728 Y-9.4726
G01 X24.2677 Y-9.4615
G01 X24.2617 Y-9.4509
G01 X24.2130 Y-9.3706
G01 X24.2041 Y-9.3575
G01 X24.1940 Y-9.3454
G01 X24.1827 Y-9.3342
G01 X24.1704 Y-9.3243
G01 X24.1572 Y-9.3155
G01 X24.0730 Y-9.2658
G01 X24.0589 Y-9.2588
G01 X24.0479 Y-9.2545
G01 X24.0328 Y-9.2500
G01 X24.0212 Y-9.2476
G01 X23.9172 Y-9.2326
G01 X23.8976 Y-9.2264
G00 Z2.0000
G00 X23.9986 Y-9.1590
G01 F60.00
G01 Z-0.1000
G01 F120.00
G01 X25.0821 Y-5.1260
G01 X25.0849 Y-5.1145
G01 X25.0871 Y-5.1028
G01 X25.0894 Y-5.0852
G01 X25.0943 Y-5.0150
G01 X25.0946 Y-5.0033
G01 X25.0943 Y-4.9916
G01 X25.0928 Y-4.9741
G01 X25.0757 Y-4.8570
G01 X25.0737 Y-4.8450
G01 X25.0710 Y-4.8331
G01 X25.0659 Y-4.8155
G01 X25.0595 Y-4.7983
G01 X25.0519 Y-4.7817
G01 X25.0431 Y-4.7657
G01 X24.9953 Y-4.6865
G01 X24.9854 Y-4.6713
G01 X24.9744 Y-4.6569
G01 X24.9623 Y-4.6433
G01 X24.9493 Y-4.6307
G01 X24.9402 Y-4.6229
G01 X24.9257 Y-4.6119
G01 X24.9156 Y-4.6053
G01 X24.8302 Y-4.5543
G01 X24.8141 Y-4.5456
G01 X24.7975 Y-4.5380
G01 X24.7803 Y-4.5317
G01 X24.7626 Y-4.5267
G01 X24.7447 Y-4.5231
G01 X24.6264 Y-4.5064
G01 X24.6145 Y-4.5050
G01 X24.5965 Y-4.5041
G01 X24.5785 Y-4.5044
G01 X24.5666 Y-4.5054
G01 X24.4707 Y-4.5178
G01 X24.4590 Y-4.5196
G01 X24.4416 Y-4.5233
G01 X24.4246 Y-4.5283
G01 X24.4080 Y-4.5346
G01 X24.3918 Y-4.5420
G01 X24.3147 Y-4.5809
G01 X24.3040 Y-4.5870
G01 X24.2884 Y-4.5972
G01 X24.2737 Y-4.6085
G01 X24.2599 Y-4.6209
G01 X24.2471 Y-4.6343
G01 X24.1942 Y-4.6937
G01 X24.1866 Y-4.7026
G01 X24.1795 Y-4.7119
G01 X24.1728 Y-4.7215
G01 X24.1666 Y-4.7315
G01 X24.1609 Y-4.7417
G01 X24.1556 Y-4.7522
G01 X24.1163 Y-4.8462
G01 X24.1097 Y-4.8642
G01 X24.1060 Y-4.8765
G01 X22.9696 Y-9.1072
G01 X22.9667 Y-9.1193
G01 X22.9644 Y-9.1315
G01 X22.9517 Y-9.2098
G01 X22.9500 Y-9.2217
G01 X22.9487 Y-9.2397
G01 X22.9470 Y-9.2851
G01 X22.9473 Y-9.3022
G01 X22.9482 Y-9.3135
G01 X22.9609 Y-9.4390
G01 X22.9624 Y-9.4510
G01 X22.9646 Y-9.4630
G01 X22.9673 Y-9.4748
G01 X22.9705 Y-9.4865
G01 X23.0110 Y-9.6076
G01 X23.0176 Y-9.6252
G01 X23.0228 Y-9.6366
G01 X23.0285 Y-9.6477
G01 X23.0348 Y-9.6586
G01 X23.0994 Y-9.7632
G01 X23.1056 Y-9.7728
G01 X23.1124 Y-9.7822
G01 X23.1195 Y-9.7912
G01 X23.1310 Y-9.8041
G01 X23.2209 Y-9.8981
G01 X23.2345 Y-9.9113
G01 X23.2442 Y-9.9195
G01 X23.2542 Y-9.9271
G01 X23.3614 Y-10.0049
G01 X23.3774 Y-10.0156
G01 X23.3886 Y-10.0220
G01 X23.4000 Y-10.0278
G01 X23.5222 Y-10.0859
G01 X23.5400 Y-10.0930
G01 X23.5583 Y-10.0987
G01 X23.6833 Y-10.1322
G01 X23.7016 Y-10.1364
G01 X23.7141 Y-10.1384
G01 X23.7265 Y-10.1397
G01 X23.8607 Y-10.1509
G01 X23.8730 Y-10.1516
G01 X23.8915 Y-10.1515
G01 X23.9099 Y-10.1501
G01 X24.0354 Y-10.1321
G01 X24.0534 Y-10.1283
G01 X24.0712 Y-10.1232
G01 X24.0828 Y-10.1191
G01 X24.0997 Y-10.1118
G01 X24.1107 Y-10.1062
G01 X24.1214 Y-10.1001
G01 X24.2072 Y-10.0482
G01 X24.2171 Y-10.0416
G01 X24.2266 Y-10.0345
G01 X24.2358 Y-10.0269
G01 X24.2446 Y-10.0189
G01 X24.2531 Y-10.0105
G01 X24.2611 Y-10.0017
G01 X24.2722 Y-9.9878
G01 X24.2791 Y-9.9780
G01 X24.2855 Y-9.9680
G01 X24.3374 Y-9.8819
G01 X24.3459 Y-9.8656
G01 X24.3509 Y-9.8543
G01 X24.3554 Y-9.8428
G01 X24.3609 Y-9.8252
G01 X24.3651 Y-9.8073
G01 X24.3672 Y-9.7951
G01 X24.3834 Y-9.6818
G01 X24.3848 Y-9.6702
G01 X24.3856 Y-9.6585
G01 X24.3859 Y-9.6468
G01 X24.3856 Y-9.6350
G01 X24.3848 Y-9.6233
G01 X24.3834 Y-9.6117
G01 X24.3662 Y-9.4933
G01 X24.3638 Y-9.4812
G01 X24.3608 Y-9.4692
G01 X24.3552 Y-9.4516
G01 X24.3507 Y-9.4400
G01 X24.3457 Y-9.4288
G01 X24.3371 Y-9.4124
G01 X24.2820 Y-9.3217
G01 X24.2752 Y-9.3117
G01 X24.2642 Y-9.2973
G01 X24.2521 Y-9.2838
G01 X24.2435 Y-9.2754
G01 X24.2299 Y-9.2635
G01 X24.2154 Y-9.2526
G01 X24.2002 Y-9.2428
G01 X24.1194 Y-9.1951
G01 X24.1089 Y-9.1892
G01 X24.0982 Y-9.1839
G01 X24.0816 Y-9.1769
G01 X24.0702 Y-9.1729
G01 X24.0587 Y-9.1694
G01 X24.0470 Y-9.1666
G01 X24.0352 Y-9.1643
G01 X23.9986 Y-9.1590
G00 Z2.0000
G00 X24.1033 Y-9.0949
G01 F60.00
G01 Z-0.1000
G01 F120.00
G01 X25.1637 Y-5.1479
G01 X25.1690 Y-5.1246
G01 X25.1727 Y-5.1010
G01 X25.1742 Y-5.0852
G01 X25.1787 Y-5.0189
G01 X25.1791 Y-5.0031
G01 X25.1782 Y-4.9795
G01 X25.1756 Y-4.9560
G01 X25.1593 Y-4.8448
G01 X25.1566 Y-4.8286
G01 X25.1530 Y-4.8126
G01 X25.1461 Y-4.7890
G01 X25.1406 Y-4.7736
G01 X25.1343 Y-4.7584
G01 X25.1235 Y-4.7363
G01 X25.1154 Y-4.7221
G01 X25.0634 Y-4.6360
G01 X25.0543 Y-4.6225
G01 X25.0446 Y-4.6095
G01 X25.0289 Y-4.5909
G01 X25.0118 Y-4.5735
G01 X24.9936 Y-4.5574
G01 X24.9741 Y-4.5427
G01 X24.9537 Y-4.5295
G01 X24.8734 Y-4.4817
G01 X24.8591 Y-4.4737
G01 X24.8444 Y-4.4664
G01 X24.8294 Y-4.4598
G01 X24.8141 Y-4.4540
G01 X24.7906 Y-4.4467
G01 X24.7746 Y-4.4428
G01 X24.7504 Y-4.4385
G01 X24.6301 Y-4.4217
G01 X24.6141 Y-4.4203
G01 X24.5980 Y-4.4196
G01 X24.5819 Y-4.4197
G01 X24.5577 Y-4.4214
G01 X24.4519 Y-4.4351
G01 X24.4363 Y-4.4379
G01 X24.4131 Y-4.4435
G01 X24.3904 Y-4.4508
G01 X24.3755 Y-4.4566
G01 X24.3610 Y-4.4630
G01 X24.2748 Y-4.5064
G01 X24.2533 Y-4.5190
G01 X24.2395 Y-4.5283
G01 X24.2262 Y-4.5383
G01 X24.2134 Y-4.5489
G01 X24.2012 Y-4.5601
G01 X24.1895 Y-4.5720
G01 X24.1259 Y-4.6435
G01 X24.1160 Y-4.6558
G01 X24.1067 Y-4.6685
G01 X24.0981 Y-4.6816
G01 X24.0900 Y-4.6951
G01 X24.0826 Y-4.7090
G01 X24.0759 Y-4.7233
G01 X24.0383 Y-4.8138
G01 X24.0293 Y-4.8381
G01 X24.0244 Y-4.8546
G01 X22.8880 Y-9.0853
G01 X22.8841 Y-9.1015
G01 X22.8810 Y-9.1180
G01 X22.8683 Y-9.1962
G01 X22.8661 Y-9.2123
G01 X22.8643 Y-9.2365
G01 X22.8625 Y-9.2838
G01 X22.8627 Y-9.2991
G01 X22.8635 Y-9.3144
G01 X22.8778 Y-9.4556
G01 X22.8802 Y-9.4717
G01 X22.8835 Y-9.4877
G01 X22.8875 Y-9.5035
G01 X22.8923 Y-9.5191
G01 X22.9337 Y-9.6423
G01 X22.9398 Y-9.6580
G01 X22.9505 Y-9.6809
G01 X22.9629 Y-9.7029
G01 X23.0275 Y-9.8075
G01 X23.0403 Y-9.8268
G01 X23.0496 Y-9.8392
G01 X23.0595 Y-9.8511
G01 X23.0699 Y-9.8625
G01 X23.1599 Y-9.9565
G01 X23.1782 Y-9.9742
G01 X23.1911 Y-9.9852
G01 X23.2046 Y-9.9955
G01 X23.3118 Y-10.0733
G01 X23.3334 Y-10.0876
G01 X23.3483 Y-10.0963
G01 X23.3637 Y-10.1041
G01 X23.4801 Y-10.1595
G01 X23.4958 Y-10.1665
G01 X23.5199 Y-10.1754
G01 X23.5364 Y-10.1802
G01 X23.6614 Y-10.2138
G01 X23.6861 Y-10.2194
G01 X23.7027 Y-10.2221
G01 X23.7195 Y-10.2239
G01 X23.8536 Y-10.2351
G01 X23.8702 Y-10.2361
G01 X23.8950 Y-10.2359
G01 X23.9198 Y-10.2340
G01 X24.0413 Y-10.2166
G01 X24.0576 Y-10.2139
G01 X24.0737 Y-10.2103
G01 X24.0976 Y-10.2034
G01 X24.1208 Y-10.1948
G01 X24.1434 Y-10.1845
G01 X24.1651 Y-10.1724
G01 X24.2526 Y-10.1195
G01 X24.2659 Y-10.1105
G01 X24.2787 Y-10.1010
G01 X24.2911 Y-10.0908
G01 X24.3029 Y-10.0801
G01 X24.3142 Y-10.0688
G01 X24.3250 Y-10.0569
G01 X24.3351 Y-10.0446
G01 X24.3447 Y-10.0317
G01 X24.3578 Y-10.0117
G01 X24.4066 Y-9.9309
G01 X24.4186 Y-9.9092
G01 X24.4290 Y-9.8867
G01 X24.4349 Y-9.8712
G01 X24.4401 Y-9.8555
G01 X24.4463 Y-9.8315
G01 X24.4508 Y-9.8071
G01 X24.4681 Y-9.6860
G01 X24.4700 Y-9.6625
G01 X24.4704 Y-9.6467
G01 X24.4700 Y-9.6310
G01 X24.4689 Y-9.6152
G01 X24.4670 Y-9.5996
G01 X24.4494 Y-9.4791
G01 X24.4443 Y-9.4548
G01 X24.4374 Y-9.4308
G01 X24.4318 Y-9.4152
G01 X24.4254 Y-9.3999
G01 X24.4144 Y-9.3776
G01 X24.4061 Y-9.3632
G01 X24.3574 Y-9.2829
G01 X24.3486 Y-9.2693
G01 X24.3392 Y-9.2561
G01 X24.3291 Y-9.2433
G01 X24.3129 Y-9.2252
G01 X24.3014 Y-9.2138
G01 X24.2893 Y-9.2030
G01 X24.2767 Y-9.1928
G01 X24.2636 Y-9.1832
G01 X24.2432 Y-9.1701
G01 X24.1554 Y-9.1183
G01 X24.1411 Y-9.1108
G01 X24.1265 Y-9.1040
G01 X24.1033 Y-9.0949
G00 Z2.0000
G00 X24.0341 Y-9.9555
G01 F60.00
G01 Z-0.1000
G01 F120.00
G01 X24.1164 Y-9.9057
G01 X24.1239 Y-9.9003
G01 X24.1307 Y-9.8939
G01 X24.1367 Y-9.8868
G01 X24.1409 Y-9.8807
G01 X24.1906 Y-9.7982
G01 X24.1933 Y-9.7931
G01 X24.1962 Y-9.7860
G01 X24.1984 Y-9.7787
G01 X24.1999 Y-9.7711
G01 X24.2162 Y-9.6578
G01 X24.2170 Y-9.6469
G01 X24.2162 Y-9.6359
G01 X24.1999 Y-9.5236
G01 X24.1974 Y-9.5123
G01 X24.1940 Y-9.5033
G01 X24.1905 Y-9.4964
G01 X24.1387 Y-9.4113
G01 X24.1330 Y-9.4039
G01 X24.1278 Y-9.3984
G01 X24.1220 Y-9.3936
G01 X24.1142 Y-9.3883
G01 X24.0318 Y-9.3396
G01 X24.0251 Y-9.3362
G01 X24.0181 Y-9.3336
G01 X24.0108 Y-9.3316
G01 X24.0053 Y-9.3306
G01 X23.8983 Y-9.3153
G01 X23.8305 Y-9.2937
G01 X23.8117 Y-9.2406
G01 X23.8145 Y-9.2063
G01 X23.8263 Y-9.1490
G01 X24.9189 Y-5.0821
G01 X24.9210 Y-5.0712
G01 X24.9254 Y-5.0091
G01 X24.9254 Y-4.9982
G01 X24.9086 Y-4.8814
G01 X24.9071 Y-4.8740
G01 X24.9035 Y-4.8631
G01 X24.8993 Y-4.8545
G01 X24.8506 Y-4.7737
G01 X24.8452 Y-4.7659
G01 X24.8403 Y-4.7602
G01 X24.8362 Y-4.7562
G01 X24.8304 Y-4.7515
G01 X24.8257 Y-4.7483
G01 X24.7438 Y-4.6995
G01 X24.7371 Y-4.6960
G01 X24.7318 Y-4.6937
G01 X24.7245 Y-4.6914
G01 X24.7171 Y-4.6898
G01 X24.6011 Y-4.6735
G01 X24.5936 Y-4.6730
G01 X24.5842 Y-4.6734
G01 X24.4925 Y-4.6853
G01 X24.4816 Y-4.6875
G01 X24.4746 Y-4.6899
G01 X24.4678 Y-4.6929
G01 X24.3945 Y-4.7298
G01 X24.3847 Y-4.7361
G01 X24.3788 Y-4.7410
G01 X24.3733 Y-4.7465
G01 X24.3205 Y-4.8060
G01 X24.3170 Y-4.8102
G01 X24.3128 Y-4.8162
G01 X24.3101 Y-4.8209
G01 X24.3070 Y-4.8276
G01 X24.2703 Y-4.9165
G01 X23.1328 Y-9.1510
G01 X23.1312 Y-9.1586
G01 X23.1179 Y-9.2406
G01 X23.1160 Y-9.2858
G01 X23.1161 Y-9.2930
G01 X23.1298 Y-9.4276
G01 X23.1326 Y-9.4386
G01 X23.1733 Y-9.5594
G01 X23.1787 Y-9.5699
G01 X23.2432 Y-9.6745
G01 X23.2483 Y-9.6819
G01 X23.2531 Y-9.6873
G01 X23.3430 Y-9.7813
G01 X23.3518 Y-9.7892
G01 X23.4606 Y-9.8681
G01 X23.4673 Y-9.8725
G01 X23.4727 Y-9.8753
G01 X23.5890 Y-9.9306
G01 X23.5964 Y-9.9337
G01 X23.7290 Y-9.9695
G01 X23.7406 Y-9.9714
G01 X23.8747 Y-9.9825
G01 X23.8843 Y-9.9827
G01 X23.8920 Y-9.9820
G01 X24.0072 Y-9.9655
G01 X24.0128 Y-9.9643
G01 X24.0202 Y-9.9621
G01 X24.0273 Y-9.9591
G01 X24.0341 Y-9.9555
G00 Z2.0000
G00 X25.0761 Y-9.0490
G01 F60.00
G01 Z-0.1000
G01 F120.00
G01 X25.0749 Y-9.0803
G01 X25.0750 Y-9.0971
G01 X25.0820 Y-9.2147
G01 X25.0835 Y-9.2315
G01 X25.0873 Y-9.2565
G01 X25.1071 Y-9.3607
G01 X25.1121 Y-9.3829
G01 X25.1187 Y-9.4048
G01 X25.1522 Y-9.5039
G01 X25.1615 Y-9.5281
G01 X25.1687 Y-9.5438
G01 X25.2149 Y-9.6377
G01 X25.2230 Y-9.6532
G01 X25.2320 Y-9.6682
G01 X25.3009 Y-9.7714
G01 X25.3111 Y-9.7850
G01 X25.3219 Y-9.7980
G01 X25.3950 Y-9.8818
G01 X25.4117 Y-9.8996
G01 X25.4236 Y-9.9107
G01 X25.5121 Y-9.9898
G01 X25.5249 Y-10.0002
G01 X25.5382 Y-10.0099
G01 X25.6256 Y-10.0704
G01 X25.6450 Y-10.0828
G01 X25.6652 Y-10.0939
G01 X25.7581 Y-10.1406
G01 X25.7719 Y-10.1471
G01 X25.7929 Y-10.1557
G01 X25.8986 Y-10.1917
G01 X25.9156 Y-10.1970
G01 X25.9415 Y-10.2031
G01 X26.0451 Y-10.2235
G01 X26.0625 Y-10.2264
G01 X26.0799 Y-10.2284
G01 X26.2079 Y-10.2361
G01 X27.6275 Y-10.2362
G01 X27.6425 Y-10.2355
G01 X27.6574 Y-10.2341
G01 X27.7617 Y-10.2198
G01 X27.7851 Y-10.2151
G01 X27.8082 Y-10.2087
G01 X27.8308 Y-10.2007
G01 X27.8455 Y-10.1944
G01 X27.8599 Y-10.1875
G01 X27.9379 Y-10.1472
G01 X27.9583 Y-10.1352
G01 X27.9776 Y-10.1218
G01 X27.9900 Y-10.1121
G01 X28.0019 Y-10.1018
G01 X28.0133 Y-10.0909
G01 X28.0242 Y-10.0795
G01 X28.0880 Y-10.0060
G01 X28.0980 Y-9.9932
G01 X28.1074 Y-9.9799
G01 X28.1162 Y-9.9662
G01 X28.1242 Y-9.9521
G01 X28.1349 Y-9.9302
G01 X28.1737 Y-9.8374
G01 X28.1800 Y-9.8213
G01 X28.1854 Y-9.8048
G01 X28.8303 Y-7.4139
G01 X28.8342 Y-7.3981
G01 X28.8473 Y-7.3371
G01 X28.8582 Y-7.2676
G01 X28.8598 Y-7.2527
G01 X28.8644 Y-7.1999
G01 X28.8655 Y-7.1807
G01 X28.8670 Y-7.1264
G01 X28.8669 Y-7.1047
G01 X28.8599 Y-6.9862
G01 X28.8577 Y-6.9623
G01 X28.8552 Y-6.9465
G01 X28.8359 Y-6.8408
G01 X28.8322 Y-6.8236
G01 X28.8251 Y-6.7981
G01 X28.7926 Y-6.6981
G01 X28.7833 Y-6.6731
G01 X28.7761 Y-6.6569
G01 X28.7308 Y-6.5629
G01 X28.7205 Y-6.5431
G01 X28.7088 Y-6.5240
G01 X28.6503 Y-6.4356
G01 X28.6403 Y-6.4213
G01 X28.6239 Y-6.4009
G01 X28.5523 Y-6.3186
G01 X28.5418 Y-6.3070
G01 X28.5249 Y-6.2906
G01 X28.4441 Y-6.2175
G01 X28.4266 Y-6.2027
G01 X28.4144 Y-6.1936
G01 X28.3208 Y-6.1298
G01 X28.2983 Y-6.1158
G01 X28.2828 Y-6.1075
G01 X28.1822 Y-6.0573
G01 X28.1677 Y-6.0509
G01 X28.1455 Y-6.0426
G01 X28.0460 Y-6.0096
G01 X28.0203 Y-6.0022
G01 X28.0029 Y-5.9985
G01 X27.8972 Y-5.9787
G01 X27.8807 Y-5.9760
G01 X27.8557 Y-5.9736
G01 X27.7435 Y-5.9670
G01 X27.7241 Y-5.9664
G01 X26.5811 Y-5.9664
G01 X26.5576 Y-5.9673
G01 X26.5342 Y-5.9698
G01 X26.4129 Y-5.9873
G01 X26.3971 Y-5.9903
G01 X26.3814 Y-5.9942
G01 X26.3582 Y-6.0014
G01 X26.3431 Y-6.0071
G01 X26.3283 Y-6.0136
G01 X26.3068 Y-6.0246
G01 X26.2190 Y-6.0764
G01 X26.2052 Y-6.0850
G01 X26.1919 Y-6.0942
G01 X26.1728 Y-6.1093
G01 X26.1608 Y-6.1201
G01 X26.1492 Y-6.1315
G01 X26.1330 Y-6.1496
G01 X26.1182 Y-6.1689
G01 X26.1048 Y-6.1892
G01 X26.0560 Y-6.2695
G01 X26.0478 Y-6.2839
G01 X26.0368 Y-6.3062
G01 X26.0304 Y-6.3215
G01 X26.0248 Y-6.3371
G01 X26.0178 Y-6.3611
G01 X26.0142 Y-6.3773
G01 X26.0114 Y-6.3936
G01 X25.9952 Y-6.5059
G01 X25.9933 Y-6.5215
G01 X25.9922 Y-6.5372
G01 X25.9918 Y-6.5530
G01 X25.9921 Y-6.5687
G01 X25.9941 Y-6.5923
G01 X26.0114 Y-6.7134
G01 X26.0141 Y-6.7296
G01 X26.0177 Y-6.7456
G01 X26.0220 Y-6.7615
G01 X26.0271 Y-6.7771
G01 X26.0362 Y-6.8000
G01 X26.0470 Y-6.8221
G01 X26.0551 Y-6.8364
G01 X26.1081 Y-6.9246
G01 X26.1172 Y-6.9381
G01 X26.1268 Y-6.9511
G01 X26.1425 Y-6.9697
G01 X26.1537 Y-6.9815
G01 X26.1655 Y-6.9927
G01 X26.1842 Y-7.0083
G01 X26.1972 Y-7.0180
G01 X26.2107 Y-7.0270
G01 X26.3055 Y-7.0836
G01 X26.3199 Y-7.0913
G01 X26.3422 Y-7.1015
G01 X26.3575 Y-7.1073
G01 X26.3730 Y-7.1124
G01 X26.3888 Y-7.1167
G01 X26.4048 Y-7.1202
G01 X26.4209 Y-7.1229
G01 X26.5420 Y-7.1402
G01 X26.5654 Y-7.1421
G01 X26.5811 Y-7.1425
G01 X27.5727 Y-7.1425
G01 X27.6596 Y-7.1487
G01 X27.6750 Y-7.1527
G01 X27.6750 Y-7.1585
G01 X27.6722 Y-7.1811
G01 X27.6675 Y-7.2071
G01 X27.5880 Y-7.5133
G01 X26.7603 Y-7.5135
G01 X26.6115 Y-7.5186
G01 X26.5968 Y-7.5194
G01 X26.4401 Y-7.5353
G01 X26.4228 Y-7.5379
G01 X26.2891 Y-7.5623
G01 X26.2749 Y-7.5653
G01 X26.2608 Y-7.5688
G01 X26.1353 Y-7.6034
G01 X26.1174 Y-7.6088
G01 X25.9902 Y-7.6556
G01 X25.9748 Y-7.6618
G01 X25.9597 Y-7.6687
G01 X25.8494 Y-7.7225
G01 X25.8348 Y-7.7301
G01 X25.8206 Y-7.7385
G01 X25.7180 Y-7.8020
G01 X25.7042 Y-7.8110
G01 X25.6909 Y-7.8206
G01 X25.5954 Y-7.8938
G01 X25.5814 Y-7.9051
G01 X25.5681 Y-7.9172
G01 X25.4714 Y-8.0097
G01 X25.4611 Y-8.0205
G01 X25.4513 Y-8.0316
G01 X25.3716 Y-8.1271
G01 X25.3616 Y-8.1397
G01 X25.3478 Y-8.1594
G01 X25.2807 Y-8.2630
G01 X25.2725 Y-8.2765
G01 X25.2613 Y-8.2975
G01 X25.2064 Y-8.4097
G01 X25.1989 Y-8.4263
G01 X25.1923 Y-8.4432
G01 X25.1491 Y-8.5636
G01 X25.1444 Y-8.5776
G01 X25.1404 Y-8.5918
G01 X25.1081 Y-8.7274
G01 X25.1047 Y-8.7436
G01 X25.1021 Y-8.7598
G01 X25.0838 Y-8.8965
G01 X25.0822 Y-8.9114
G01 X25.0812 Y-8.9264
G01 X25.0761 Y-9.0490
G00 Z2.0000
G00 X25.1605 Y-9.0525
G01 F60.00
G01 Z-0.1000
G01 F120.00
G01 X25.1594 Y-9.0816
G01 X25.1595 Y-9.0942
G01 X25.1664 Y-9.2096
G01 X25.1674 Y-9.2221
G01 X25.1702 Y-9.2407
G01 X25.1924 Y-9.3560
G01 X25.1953 Y-9.3669
G01 X25.1987 Y-9.3777
G01 X25.2322 Y-9.4768
G01 X25.2391 Y-9.4948
G01 X25.2445 Y-9.5065
G01 X25.2907 Y-9.6005
G01 X25.2968 Y-9.6120
G01 X25.3034 Y-9.6231
G01 X25.3699 Y-9.7227
G01 X25.3775 Y-9.7328
G01 X25.3855 Y-9.7425
G01 X25.4587 Y-9.8263
G01 X25.4669 Y-9.8352
G01 X25.4799 Y-9.8478
G01 X25.5622 Y-9.9215
G01 X25.5764 Y-9.9332
G01 X25.5863 Y-9.9405
G01 X25.6737 Y-10.0009
G01 X25.6881 Y-10.0102
G01 X25.7031 Y-10.0184
G01 X25.7961 Y-10.0651
G01 X25.8063 Y-10.0700
G01 X25.8220 Y-10.0763
G01 X25.9259 Y-10.1117
G01 X25.9385 Y-10.1156
G01 X25.9577 Y-10.1202
G01 X26.0614 Y-10.1406
G01 X26.0743 Y-10.1427
G01 X26.0873 Y-10.1442
G01 X26.2105 Y-10.1516
G01 X27.6200 Y-10.1518
G01 X27.6367 Y-10.1512
G01 X27.6478 Y-10.1502
G01 X27.7423 Y-10.1373
G01 X27.7540 Y-10.1354
G01 X27.7656 Y-10.1329
G01 X27.7828 Y-10.1282
G01 X27.7996 Y-10.1222
G01 X27.8105 Y-10.1175
G01 X27.8212 Y-10.1124
G01 X27.8975 Y-10.0730
G01 X27.9126 Y-10.0641
G01 X27.9271 Y-10.0541
G01 X27.9363 Y-10.0469
G01 X27.9451 Y-10.0392
G01 X27.9536 Y-10.0311
G01 X27.9617 Y-10.0227
G01 X28.0228 Y-9.9522
G01 X28.0339 Y-9.9378
G01 X28.0406 Y-9.9278
G01 X28.0498 Y-9.9121
G01 X28.0578 Y-9.8958
G01 X28.0957 Y-9.8049
G01 X28.1004 Y-9.7929
G01 X28.1044 Y-9.7806
G01 X28.7488 Y-7.3919
G01 X28.7516 Y-7.3802
G01 X28.7643 Y-7.3216
G01 X28.7744 Y-7.2565
G01 X28.7802 Y-7.1926
G01 X28.7810 Y-7.1783
G01 X28.7826 Y-7.1240
G01 X28.7825 Y-7.1079
G01 X28.7756 Y-6.9912
G01 X28.7739 Y-6.9734
G01 X28.7720 Y-6.9617
G01 X28.7527 Y-6.8560
G01 X28.7501 Y-6.8432
G01 X28.7447 Y-6.8242
G01 X28.7122 Y-6.7242
G01 X28.7053 Y-6.7056
G01 X28.6999 Y-6.6935
G01 X28.6547 Y-6.5995
G01 X28.6470 Y-6.5848
G01 X28.6383 Y-6.5706
G01 X28.5799 Y-6.4822
G01 X28.5724 Y-6.4716
G01 X28.5602 Y-6.4564
G01 X28.4886 Y-6.3741
G01 X28.4807 Y-6.3655
G01 X28.4682 Y-6.3533
G01 X28.3874 Y-6.2801
G01 X28.3744 Y-6.2691
G01 X28.3607 Y-6.2591
G01 X28.2733 Y-6.1996
G01 X28.2566 Y-6.1892
G01 X28.2450 Y-6.1830
G01 X28.1462 Y-6.1337
G01 X28.1300 Y-6.1268
G01 X28.1190 Y-6.1228
G01 X28.0194 Y-6.0898
G01 X28.0003 Y-6.0843
G01 X27.9873 Y-6.0815
G01 X27.8816 Y-6.0617
G01 X27.8694 Y-6.0597
G01 X27.8508 Y-6.0579
G01 X27.7385 Y-6.0513
G01 X27.7241 Y-6.0509
G01 X26.5811 Y-6.0509
G01 X26.5636 Y-6.0515
G01 X26.5462 Y-6.0534
G01 X26.4270 Y-6.0706
G01 X26.4152 Y-6.0729
G01 X26.4035 Y-6.0757
G01 X26.3863 Y-6.0811
G01 X26.3750 Y-6.0853
G01 X26.3640 Y-6.0901
G01 X26.3480 Y-6.0984
G01 X26.2568 Y-6.1522
G01 X26.2467 Y-6.1589
G01 X26.2370 Y-6.1660
G01 X26.2231 Y-6.1776
G01 X26.2101 Y-6.1901
G01 X26.1980 Y-6.2036
G01 X26.1870 Y-6.2179
G01 X26.1770 Y-6.2330
G01 X26.1251 Y-6.3186
G01 X26.1165 Y-6.3350
G01 X26.1114 Y-6.3463
G01 X26.1070 Y-6.3578
G01 X26.1031 Y-6.3696
G01 X26.0984 Y-6.3875
G01 X26.0960 Y-6.3996
G01 X26.0788 Y-6.5180
G01 X26.0774 Y-6.5296
G01 X26.0763 Y-6.5472
G01 X26.0765 Y-6.5648
G01 X26.0780 Y-6.5823
G01 X26.0950 Y-6.7014
G01 X26.0970 Y-6.7134
G01 X26.0997 Y-6.7254
G01 X26.1029 Y-6.7372
G01 X26.1067 Y-6.7488
G01 X26.1111 Y-6.7602
G01 X26.1160 Y-6.7714
G01 X26.1245 Y-6.7876
G01 X26.1795 Y-6.8793
G01 X26.1862 Y-6.8894
G01 X26.1934 Y-6.8991
G01 X26.2051 Y-6.9130
G01 X26.2134 Y-6.9217
G01 X26.2267 Y-6.9340
G01 X26.2361 Y-6.9417
G01 X26.2458 Y-6.9489
G01 X26.2558 Y-6.9556
G01 X26.3470 Y-7.0100
G01 X26.3632 Y-7.0184
G01 X26.3800 Y-7.0256
G01 X26.3915 Y-7.0296
G01 X26.4031 Y-7.0331
G01 X26.4149 Y-7.0360
G01 X26.4269 Y-7.0383
G01 X26.5462 Y-7.0555
G01 X26.5578 Y-7.0569
G01 X26.5694 Y-7.0578
G01 X26.5811 Y-7.0580
G01 X27.5757 Y-7.0580
G01 X27.6734 Y-7.0650
G01 X27.7270 Y-7.0789
G01 X27.7468 Y-7.0898
G01 X27.7498 Y-7.0931
G01 X27.7544 Y-7.1038
G01 X27.7598 Y-7.1500
G01 X27.7593 Y-7.1651
G01 X27.7558 Y-7.1937
G01 X27.7501 Y-7.2253
G01 X27.6534 Y-7.5978
G01 X26.7632 Y-7.5979
G01 X26.6035 Y-7.6036
G01 X26.4508 Y-7.6190
G01 X26.4379 Y-7.6211
G01 X26.2937 Y-7.6476
G01 X26.1577 Y-7.6848
G01 X26.1444 Y-7.6889
G01 X26.0195 Y-7.7349
G01 X26.0080 Y-7.7395
G01 X25.9967 Y-7.7446
G01 X25.8865 Y-7.7985
G01 X25.8703 Y-7.8071
G01 X25.7624 Y-7.8738
G01 X25.7522 Y-7.8805
G01 X25.7423 Y-7.8877
G01 X25.6468 Y-7.9608
G01 X25.6364 Y-7.9693
G01 X25.6265 Y-7.9783
G01 X25.5350 Y-8.0656
G01 X25.5272 Y-8.0734
G01 X25.5162 Y-8.0858
G01 X25.4364 Y-8.1813
G01 X25.4290 Y-8.1906
G01 X25.4187 Y-8.2053
G01 X25.3517 Y-8.3089
G01 X25.3455 Y-8.3190
G01 X25.3372 Y-8.3345
G01 X25.2823 Y-8.4468
G01 X25.2767 Y-8.4591
G01 X25.2718 Y-8.4717
G01 X25.2286 Y-8.5921
G01 X25.2221 Y-8.6131
G01 X25.1903 Y-8.7469
G01 X25.1878 Y-8.7589
G01 X25.1859 Y-8.7710
G01 X25.1664 Y-8.9188
G01 X25.1605 Y-9.0525
G00 Z2.0000
G00 X25.2449 Y-9.0560
G01 F60.00
G01 Z-0.1000
G01 F120.00
G01 X25.2438 Y-9.0830
G01 X25.2439 Y-9.0912
G01 X25.2514 Y-9.2127
G01 X25.2532 Y-9.2249
G01 X25.2746 Y-9.3364
G01 X25.2787 Y-9.3506
G01 X25.3123 Y-9.4497
G01 X25.3168 Y-9.4615
G01 X25.3665 Y-9.5632
G01 X25.3749 Y-9.5780
G01 X25.4366 Y-9.6705
G01 X25.4439 Y-9.6806
G01 X25.4492 Y-9.6869
G01 X25.5277 Y-9.7766
G01 X25.5363 Y-9.7849
G01 X25.6186 Y-9.8585
G01 X25.6279 Y-9.8662
G01 X25.6344 Y-9.8710
G01 X25.7218 Y-9.9314
G01 X25.7312 Y-9.9375
G01 X25.7411 Y-9.9429
G01 X25.8340 Y-9.9896
G01 X25.8441 Y-9.9943
G01 X25.8545 Y-9.9982
G01 X25.9531 Y-10.0318
G01 X25.9655 Y-10.0354
G01 X26.0776 Y-10.0577
G01 X26.0904 Y-10.0596
G01 X26.0989 Y-10.0604
G01 X26.2130 Y-10.0672
G01 X27.6200 Y-10.0673
G01 X27.6383 Y-10.0662
G01 X27.7308 Y-10.0536
G01 X27.7423 Y-10.0516
G01 X27.7574 Y-10.0476
G01 X27.7684 Y-10.0437
G01 X27.7791 Y-10.0390
G01 X27.8537 Y-10.0007
G01 X27.8670 Y-9.9930
G01 X27.8796 Y-9.9841
G01 X27.8912 Y-9.9740
G01 X27.9018 Y-9.9629
G01 X27.9577 Y-9.8984
G01 X27.9649 Y-9.8890
G01 X27.9694 Y-9.8824
G01 X27.9772 Y-9.8686
G01 X27.9822 Y-9.8578
G01 X28.0178 Y-9.7725
G01 X28.0234 Y-9.7565
G01 X28.6672 Y-7.3699
G01 X28.6812 Y-7.3061
G01 X28.6907 Y-7.2454
G01 X28.6960 Y-7.1853
G01 X28.6981 Y-7.1216
G01 X28.6981 Y-7.1110
G01 X28.6913 Y-6.9963
G01 X28.6902 Y-6.9846
G01 X28.6679 Y-6.8628
G01 X28.6644 Y-6.8503
G01 X28.6290 Y-6.7421
G01 X28.6238 Y-6.7302
G01 X28.5786 Y-6.6362
G01 X28.5735 Y-6.6265
G01 X28.5678 Y-6.6172
G01 X28.5094 Y-6.5288
G01 X28.5019 Y-6.5184
G01 X28.4197 Y-6.4239
G01 X28.4115 Y-6.4159
G01 X28.3307 Y-6.3427
G01 X28.3222 Y-6.3355
G01 X28.3131 Y-6.3289
G01 X28.2258 Y-6.2695
G01 X28.2148 Y-6.2626
G01 X28.1137 Y-6.2118
G01 X28.1032 Y-6.2070
G01 X28.0924 Y-6.2030
G01 X27.9928 Y-6.1700
G01 X27.9803 Y-6.1664
G01 X27.8580 Y-6.1434
G01 X27.8458 Y-6.1423
G01 X27.7336 Y-6.1357
G01 X27.7241 Y-6.1354
G01 X26.5734 Y-6.1356
G01 X26.5582 Y-6.1370
G01 X26.4410 Y-6.1539
G01 X26.4256 Y-6.1573
G01 X26.4143 Y-6.1608
G01 X26.4033 Y-6.1651
G01 X26.3892 Y-6.1721
G01 X26.3050 Y-6.2218
G01 X26.2950 Y-6.2282
G01 X26.2886 Y-6.2329
G01 X26.2765 Y-6.2432
G01 X26.2682 Y-6.2516
G01 X26.2581 Y-6.2638
G01 X26.2513 Y-6.2736
G01 X26.1964 Y-6.3642
G01 X26.1927 Y-6.3714
G01 X26.1879 Y-6.3826
G01 X26.1839 Y-6.3941
G01 X26.1818 Y-6.4019
G01 X26.1787 Y-6.4178
G01 X26.1624 Y-6.5301
G01 X26.1612 Y-6.5416
G01 X26.1607 Y-6.5531
G01 X26.1611 Y-6.5646
G01 X26.1619 Y-6.5723
G01 X26.1786 Y-6.6894
G01 X26.1808 Y-6.7012
G01 X26.1850 Y-6.7167
G01 X26.1892 Y-6.7280
G01 X26.1960 Y-6.7425
G01 X26.2508 Y-6.8341
G01 X26.2576 Y-6.8439
G01 X26.2650 Y-6.8532
G01 X26.2703 Y-6.8591
G01 X26.2789 Y-6.8674
G01 X26.2880 Y-6.8750
G01 X26.2976 Y-6.8820
G01 X26.3920 Y-6.9384
G01 X26.4028 Y-6.9436
G01 X26.4139 Y-6.9480
G01 X26.4254 Y-6.9516
G01 X26.4370 Y-6.9543
G01 X26.5582 Y-6.9719
G01 X26.5658 Y-6.9728
G01 X26.5773 Y-6.9735
G01 X27.5787 Y-6.9736
G01 X27.6872 Y-6.9812
G01 X27.7585 Y-6.9999
G01 X27.7998 Y-7.0225
G01 X27.8218 Y-7.0467
G01 X27.8369 Y-7.0818
G01 X27.8444 Y-7.1465
G01 X27.8436 Y-7.1716
G01 X27.8394 Y-7.2063
G01 X27.8327 Y-7.2435
G01 X27.7187 Y-7.6822
G01 X26.7716 Y-7.6822
G01 X26.6137 Y-7.6876
G01 X26.4658 Y-7.7024
G01 X26.4531 Y-7.7042
G01 X26.3125 Y-7.7300
G01 X26.1758 Y-7.7675
G01 X26.1671 Y-7.7704
G01 X26.0412 Y-7.8171
G01 X25.9164 Y-7.8781
G01 X25.8002 Y-7.9500
G01 X25.6982 Y-8.0279
G01 X25.6848 Y-8.0393
G01 X25.5934 Y-8.1267
G01 X25.5810 Y-8.1399
G01 X25.4964 Y-8.2416
G01 X25.4896 Y-8.2512
G01 X25.4185 Y-8.3614
G01 X25.4131 Y-8.3716
G01 X25.3545 Y-8.4920
G01 X25.3081 Y-8.6207
G01 X25.3039 Y-8.6344
G01 X25.2725 Y-8.7664
G01 X25.2696 Y-8.7822
G01 X25.2505 Y-8.9262
G01 X25.2449 Y-9.0560
G00 Z2.0000
G00 X25.3293 Y-9.0595
G01 F60.00
G01 Z-0.1000
G01 F120.00
G01 X25.3283 Y-9.0883
G01 X25.3354 Y-9.2033
G01 X25.3568 Y-9.3168
G01 X25.3587 Y-9.3236
G01 X25.3944 Y-9.4282
G01 X25.4423 Y-9.5259
G01 X25.4463 Y-9.5330
G01 X25.5068 Y-9.6236
G01 X25.5128 Y-9.6314
G01 X25.5885 Y-9.7180
G01 X25.6749 Y-9.7956
G01 X25.6824 Y-9.8015
G01 X25.7743 Y-9.8649
G01 X25.8720 Y-9.9142
G01 X25.8817 Y-9.9182
G01 X25.9862 Y-9.9535
G01 X26.0939 Y-9.9748
G01 X26.1040 Y-9.9760
G01 X26.2156 Y-9.9828
G01 X27.6200 Y-9.9828
G01 X27.6304 Y-9.9821
G01 X27.7193 Y-9.9699
G01 X27.7248 Y-9.9689
G01 X27.7320 Y-9.9670
G01 X27.7372 Y-9.9652
G01 X27.7440 Y-9.9621
G01 X27.8151 Y-9.9255
G01 X27.8214 Y-9.9219
G01 X27.8274 Y-9.9176
G01 X27.8329 Y-9.9129
G01 X27.8380 Y-9.9076
G01 X27.8913 Y-9.8461
G01 X27.8981 Y-9.8370
G01 X27.9018 Y-9.8304
G01 X27.9042 Y-9.8253
G01 X27.9398 Y-9.7400
G01 X27.9425 Y-9.7324
G01 X28.5857 Y-7.3479
G01 X28.5982 Y-7.2907
G01 X28.6073 Y-7.2309
G01 X28.6120 Y-7.1758
G01 X28.6136 Y-7.1142
G01 X28.6066 Y-6.9976
G01 X28.5857 Y-6.8823
G01 X28.5501 Y-6.7725
G01 X28.5025 Y-6.6728
G01 X28.4973 Y-6.6638
G01 X28.4354 Y-6.5704
G01 X28.3587 Y-6.4823
G01 X28.2740 Y-6.4053
G01 X28.2656 Y-6.3988
G01 X28.1730 Y-6.3361
G01 X28.0759 Y-6.2874
G01 X28.0658 Y-6.2832
G01 X27.9602 Y-6.2485
G01 X27.8467 Y-6.2272
G01 X27.7241 Y-6.2199
G01 X26.5775 Y-6.2199
G01 X26.5702 Y-6.2206
G01 X26.4569 Y-6.2369
G01 X26.4495 Y-6.2383
G01 X26.4423 Y-6.2405
G01 X26.4354 Y-6.2433
G01 X26.4287 Y-6.2468
G01 X26.3480 Y-6.2945
G01 X26.3387 Y-6.3010
G01 X26.3304 Y-6.3087
G01 X26.3234 Y-6.3176
G01 X26.2726 Y-6.4011
G01 X26.2690 Y-6.4078
G01 X26.2667 Y-6.4132
G01 X26.2648 Y-6.4186
G01 X26.2629 Y-6.4261
G01 X26.2460 Y-6.5422
G01 X26.2452 Y-6.5532
G01 X26.2460 Y-6.5641
G01 X26.2625 Y-6.6793
G01 X26.2642 Y-6.6867
G01 X26.2659 Y-6.6922
G01 X26.2680 Y-6.6975
G01 X26.2715 Y-6.7043
G01 X26.3222 Y-6.7889
G01 X26.3265 Y-6.7951
G01 X26.3315 Y-6.8008
G01 X26.3384 Y-6.8072
G01 X26.3460 Y-6.8127
G01 X26.4284 Y-6.8619
G01 X26.4369 Y-6.8663
G01 X26.4458 Y-6.8696
G01 X26.4550 Y-6.8717
G01 X26.5702 Y-6.8883
G01 X26.5793 Y-6.8891
G01 X27.5817 Y-6.8891
G01 X27.7009 Y-6.8975
G01 X27.7900 Y-6.9208
G01 X27.8527 Y-6.9552
G01 X27.8938 Y-7.0003
G01 X27.9194 Y-7.0599
G01 X27.9291 Y-7.1431
G01 X27.9279 Y-7.1782
G01 X27.9229 Y-7.2189
G01 X27.9152 Y-7.2616
G01 X27.7841 Y-7.7667
G01 X26.7716 Y-7.7667
G01 X26.6150 Y-7.7722
G01 X26.4703 Y-7.7869
G01 X26.3346 Y-7.8116
G01 X26.3280 Y-7.8132
G01 X26.2005 Y-7.8483
G01 X26.0780 Y-7.8934
G01 X26.0709 Y-7.8964
G01 X25.9589 Y-7.9511
G01 X25.8481 Y-8.0196
G01 X25.7495 Y-8.0950
G01 X25.7432 Y-8.1004
G01 X25.6517 Y-8.1878
G01 X25.6459 Y-8.1941
G01 X25.5638 Y-8.2925
G01 X25.4916 Y-8.4039
G01 X25.4324 Y-8.5248
G01 X25.3876 Y-8.6492
G01 X25.3852 Y-8.6574
G01 X25.3547 Y-8.7859
G01 X25.3533 Y-8.7935
G01 X25.3347 Y-8.9336
G01 X25.3293 Y-9.0595
G00 Z2.0000
G00 X26.0131 Y-9.0614
G01 F60.00
G01 Z-0.1000
G01 F120.00
G01 X26.0226 Y-9.1428
G01 X26.0481 Y-9.2024
G01 X26.0892 Y-9.2474
G01 X26.1520 Y-9.2819
G01 X26.2411 Y-9.3051
G01 X26.3603 Y-9.3136
G01 X27.3655 Y-9.3136
G01 X27.6011 Y-8.4359
G01 X26.6376 Y-8.4359
G01 X26.4990 Y-8.4473
G01 X26.3801 Y-8.4798
G01 X26.2756 Y-8.5339
G01 X26.1839 Y-8.6090
G01 X26.1096 Y-8.7016
G01 X26.0563 Y-8.8073
G01 X26.0241 Y-8.9271
G01 X26.0131 Y-9.0614
G00 Z2.0000
G00 X26.0980 Y-9.0599
G01 F60.00
G01 Z-0.1000
G01 F120.00
G01 X26.1051 Y-9.1208
G01 X26.1202 Y-9.1560
G01 X26.1422 Y-9.1801
G01 X26.1835 Y-9.2028
G01 X26.2548 Y-9.2214
G01 X26.3633 Y-9.2291
G01 X27.3007 Y-9.2291
G01 X27.4909 Y-8.5204
G01 X26.6410 Y-8.5204
G01 X26.5137 Y-8.5308
G01 X26.4110 Y-8.5590
G01 X26.3222 Y-8.6048
G01 X26.2442 Y-8.6688
G01 X26.1810 Y-8.7476
G01 X26.1357 Y-8.8376
G01 X26.1077 Y-8.9416
G01 X26.0980 Y-9.0599
G00 Z2.0000
G00 X26.1829 Y-9.0585
G01 F60.00
G01 Z-0.1000
G01 F120.00
G01 X26.1876 Y-9.0988
G01 X26.1922 Y-9.1096
G01 X26.1951 Y-9.1128
G01 X26.2150 Y-9.1237
G01 X26.2686 Y-9.1377
G01 X26.3663 Y-9.1446
G01 X27.2359 Y-9.1446
G01 X27.3808 Y-8.6049
G01 X26.6445 Y-8.6049
G01 X26.5284 Y-8.6144
G01 X26.4419 Y-8.6381
G01 X26.3689 Y-8.6758
G01 X26.3046 Y-8.7285
G01 X26.2525 Y-8.7935
G01 X26.2150 Y-8.8679
G01 X26.1912 Y-8.9562
G01 X26.1829 Y-9.0585
G00 Z2.0000
G00 X26.2683 Y-9.0503
G01 F60.00
G01 Z-0.1000
G01 F120.00
G01 X26.2823 Y-9.0540
G01 X26.3693 Y-9.0601
G01 X27.1711 Y-9.0601
G01 X27.2706 Y-8.6894
G01 X26.6479 Y-8.6894
G01 X26.5432 Y-8.6980
G01 X26.4728 Y-8.7172
G01 X26.4156 Y-8.7468
G01 X26.3650 Y-8.7883
G01 X26.3239 Y-8.8395
G01 X26.2943 Y-8.8982
G01 X26.2748 Y-8.9707
G01 X26.2683 Y-9.0503
G00 Z2.0000
G00 X28.7086 Y-9.3044
G01 F60.00
G01 Z-0.1000
G01 F120.00
G01 X28.6512 Y-9.5163
G01 X28.6465 Y-9.5381
G01 X28.6403 Y-9.5784
G01 X28.6382 Y-9.5948
G01 X28.6369 Y-9.6113
G01 X28.6359 Y-9.6458
G01 X28.6362 Y-9.6616
G01 X28.6373 Y-9.6774
G01 X28.6419 Y-9.7267
G01 X28.6439 Y-9.7433
G01 X28.6484 Y-9.7680
G01 X28.6548 Y-9.7923
G01 X28.6690 Y-9.8391
G01 X28.6743 Y-9.8551
G01 X28.6805 Y-9.8709
G01 X28.6874 Y-9.8863
G01 X28.6952 Y-9.9013
G01 X28.7191 Y-9.9450
G01 X28.7269 Y-9.9586
G01 X28.7398 Y-9.9782
G01 X28.7541 Y-9.9968
G01 X28.7928 Y-10.0436
G01 X28.8093 Y-10.0612
G01 X28.8269 Y-10.0776
G01 X28.8734 Y-10.1174
G01 X28.8866 Y-10.1277
G01 X28.9072 Y-10.1417
G01 X28.9216 Y-10.1502
G01 X28.9720 Y-10.1782
G01 X28.9928 Y-10.1883
G01 X29.0142 Y-10.1969
G01 X29.0288 Y-10.2017
G01 X29.0765 Y-10.2165
G01 X29.0925 Y-10.2210
G01 X29.1086 Y-10.2246
G01 X29.1332 Y-10.2286
G01 X29.1927 Y-10.2346
G01 X29.2090 Y-10.2358
G01 X29.2252 Y-10.2362
G01 X30.4902 Y-10.2362
G01 X30.6472 Y-10.2322
G01 X30.7945 Y-10.2196
G01 X30.8082 Y-10.2179
G01 X30.9383 Y-10.1983
G01 X30.9538 Y-10.1953
G01 X31.0676 Y-10.1699
G01 X31.0765 Y-10.1678
G01 X31.0941 Y-10.1628
G01 X31.1998 Y-10.1298
G01 X31.2135 Y-10.1252
G01 X31.2270 Y-10.1200
G01 X31.3245 Y-10.0798
G01 X31.3390 Y-10.0734
G01 X31.3531 Y-10.0664
G01 X31.4425 Y-10.0192
G01 X31.4615 Y-10.0083
G01 X31.4738 Y-10.0004
G01 X31.5545 Y-9.9455
G01 X31.5691 Y-9.9350
G01 X31.5831 Y-9.9238
G01 X31.6583 Y-9.8598
G01 X31.6693 Y-9.8499
G01 X31.6850 Y-9.8343
G01 X31.7551 Y-9.7596
G01 X31.7657 Y-9.7477
G01 X31.7758 Y-9.7353
G01 X31.8408 Y-9.6510
G01 X31.8494 Y-9.6393
G01 X31.8575 Y-9.6273
G01 X31.9179 Y-9.5328
G01 X31.9254 Y-9.5206
G01 X31.9322 Y-9.5081
G01 X31.9904 Y-9.3970
G01 X31.9966 Y-9.3838
G01 X32.0505 Y-9.2618
G01 X32.0561 Y-9.2473
G01 X32.1042 Y-9.1135
G01 X32.1502 Y-8.9606
G01 X32.5667 Y-7.4138
G01 X32.5830 Y-7.3454
G01 X32.5859 Y-7.3303
G01 X32.5959 Y-7.2685
G01 X32.6027 Y-7.2062
G01 X32.6044 Y-7.1807
G01 X32.6059 Y-7.1264
G01 X32.6058 Y-7.1046
G01 X32.5988 Y-6.9867
G01 X32.5964 Y-6.9615
G01 X32.5936 Y-6.9449
G01 X32.5738 Y-6.8403
G01 X32.5679 Y-6.8146
G01 X32.5628 Y-6.7977
G01 X32.5298 Y-6.6982
G01 X32.5215 Y-6.6760
G01 X32.5117 Y-6.6544
G01 X32.4650 Y-6.5610
G01 X32.4527 Y-6.5387
G01 X32.4437 Y-6.5244
G01 X32.3792 Y-6.4287
G01 X32.3628 Y-6.4076
G01 X32.2838 Y-6.3186
G01 X32.2683 Y-6.3022
G01 X32.2573 Y-6.2919
G01 X32.1750 Y-6.2182
G01 X32.1555 Y-6.2021
G01 X32.1419 Y-6.1922
G01 X32.0540 Y-6.1318
G01 X32.0347 Y-6.1194
G01 X32.0145 Y-6.1085
G01 X31.9210 Y-6.0617
G01 X31.9075 Y-6.0554
G01 X31.8868 Y-6.0470
G01 X31.7812 Y-6.0109
G01 X31.7597 Y-6.0044
G01 X31.7378 Y-5.9994
G01 X31.6331 Y-5.9791
G01 X31.6159 Y-5.9762
G01 X31.5987 Y-5.9743
G01 X31.4803 Y-5.9670
G01 X31.4604 Y-5.9664
G01 X30.8224 Y-5.9664
G01 X31.0410 Y-5.1380
G01 X31.0456 Y-5.1153
G01 X31.0477 Y-5.1000
G01 X31.0492 Y-5.0846
G01 X31.0537 Y-5.0192
G01 X31.0540 Y-4.9955
G01 X31.0532 Y-4.9797
G01 X31.0506 Y-4.9560
G01 X31.0331 Y-4.8367
G01 X31.0280 Y-4.8126
G01 X31.0212 Y-4.7890
G01 X31.0126 Y-4.7660
G01 X31.0059 Y-4.7510
G01 X30.9985 Y-4.7363
G01 X30.9904 Y-4.7221
G01 X30.9427 Y-4.6429
G01 X30.9340 Y-4.6292
G01 X30.9196 Y-4.6095
G01 X30.9093 Y-4.5969
G01 X30.8984 Y-4.5849
G01 X30.8809 Y-4.5680
G01 X30.8686 Y-4.5574
G01 X30.8557 Y-4.5474
G01 X30.8356 Y-4.5337
G01 X30.7484 Y-4.4817
G01 X30.7268 Y-4.4700
G01 X30.7044 Y-4.4598
G01 X30.6813 Y-4.4514
G01 X30.6656 Y-4.4467
G01 X30.6496 Y-4.4428
G01 X30.6335 Y-4.4397
G01 X30.5051 Y-4.4217
G01 X30.4809 Y-4.4198
G01 X30.4647 Y-4.4196
G01 X30.4485 Y-4.4201
G01 X30.4323 Y-4.4214
G01 X30.3354 Y-4.4341
G01 X30.3195 Y-4.4365
G01 X30.3037 Y-4.4398
G01 X30.2804 Y-4.4461
G01 X30.2651 Y-4.4513
G01 X30.2427 Y-4.4604
G01 X30.2282 Y-4.4674
G01 X30.1576 Y-4.5035
G01 X30.1430 Y-4.5114
G01 X30.1288 Y-4.5200
G01 X30.1151 Y-4.5293
G01 X30.0955 Y-4.5446
G01 X30.0830 Y-4.5556
G01 X30.0655 Y-4.5732
G01 X30.0021 Y-4.6451
G01 X29.9868 Y-4.6649
G01 X29.9730 Y-4.6858
G01 X29.9647 Y-4.7003
G01 X29.9537 Y-4.7228
G01 X29.9159 Y-4.8138
G01 X29.9069 Y-4.8382
G01 X29.9020 Y-4.8548
G01 X28.7086 Y-9.3044
G00 Z2.0000
G00 X28.7901 Y-9.3264
G01 F60.00
G01 Z-0.1000
G01 F120.00
G01 X28.7332 Y-9.5366
G01 X28.7297 Y-9.5528
G01 X28.7229 Y-9.5974
G01 X28.7216 Y-9.6096
G01 X28.7210 Y-9.6219
G01 X28.7204 Y-9.6461
G01 X28.7210 Y-9.6637
G01 X28.7260 Y-9.7189
G01 X28.7275 Y-9.7313
G01 X28.7309 Y-9.7496
G01 X28.7356 Y-9.7677
G01 X28.7517 Y-9.8205
G01 X28.7584 Y-9.8381
G01 X28.7664 Y-9.8552
G01 X28.7932 Y-9.9045
G01 X28.8021 Y-9.9195
G01 X28.8121 Y-9.9339
G01 X28.8567 Y-9.9882
G01 X28.8647 Y-9.9971
G01 X28.8776 Y-10.0096
G01 X28.9222 Y-10.0481
G01 X28.9367 Y-10.0596
G01 X28.9469 Y-10.0667
G01 X28.9627 Y-10.0764
G01 X29.0115 Y-10.1035
G01 X29.0269 Y-10.1110
G01 X29.0428 Y-10.1174
G01 X29.0537 Y-10.1210
G01 X29.1074 Y-10.1375
G01 X29.1253 Y-10.1418
G01 X29.1375 Y-10.1440
G01 X29.1497 Y-10.1455
G01 X29.2010 Y-10.1506
G01 X29.2192 Y-10.1517
G01 X30.4902 Y-10.1518
G01 X30.6351 Y-10.1481
G01 X30.6498 Y-10.1473
G01 X30.7855 Y-10.1356
G01 X30.9239 Y-10.1151
G01 X30.9354 Y-10.1128
G01 X31.0558 Y-10.0859
G01 X31.0689 Y-10.0822
G01 X31.1746 Y-10.0491
G01 X31.1948 Y-10.0418
G01 X31.2923 Y-10.0017
G01 X31.3031 Y-9.9970
G01 X31.3136 Y-9.9917
G01 X31.4125 Y-9.9392
G01 X31.4263 Y-9.9305
G01 X31.5071 Y-9.8756
G01 X31.5179 Y-9.8678
G01 X31.5283 Y-9.8594
G01 X31.6035 Y-9.7954
G01 X31.6117 Y-9.7881
G01 X31.6234 Y-9.7765
G01 X31.6935 Y-9.7018
G01 X31.7014 Y-9.6930
G01 X31.7089 Y-9.6837
G01 X31.7803 Y-9.5907
G01 X31.8468 Y-9.4873
G01 X31.8574 Y-9.4689
G01 X31.9171 Y-9.3546
G01 X31.9702 Y-9.2348
G01 X31.9746 Y-9.2241
G01 X32.0240 Y-9.0870
G01 X32.0686 Y-8.9387
G01 X32.4851 Y-7.3918
G01 X32.5004 Y-7.3278
G01 X32.5122 Y-7.2572
G01 X32.5186 Y-7.1973
G01 X32.5199 Y-7.1783
G01 X32.5214 Y-7.1240
G01 X32.5214 Y-7.1078
G01 X32.5145 Y-6.9917
G01 X32.5127 Y-6.9730
G01 X32.5106 Y-6.9606
G01 X32.4908 Y-6.8560
G01 X32.4864 Y-6.8368
G01 X32.4826 Y-6.8243
G01 X32.4496 Y-6.7248
G01 X32.4435 Y-6.7082
G01 X32.4362 Y-6.6922
G01 X32.3894 Y-6.5987
G01 X32.3835 Y-6.5876
G01 X32.3770 Y-6.5768
G01 X32.3141 Y-6.4831
G01 X32.3024 Y-6.4671
G01 X32.2938 Y-6.4570
G01 X32.2207 Y-6.3747
G01 X32.2091 Y-6.3625
G01 X32.1186 Y-6.2812
G01 X32.1042 Y-6.2692
G01 X32.0940 Y-6.2618
G01 X32.0061 Y-6.2014
G01 X31.9917 Y-6.1922
G01 X31.9767 Y-6.1840
G01 X31.8732 Y-6.1325
G01 X31.8630 Y-6.1283
G01 X31.8525 Y-6.1244
G01 X31.7540 Y-6.0909
G01 X31.7380 Y-6.0861
G01 X31.7217 Y-6.0823
G01 X31.6170 Y-6.0620
G01 X31.5978 Y-6.0591
G01 X31.5849 Y-6.0579
G01 X31.4752 Y-6.0513
G01 X31.4604 Y-6.0509
G01 X30.7127 Y-6.0509
G01 X30.9588 Y-5.1183
G01 X30.9622 Y-5.1014
G01 X30.9644 Y-5.0843
G01 X30.9693 Y-5.0153
G01 X30.9695 Y-4.9976
G01 X30.9689 Y-4.9858
G01 X30.9678 Y-4.9741
G01 X30.9508 Y-4.8570
G01 X30.9487 Y-4.8450
G01 X30.9460 Y-4.8331
G01 X30.9409 Y-4.8155
G01 X30.9368 Y-4.8040
G01 X30.9322 Y-4.7927
G01 X30.9269 Y-4.7817
G01 X30.9212 Y-4.7710
G01 X30.8703 Y-4.6865
G01 X30.8638 Y-4.6763
G01 X30.8569 Y-4.6664
G01 X30.8494 Y-4.6569
G01 X30.8374 Y-4.6433
G01 X30.8288 Y-4.6348
G01 X30.8198 Y-4.6267
G01 X30.8104 Y-4.6191
G01 X30.8007 Y-4.6119
G01 X30.7855 Y-4.6021
G01 X30.6999 Y-4.5513
G01 X30.6837 Y-4.5429
G01 X30.6668 Y-4.5358
G01 X30.6553 Y-4.5317
G01 X30.6436 Y-4.5283
G01 X30.6317 Y-4.5254
G01 X30.6197 Y-4.5231
G01 X30.4954 Y-4.5057
G01 X30.4834 Y-4.5046
G01 X30.4653 Y-4.5040
G01 X30.4533 Y-4.5044
G01 X30.4353 Y-4.5061
G01 X30.3464 Y-4.5178
G01 X30.3345 Y-4.5197
G01 X30.3170 Y-4.5235
G01 X30.2997 Y-4.5287
G01 X30.2885 Y-4.5328
G01 X30.2720 Y-4.5400
G01 X30.1960 Y-4.5787
G01 X30.1851 Y-4.5846
G01 X30.1746 Y-4.5910
G01 X30.1594 Y-4.6016
G01 X30.1451 Y-4.6133
G01 X30.1317 Y-4.6261
G01 X30.1233 Y-4.6352
G01 X30.0669 Y-4.6993
G01 X30.0555 Y-4.7141
G01 X30.0453 Y-4.7296
G01 X30.0362 Y-4.7459
G01 X30.0309 Y-4.7572
G01 X29.9915 Y-4.8522
G01 X29.9872 Y-4.8643
G01 X29.9835 Y-4.8766
G01 X28.7901 Y-9.3264
G00 Z2.0000
G00 X28.8717 Y-9.3484
G01 F60.00
G01 Z-0.1000
G01 F120.00
G01 X28.8152 Y-9.5569
G01 X28.8129 Y-9.5675
G01 X28.8073 Y-9.6041
G01 X28.8062 Y-9.6121
G01 X28.8054 Y-9.6242
G01 X28.8049 Y-9.6464
G01 X28.8053 Y-9.6580
G01 X28.8106 Y-9.7152
G01 X28.8125 Y-9.7273
G01 X28.8153 Y-9.7392
G01 X28.8333 Y-9.7977
G01 X28.8379 Y-9.8092
G01 X28.8434 Y-9.8203
G01 X28.8673 Y-9.8640
G01 X28.8753 Y-9.8770
G01 X28.8844 Y-9.8893
G01 X28.9180 Y-9.9299
G01 X28.9258 Y-9.9387
G01 X28.9342 Y-9.9469
G01 X28.9773 Y-9.9840
G01 X28.9868 Y-9.9916
G01 X28.9969 Y-9.9985
G01 X29.0039 Y-10.0026
G01 X29.0509 Y-10.0288
G01 X29.0645 Y-10.0352
G01 X29.0786 Y-10.0403
G01 X29.1264 Y-10.0550
G01 X29.1420 Y-10.0590
G01 X29.1580 Y-10.0614
G01 X29.2094 Y-10.0665
G01 X29.2213 Y-10.0672
G01 X30.4902 Y-10.0673
G01 X30.6378 Y-10.0635
G01 X30.7765 Y-10.0516
G01 X30.9094 Y-10.0319
G01 X31.0351 Y-10.0040
G01 X31.1494 Y-9.9685
G01 X31.1627 Y-9.9637
G01 X31.2602 Y-9.9236
G01 X31.2742 Y-9.9170
G01 X31.3698 Y-9.8663
G01 X31.3788 Y-9.8606
G01 X31.4596 Y-9.8057
G01 X31.4736 Y-9.7951
G01 X31.5487 Y-9.7311
G01 X31.5618 Y-9.7187
G01 X31.6371 Y-9.6382
G01 X31.7112 Y-9.5421
G01 X31.7756 Y-9.4417
G01 X31.7826 Y-9.4297
G01 X31.8406 Y-9.3187
G01 X31.8929 Y-9.2006
G01 X31.8971 Y-9.1900
G01 X31.9438 Y-9.0605
G01 X31.9870 Y-8.9167
G01 X32.4036 Y-7.3698
G01 X32.4178 Y-7.3102
G01 X32.4285 Y-7.2459
G01 X32.4346 Y-7.1884
G01 X32.4355 Y-7.1760
G01 X32.4370 Y-7.1216
G01 X32.4369 Y-7.1110
G01 X32.4302 Y-6.9967
G01 X32.4290 Y-6.9844
G01 X32.4078 Y-6.8717
G01 X32.4049 Y-6.8591
G01 X32.3694 Y-6.7513
G01 X32.3654 Y-6.7405
G01 X32.3606 Y-6.7300
G01 X32.3139 Y-6.6365
G01 X32.3100 Y-6.6292
G01 X32.3034 Y-6.6187
G01 X32.2440 Y-6.5303
G01 X32.2363 Y-6.5197
G01 X32.2307 Y-6.5131
G01 X32.1576 Y-6.4308
G01 X32.1499 Y-6.4228
G01 X32.0623 Y-6.3441
G01 X32.0528 Y-6.3363
G01 X31.9583 Y-6.2710
G01 X31.9488 Y-6.2649
G01 X31.9390 Y-6.2596
G01 X31.8455 Y-6.2129
G01 X31.8322 Y-6.2069
G01 X31.7268 Y-6.1709
G01 X31.7163 Y-6.1677
G01 X31.7056 Y-6.1653
G01 X31.6009 Y-6.1449
G01 X31.5883 Y-6.1430
G01 X31.4701 Y-6.1357
G01 X31.4604 Y-6.1354
G01 X30.6030 Y-6.1354
G01 X30.8766 Y-5.0987
G01 X30.8789 Y-5.0876
G01 X30.8803 Y-5.0764
G01 X30.8851 Y-5.0075
G01 X30.8849 Y-4.9959
G01 X30.8839 Y-4.9843
G01 X30.8672 Y-4.8692
G01 X30.8650 Y-4.8574
G01 X30.8607 Y-4.8420
G01 X30.8550 Y-4.8270
G01 X30.8477 Y-4.8128
G01 X30.7959 Y-4.7267
G01 X30.7867 Y-4.7137
G01 X30.7763 Y-4.7018
G01 X30.7648 Y-4.6909
G01 X30.7523 Y-4.6812
G01 X30.7423 Y-4.6747
G01 X30.6586 Y-4.6249
G01 X30.6479 Y-4.6194
G01 X30.6368 Y-4.6148
G01 X30.6216 Y-4.6098
G01 X30.6059 Y-4.6064
G01 X30.4897 Y-4.5901
G01 X30.4779 Y-4.5889
G01 X30.4660 Y-4.5885
G01 X30.4542 Y-4.5891
G01 X30.4463 Y-4.5899
G01 X30.3496 Y-4.6028
G01 X30.3381 Y-4.6053
G01 X30.3268 Y-4.6087
G01 X30.3157 Y-4.6129
G01 X30.3086 Y-4.6161
G01 X30.2344 Y-4.6539
G01 X30.2238 Y-4.6598
G01 X30.2137 Y-4.6666
G01 X30.2041 Y-4.6740
G01 X30.1951 Y-4.6822
G01 X30.1867 Y-4.6910
G01 X30.1317 Y-4.7535
G01 X30.1243 Y-4.7632
G01 X30.1175 Y-4.7734
G01 X30.1116 Y-4.7841
G01 X30.1081 Y-4.7915
G01 X30.0704 Y-4.8825
G01 X30.0651 Y-4.8985
G01 X28.8717 Y-9.3484
G00 Z2.0000
G00 X28.9533 Y-9.3704
G01 F60.00
G01 Z-0.1000
G01 F120.00
G01 X28.8976 Y-9.5755
G01 X28.8961 Y-9.5822
G01 X28.8903 Y-9.6208
G01 X28.8894 Y-9.6467
G01 X28.8897 Y-9.6540
G01 X28.8943 Y-9.7033
G01 X28.8962 Y-9.7148
G01 X28.9121 Y-9.7672
G01 X28.9141 Y-9.7727
G01 X28.9176 Y-9.7798
G01 X28.9414 Y-9.8235
G01 X28.9452 Y-9.8297
G01 X28.9496 Y-9.8355
G01 X28.9831 Y-9.8761
G01 X28.9868 Y-9.8803
G01 X28.9923 Y-9.8855
G01 X29.0324 Y-9.9200
G01 X29.0385 Y-9.9248
G01 X29.0451 Y-9.9289
G01 X29.0903 Y-9.9541
G01 X29.1018 Y-9.9590
G01 X29.1513 Y-9.9743
G01 X29.1587 Y-9.9762
G01 X29.1664 Y-9.9773
G01 X29.2177 Y-9.9824
G01 X29.2252 Y-9.9828
G01 X30.4902 Y-9.9828
G01 X30.6331 Y-9.9791
G01 X30.7676 Y-9.9676
G01 X30.8950 Y-9.9486
G01 X31.0123 Y-9.9225
G01 X31.0185 Y-9.9209
G01 X31.1274 Y-9.8868
G01 X31.2314 Y-9.8440
G01 X31.3241 Y-9.7951
G01 X31.3314 Y-9.7907
G01 X31.4121 Y-9.7359
G01 X31.4188 Y-9.7308
G01 X31.4978 Y-9.6633
G01 X31.5728 Y-9.5834
G01 X31.6421 Y-9.4935
G01 X31.7045 Y-9.3962
G01 X31.7078 Y-9.3905
G01 X31.7634 Y-9.2843
G01 X31.8157 Y-9.1664
G01 X31.8629 Y-9.0359
G01 X31.9054 Y-8.8947
G01 X32.3220 Y-7.3479
G01 X32.3351 Y-7.2926
G01 X32.3448 Y-7.2346
G01 X32.3506 Y-7.1795
G01 X32.3525 Y-7.1142
G01 X32.3453 Y-6.9959
G01 X32.3248 Y-6.8874
G01 X32.3229 Y-6.8795
G01 X32.2873 Y-6.7728
G01 X32.2383 Y-6.6743
G01 X32.2333 Y-6.6658
G01 X32.1739 Y-6.5774
G01 X32.1676 Y-6.5692
G01 X32.0908 Y-6.4831
G01 X32.0014 Y-6.4033
G01 X31.9059 Y-6.3377
G01 X31.8077 Y-6.2884
G01 X31.7997 Y-6.2850
G01 X31.6945 Y-6.2494
G01 X31.5848 Y-6.2279
G01 X31.5748 Y-6.2266
G01 X31.4651 Y-6.2200
G01 X30.4933 Y-6.2199
G01 X30.7940 Y-5.0808
G01 X30.7955 Y-5.0738
G01 X30.7964 Y-5.0666
G01 X30.8006 Y-5.0074
G01 X30.8003 Y-4.9964
G01 X30.7833 Y-4.8796
G01 X30.7805 Y-4.8685
G01 X30.7761 Y-4.8579
G01 X30.7246 Y-4.7721
G01 X30.7191 Y-4.7644
G01 X30.7126 Y-4.7575
G01 X30.7054 Y-4.7515
G01 X30.6991 Y-4.7473
G01 X30.6172 Y-4.6986
G01 X30.6121 Y-4.6960
G01 X30.6050 Y-4.6931
G01 X30.5977 Y-4.6909
G01 X30.5902 Y-4.6895
G01 X30.4780 Y-4.6737
G01 X30.4667 Y-4.6730
G01 X30.4573 Y-4.6737
G01 X30.3665 Y-4.6856
G01 X30.3556 Y-4.6881
G01 X30.3451 Y-4.6923
G01 X30.2695 Y-4.7310
G01 X30.2630 Y-4.7352
G01 X30.2584 Y-4.7387
G01 X30.2501 Y-4.7468
G01 X30.1966 Y-4.8077
G01 X30.1898 Y-4.8172
G01 X30.1845 Y-4.8276
G01 X30.1485 Y-4.9146
G01 X28.9533 Y-9.3704
G00 Z2.0000
G00 X29.6606 Y-9.3136
G01 F60.00
G01 Z-0.1000
G01 F120.00
G01 X30.6299 Y-9.3136
G01 X30.7485 Y-9.3060
G01 X30.8510 Y-9.2846
G01 X30.9405 Y-9.2489
G01 X31.0187 Y-9.2001
G01 X31.0853 Y-9.1379
G01 X31.1429 Y-9.0598
G01 X31.1909 Y-8.9657
G01 X31.2294 Y-8.8525
G01 X31.6542 Y-7.2613
G01 X31.6618 Y-7.2189
G01 X31.6668 Y-7.1782
G01 X31.6680 Y-7.1431
G01 X31.6582 Y-7.0599
G01 X31.6328 Y-7.0004
G01 X31.5912 Y-6.9552
G01 X31.5287 Y-6.9207
G01 X31.4398 Y-6.8975
G01 X31.3206 Y-6.8891
G01 X30.3103 Y-6.8891
G01 X29.6606 Y-9.3136
G00 Z2.0000
G00 X29.7707 Y-9.2291
G01 F60.00
G01 Z-0.1000
G01 F120.00
G01 X30.6272 Y-9.2291
G01 X30.7371 Y-9.2220
G01 X30.8265 Y-9.2034
G01 X30.9022 Y-9.1732
G01 X30.9671 Y-9.1328
G01 X31.0220 Y-9.0815
G01 X31.0708 Y-9.0153
G01 X31.1129 Y-8.9327
G01 X31.1485 Y-8.8279
G01 X31.5716 Y-7.2429
G01 X31.5783 Y-7.2063
G01 X31.5824 Y-7.1716
G01 X31.5833 Y-7.1465
G01 X31.5758 Y-7.0818
G01 X31.5608 Y-7.0470
G01 X31.5383 Y-7.0226
G01 X31.4972 Y-6.9998
G01 X31.4260 Y-6.9812
G01 X31.3176 Y-6.9736
G01 X30.3752 Y-6.9736
G01 X29.7707 Y-9.2291
G00 Z2.0000
G00 X29.8808 Y-9.1446
G01 F60.00
G01 Z-0.1000
G01 F120.00
G01 X30.6245 Y-9.1446
G01 X30.7257 Y-9.1381
G01 X30.8021 Y-9.1222
G01 X30.8639 Y-9.0975
G01 X30.9154 Y-9.0654
G01 X30.9586 Y-9.0251
G01 X30.9987 Y-8.9707
G01 X31.0348 Y-8.8998
G01 X31.0676 Y-8.8034
G01 X31.4891 Y-7.2245
G01 X31.4947 Y-7.1937
G01 X31.4981 Y-7.1651
G01 X31.4987 Y-7.1500
G01 X31.4933 Y-7.1038
G01 X31.4889 Y-7.0936
G01 X31.4855 Y-7.0899
G01 X31.4656 Y-7.0789
G01 X31.4123 Y-7.0650
G01 X31.3146 Y-7.0580
G01 X30.4400 Y-7.0580
G01 X29.8808 Y-9.1446
G00 Z2.0000
G00 X29.9909 Y-9.0601
G01 F60.00
G01 Z-0.1000
G01 F120.00
G01 X30.6218 Y-9.0601
G01 X30.7143 Y-9.0542
G01 X30.7777 Y-9.0410
G01 X30.8257 Y-9.0218
G01 X30.8637 Y-8.9981
G01 X30.8952 Y-8.9687
G01 X30.9266 Y-8.9262
G01 X30.9568 Y-8.8668
G01 X30.9868 Y-8.7789
G01 X31.4066 Y-7.2060
G01 X31.4111 Y-7.1811
G01 X31.4138 Y-7.1585
G01 X31.4139 Y-7.1527
G01 X31.3985 Y-7.1487
G01 X31.3116 Y-7.1425
G01 X30.5048 Y-7.1425
G01 X29.9909 Y-9.0601
G00 Z2.0000
G00 X32.4488 Y-9.4624
G01 F60.00
G01 Z-0.1000
G01 F120.00
G01 X32.4808 Y-9.6056
G01 X32.4871 Y-9.6295
G01 X32.4951 Y-9.6529
G01 X32.5049 Y-9.6757
G01 X32.5164 Y-9.6976
G01 X32.5295 Y-9.7186
G01 X32.5441 Y-9.7385
G01 X32.5547 Y-9.7512
G01 X32.5658 Y-9.7634
G01 X32.5837 Y-9.7805
G01 X32.6849 Y-9.8662
G01 X32.6972 Y-9.8760
G01 X32.7099 Y-9.8852
G01 X32.7230 Y-9.8939
G01 X32.7434 Y-9.9057
G01 X32.7574 Y-9.9127
G01 X32.7790 Y-9.9219
G01 X32.9164 Y-9.9714
G01 X33.0526 Y-10.0167
G01 X33.1876 Y-10.0579
G01 X33.3235 Y-10.0948
G01 X33.4642 Y-10.1293
G01 X33.5965 Y-10.1576
G01 X33.7276 Y-10.1817
G01 X33.8577 Y-10.2013
G01 X33.9866 Y-10.2167
G01 X34.1146 Y-10.2277
G01 X34.2414 Y-10.2341
G01 X34.3645 Y-10.2362
G01 X34.5008 Y-10.2310
G01 X34.5177 Y-10.2294
G01 X34.6310 Y-10.2162
G01 X34.6453 Y-10.2142
G01 X34.6596 Y-10.2116
G01 X34.7750 Y-10.1877
G01 X34.7964 Y-10.1820
G01 X34.8991 Y-10.1510
G01 X34.9143 Y-10.1460
G01 X34.9292 Y-10.1403
G01 X35.0268 Y-10.1001
G01 X35.0411 Y-10.0938
G01 X35.0552 Y-10.0868
G01 X35.1476 Y-10.0381
G01 X35.1638 Y-10.0290
G01 X35.2804 Y-9.9545
G01 X35.2927 Y-9.9462
G01 X35.3046 Y-9.9374
G01 X35.4016 Y-9.8622
G01 X35.4135 Y-9.8526
G01 X35.4248 Y-9.8424
G01 X35.5107 Y-9.7622
G01 X35.5232 Y-9.7498
G01 X35.5351 Y-9.7368
G01 X35.6092 Y-9.6510
G01 X35.6204 Y-9.6373
G01 X35.6308 Y-9.6231
G01 X35.6981 Y-9.5258
G01 X35.7063 Y-9.5127
G01 X35.7139 Y-9.4992
G01 X35.7652 Y-9.4026
G01 X35.7750 Y-9.3826
G01 X35.7808 Y-9.3689
G01 X35.8237 Y-9.2601
G01 X35.8287 Y-9.2456
G01 X35.8330 Y-9.2307
G01 X35.8614 Y-9.1236
G01 X35.8655 Y-9.1064
G01 X35.8686 Y-9.0890
G01 X35.8859 Y-8.9768
G01 X35.8881 Y-8.9595
G01 X35.8894 Y-8.9422
G01 X35.8949 Y-8.8244
G01 X35.8953 Y-8.8083
G01 X35.8949 Y-8.7923
G01 X35.8873 Y-8.6883
G01 X35.8844 Y-8.6628
G01 X35.8796 Y-8.6377
G01 X35.8582 Y-8.5462
G01 X35.8515 Y-8.5217
G01 X35.8460 Y-8.5056
G01 X35.8078 Y-8.4108
G01 X35.8009 Y-8.3948
G01 X35.7931 Y-8.3792
G01 X35.7844 Y-8.3640
G01 X35.7352 Y-8.2822
G01 X35.7219 Y-8.2619
G01 X35.7072 Y-8.2427
G01 X35.6432 Y-8.1649
G01 X35.6319 Y-8.1520
G01 X35.6138 Y-8.1336
G01 X35.5361 Y-8.0610
G01 X35.5247 Y-8.0508
G01 X35.5068 Y-8.0366
G01 X35.4089 Y-7.9644
G01 X35.3886 Y-7.9513
G01 X35.2825 Y-7.8878
G01 X35.2684 Y-7.8798
G01 X34.2116 Y-7.3160
G01 X34.2111 Y-7.3156
G01 X34.2070 Y-7.2962
G01 X34.2087 Y-7.2785
G01 X34.2169 Y-7.2516
G01 X34.2304 Y-7.2278
G01 X34.2559 Y-7.1984
G01 X34.2875 Y-7.1730
G01 X34.3175 Y-7.1574
G01 X34.3512 Y-7.1476
G01 X34.4055 Y-7.1428
G01 X34.5416 Y-7.1454
G01 X34.6791 Y-7.1541
G01 X34.8057 Y-7.1680
G01 X34.9218 Y-7.1873
G01 X35.0267 Y-7.2110
G01 X35.1203 Y-7.2393
G01 X35.2031 Y-7.2710
G01 X35.3449 Y-7.3396
G01 X35.3605 Y-7.3462
G01 X35.4105 Y-7.3658
G01 X35.4255 Y-7.3709
G01 X35.4408 Y-7.3752
G01 X35.4855 Y-7.3868
G01 X35.5088 Y-7.3913
G01 X35.5245 Y-7.3935
G01 X35.5648 Y-7.3979
G01 X35.5897 Y-7.3990
G01 X35.6147 Y-7.3983
G01 X35.6733 Y-7.3931
G01 X35.6892 Y-7.3913
G01 X35.7051 Y-7.3887
G01 X35.7285 Y-7.3833
G01 X35.7830 Y-7.3674
G01 X35.8072 Y-7.3593
G01 X35.8306 Y-7.3494
G01 X35.8458 Y-7.3417
G01 X35.8895 Y-7.3184
G01 X35.9030 Y-7.3107
G01 X35.9226 Y-7.2981
G01 X35.9412 Y-7.2841
G01 X35.9871 Y-7.2469
G01 X36.0049 Y-7.2306
G01 X36.0216 Y-7.2130
G01 X36.0604 Y-7.1667
G01 X36.0752 Y-7.1476
G01 X36.0886 Y-7.1274
G01 X36.0966 Y-7.1134
G01 X36.1205 Y-7.0698
G01 X36.1309 Y-7.0490
G01 X36.1399 Y-7.0276
G01 X36.1450 Y-7.0130
G01 X36.1615 Y-6.9578
G01 X36.1658 Y-6.9419
G01 X36.1693 Y-6.9257
G01 X36.1731 Y-6.9012
G01 X36.1791 Y-6.8332
G01 X36.1798 Y-6.8076
G01 X36.1784 Y-6.7821
G01 X36.1715 Y-6.7079
G01 X36.1694 Y-6.6926
G01 X36.1649 Y-6.6698
G01 X36.1587 Y-6.6474
G01 X36.1390 Y-6.5844
G01 X36.1304 Y-6.5620
G01 X36.1239 Y-6.5473
G01 X36.1166 Y-6.5331
G01 X36.1044 Y-6.5124
G01 X36.0660 Y-6.4556
G01 X36.0518 Y-6.4369
G01 X36.0362 Y-6.4193
G01 X36.0251 Y-6.4081
G01 X36.0135 Y-6.3976
G01 X36.0015 Y-6.3876
G01 X35.9603 Y-6.3551
G01 X35.9406 Y-6.3406
G01 X35.9269 Y-6.3318
G01 X35.9127 Y-6.3237
G01 X35.7928 Y-6.2590
G01 X35.6702 Y-6.2011
G01 X35.6545 Y-6.1942
G01 X35.5290 Y-6.1430
G01 X35.4009 Y-6.0987
G01 X35.3849 Y-6.0937
G01 X35.2546 Y-6.0562
G01 X35.1218 Y-6.0256
G01 X35.1056 Y-6.0223
G01 X34.9797 Y-5.9999
G01 X34.9621 Y-5.9973
G01 X34.8256 Y-5.9807
G01 X34.6783 Y-5.9698
G01 X34.5267 Y-5.9664
G01 X34.4023 Y-5.9707
G01 X34.3777 Y-5.9725
G01 X34.2674 Y-5.9847
G01 X34.2583 Y-5.9858
G01 X34.2401 Y-5.9888
G01 X34.1256 Y-6.0114
G01 X34.1089 Y-6.0156
G01 X33.9978 Y-6.0467
G01 X33.9800 Y-6.0528
G01 X33.8820 Y-6.0893
G01 X33.8676 Y-6.0951
G01 X33.8536 Y-6.1015
G01 X33.7601 Y-6.1467
G01 X33.7458 Y-6.1541
G01 X33.7319 Y-6.1621
G01 X33.6237 Y-6.2281
G01 X33.6111 Y-6.2362
G01 X33.5989 Y-6.2448
G01 X33.5024 Y-6.3164
G01 X33.4842 Y-6.3309
G01 X33.3931 Y-6.4127
G01 X33.3808 Y-6.4243
G01 X33.3692 Y-6.4365
G01 X33.2950 Y-6.5183
G01 X33.2802 Y-6.5358
G01 X33.2710 Y-6.5481
G01 X33.2086 Y-6.6354
G01 X33.1961 Y-6.6543
G01 X33.1885 Y-6.6673
G01 X33.1333 Y-6.7668
G01 X33.1261 Y-6.7814
G01 X33.1197 Y-6.7962
G01 X33.0801 Y-6.8943
G01 X33.0723 Y-6.9157
G01 X33.0679 Y-6.9302
G01 X33.0376 Y-7.0404
G01 X33.0343 Y-7.0547
G01 X33.0317 Y-7.0691
G01 X33.0144 Y-7.1773
G01 X33.0121 Y-7.1952
G01 X33.0107 Y-7.2132
G01 X33.0051 Y-7.3270
G01 X33.0048 Y-7.3494
G01 X33.0054 Y-7.3644
G01 X33.0131 Y-7.4822
G01 X33.0159 Y-7.5049
G01 X33.0186 Y-7.5199
G01 X33.0399 Y-7.6236
G01 X33.0456 Y-7.6466
G01 X33.0528 Y-7.6692
G01 X33.0879 Y-7.7663
G01 X33.0940 Y-7.7819
G01 X33.1008 Y-7.7971
G01 X33.1085 Y-7.8120
G01 X33.1577 Y-7.9025
G01 X33.1707 Y-7.9242
G01 X33.1853 Y-7.9449
G01 X33.2493 Y-8.0287
G01 X33.2639 Y-8.0466
G01 X33.2798 Y-8.0633
G01 X33.3575 Y-8.1400
G01 X33.3692 Y-8.1510
G01 X33.3876 Y-8.1663
G01 X33.4790 Y-8.2370
G01 X33.4917 Y-8.2462
G01 X33.5114 Y-8.2590
G01 X33.6176 Y-8.3225
G01 X33.6317 Y-8.3305
G01 X34.6147 Y-8.8546
G01 X34.6783 Y-8.8960
G01 X34.6869 Y-8.9045
G01 X34.6867 Y-8.9058
G01 X34.6790 Y-8.9288
G01 X34.6622 Y-8.9570
G01 X34.6283 Y-8.9953
G01 X34.5877 Y-9.0291
G01 X34.5564 Y-9.0468
G01 X34.5290 Y-9.0555
G01 X34.4838 Y-9.0600
G01 X34.3687 Y-9.0587
G01 X34.2430 Y-9.0539
G01 X34.1238 Y-9.0468
G01 X34.0096 Y-9.0361
G01 X33.9000 Y-9.0230
G01 X33.7961 Y-9.0069
G01 X33.6965 Y-8.9882
G01 X33.6036 Y-8.9672
G01 X33.5158 Y-8.9434
G01 X33.4327 Y-8.9171
G01 X33.3545 Y-8.8886
G01 X33.2429 Y-8.8422
G01 X33.2218 Y-8.8342
G01 X33.2074 Y-8.8297
G01 X33.1636 Y-8.8174
G01 X33.1138 Y-8.8074
G01 X33.0911 Y-8.8043
G01 X33.0759 Y-8.8031
G01 X33.0406 Y-8.8012
G01 X33.0171 Y-8.8013
G01 X33.0014 Y-8.8023
G01 X32.9409 Y-8.8077
G01 X32.9246 Y-8.8099
G01 X32.9004 Y-8.8148
G01 X32.8845 Y-8.8191
G01 X32.8286 Y-8.8357
G01 X32.8134 Y-8.8410
G01 X32.7985 Y-8.8470
G01 X32.7768 Y-8.8573
G01 X32.7266 Y-8.8850
G01 X32.7121 Y-8.8935
G01 X32.6980 Y-8.9027
G01 X32.6845 Y-8.9126
G01 X32.6714 Y-8.9233
G01 X32.6323 Y-8.9568
G01 X32.6151 Y-8.9727
G01 X32.6042 Y-8.9840
G01 X32.5939 Y-8.9958
G01 X32.5603 Y-9.0359
G01 X32.5448 Y-9.0560
G01 X32.5354 Y-9.0700
G01 X32.5266 Y-9.0845
G01 X32.4992 Y-9.1356
G01 X32.4887 Y-9.1569
G01 X32.4826 Y-9.1715
G01 X32.4772 Y-9.1864
G01 X32.4601 Y-9.2417
G01 X32.4540 Y-9.2641
G01 X32.4509 Y-9.2792
G01 X32.4475 Y-9.3021
G01 X32.4421 Y-9.3611
G01 X32.4409 Y-9.3845
G01 X32.4410 Y-9.4002
G01 X32.4425 Y-9.4237
G01 X32.4445 Y-9.4392
G01 X32.4488 Y-9.4624
G00 Z2.0000
G00 X32.5312 Y-9.4439
G01 F60.00
G01 Z-0.1000
G01 F120.00
G01 X32.5632 Y-9.5872
G01 X32.5679 Y-9.6050
G01 X32.5739 Y-9.6224
G01 X32.5812 Y-9.6393
G01 X32.5897 Y-9.6556
G01 X32.5995 Y-9.6713
G01 X32.6104 Y-9.6861
G01 X32.6223 Y-9.7001
G01 X32.6353 Y-9.7132
G01 X32.6445 Y-9.7214
G01 X32.7395 Y-9.8016
G01 X32.7486 Y-9.8089
G01 X32.7580 Y-9.8158
G01 X32.7678 Y-9.8223
G01 X32.7778 Y-9.8282
G01 X32.7881 Y-9.8337
G01 X32.8041 Y-9.8410
G01 X32.8150 Y-9.8452
G01 X32.9450 Y-9.8919
G01 X33.0792 Y-9.9365
G01 X33.2122 Y-9.9770
G01 X33.3455 Y-10.0132
G01 X33.4820 Y-10.0467
G01 X33.6118 Y-10.0745
G01 X33.7404 Y-10.0981
G01 X33.8679 Y-10.1175
G01 X33.9939 Y-10.1325
G01 X34.1190 Y-10.1433
G01 X34.2429 Y-10.1497
G01 X34.3637 Y-10.1517
G01 X34.4953 Y-10.1467
G01 X34.5079 Y-10.1455
G01 X34.6212 Y-10.1323
G01 X34.6425 Y-10.1289
G01 X34.7561 Y-10.1054
G01 X34.7720 Y-10.1011
G01 X34.8746 Y-10.0701
G01 X34.8860 Y-10.0664
G01 X34.8971 Y-10.0621
G01 X34.9946 Y-10.0220
G01 X35.0053 Y-10.0173
G01 X35.0158 Y-10.0121
G01 X35.1082 Y-9.9634
G01 X35.1202 Y-9.9566
G01 X35.2348 Y-9.8834
G01 X35.2528 Y-9.8706
G01 X35.3587 Y-9.7883
G01 X35.4530 Y-9.7005
G01 X35.4623 Y-9.6913
G01 X35.4711 Y-9.6816
G01 X35.5453 Y-9.5957
G01 X35.5536 Y-9.5856
G01 X35.5614 Y-9.5750
G01 X35.6244 Y-9.4841
G01 X35.6307 Y-9.4745
G01 X35.6393 Y-9.4595
G01 X35.6956 Y-9.3531
G01 X35.7022 Y-9.3379
G01 X35.7423 Y-9.2363
G01 X35.7481 Y-9.2201
G01 X35.7513 Y-9.2091
G01 X35.7798 Y-9.1019
G01 X35.7828 Y-9.0891
G01 X35.7851 Y-9.0762
G01 X35.8024 Y-8.9639
G01 X35.8040 Y-8.9511
G01 X35.8050 Y-8.9382
G01 X35.8106 Y-8.8204
G01 X35.8108 Y-8.8084
G01 X35.8105 Y-8.7965
G01 X35.8030 Y-8.6945
G01 X35.8009 Y-8.6756
G01 X35.7973 Y-8.6569
G01 X35.7760 Y-8.5654
G01 X35.7728 Y-8.5532
G01 X35.7668 Y-8.5352
G01 X35.7295 Y-8.4424
G01 X35.7215 Y-8.4247
G01 X35.7121 Y-8.4076
G01 X35.6628 Y-8.3258
G01 X35.6529 Y-8.3107
G01 X35.6420 Y-8.2964
G01 X35.5780 Y-8.2187
G01 X35.5696 Y-8.2090
G01 X35.5561 Y-8.1953
G01 X35.4699 Y-8.1151
G01 X35.4566 Y-8.1046
G01 X35.3652 Y-8.0370
G01 X35.3554 Y-8.0302
G01 X35.3453 Y-8.0238
G01 X35.2391 Y-7.9603
G01 X35.2286 Y-7.9543
G01 X34.1608 Y-7.3847
G01 X34.1337 Y-7.3577
G01 X34.1217 Y-7.3010
G01 X34.1254 Y-7.2620
G01 X34.1388 Y-7.2181
G01 X34.1610 Y-7.1788
G01 X34.1970 Y-7.1373
G01 X34.2411 Y-7.1019
G01 X34.2859 Y-7.0786
G01 X34.3355 Y-7.0641
G01 X34.4026 Y-7.0582
G01 X34.5451 Y-7.0609
G01 X34.6864 Y-7.0699
G01 X34.8173 Y-7.0843
G01 X34.9381 Y-7.1043
G01 X35.0482 Y-7.1293
G01 X35.1477 Y-7.1593
G01 X35.2367 Y-7.1934
G01 X35.3741 Y-7.2600
G01 X35.3914 Y-7.2676
G01 X35.4340 Y-7.2843
G01 X35.4507 Y-7.2902
G01 X35.4991 Y-7.3031
G01 X35.5106 Y-7.3058
G01 X35.5222 Y-7.3079
G01 X35.5720 Y-7.3137
G01 X35.5906 Y-7.3146
G01 X35.6091 Y-7.3141
G01 X35.6715 Y-7.3084
G01 X35.6893 Y-7.3057
G01 X35.7067 Y-7.3017
G01 X35.7653 Y-7.2845
G01 X35.7831 Y-7.2780
G01 X35.8003 Y-7.2701
G01 X35.8496 Y-7.2439
G01 X35.8597 Y-7.2382
G01 X35.8743 Y-7.2288
G01 X35.8881 Y-7.2184
G01 X35.9324 Y-7.1825
G01 X35.9457 Y-7.1704
G01 X35.9541 Y-7.1617
G01 X35.9620 Y-7.1527
G01 X35.9993 Y-7.1079
G01 X36.0100 Y-7.0934
G01 X36.0196 Y-7.0781
G01 X36.0491 Y-7.0241
G01 X36.0565 Y-7.0085
G01 X36.0628 Y-6.9924
G01 X36.0805 Y-6.9337
G01 X36.0837 Y-6.9218
G01 X36.0874 Y-6.9037
G01 X36.0891 Y-6.8916
G01 X36.0948 Y-6.8278
G01 X36.0953 Y-6.8088
G01 X36.0943 Y-6.7898
G01 X36.0876 Y-6.7176
G01 X36.0860 Y-6.7062
G01 X36.0826 Y-6.6892
G01 X36.0781 Y-6.6726
G01 X36.0590 Y-6.6115
G01 X36.0526 Y-6.5948
G01 X36.0477 Y-6.5839
G01 X36.0394 Y-6.5681
G01 X36.0299 Y-6.5529
G01 X35.9971 Y-6.5044
G01 X35.9902 Y-6.4951
G01 X35.9828 Y-6.4861
G01 X35.9709 Y-6.4732
G01 X35.9624 Y-6.4652
G01 X35.9536 Y-6.4575
G01 X35.9080 Y-6.4213
G01 X35.8933 Y-6.4106
G01 X35.8830 Y-6.4040
G01 X35.8725 Y-6.3980
G01 X35.7547 Y-6.3344
G01 X35.6284 Y-6.2749
G01 X35.5057 Y-6.2246
G01 X35.4927 Y-6.2197
G01 X35.3674 Y-6.1767
G01 X35.2401 Y-6.1398
G01 X35.2268 Y-6.1364
G01 X35.0969 Y-6.1066
G01 X34.9649 Y-6.0831
G01 X34.9518 Y-6.0812
G01 X34.8174 Y-6.0648
G01 X34.6742 Y-6.0542
G01 X34.5272 Y-6.0509
G01 X34.4053 Y-6.0551
G01 X34.3869 Y-6.0564
G01 X34.2767 Y-6.0686
G01 X34.2564 Y-6.0717
G01 X34.1440 Y-6.0939
G01 X34.1316 Y-6.0970
G01 X34.0228 Y-6.1274
G01 X34.0095 Y-6.1319
G01 X33.9008 Y-6.1728
G01 X33.7969 Y-6.2228
G01 X33.7863 Y-6.2282
G01 X33.7759 Y-6.2342
G01 X33.6583 Y-6.3062
G01 X33.5527 Y-6.3843
G01 X33.5392 Y-6.3951
G01 X33.4496 Y-6.4756
G01 X33.4405 Y-6.4842
G01 X33.4318 Y-6.4933
G01 X33.3576 Y-6.5750
G01 X33.3502 Y-6.5837
G01 X33.3398 Y-6.5972
G01 X33.2710 Y-6.6938
G01 X33.2623 Y-6.7083
G01 X33.2110 Y-6.8007
G01 X33.2054 Y-6.8114
G01 X33.1980 Y-6.8279
G01 X33.1584 Y-6.9259
G01 X33.1526 Y-6.9419
G01 X33.1209 Y-7.0558
G01 X33.1182 Y-7.0664
G01 X33.1151 Y-7.0824
G01 X33.0979 Y-7.1906
G01 X33.0961 Y-7.2039
G01 X33.0951 Y-7.2173
G01 X33.0895 Y-7.3311
G01 X33.0892 Y-7.3478
G01 X33.0973 Y-7.4748
G01 X33.0985 Y-7.4861
G01 X33.1014 Y-7.5029
G01 X33.1227 Y-7.6065
G01 X33.1269 Y-7.6237
G01 X33.1323 Y-7.6405
G01 X33.1673 Y-7.7375
G01 X33.1719 Y-7.7492
G01 X33.1770 Y-7.7605
G01 X33.1827 Y-7.7716
G01 X33.2319 Y-7.8620
G01 X33.2416 Y-7.8782
G01 X33.2524 Y-7.8936
G01 X33.3164 Y-7.9774
G01 X33.3273 Y-7.9907
G01 X33.3391 Y-8.0032
G01 X33.4168 Y-8.0799
G01 X33.4255 Y-8.0881
G01 X33.4392 Y-8.0995
G01 X33.5353 Y-8.1736
G01 X33.5449 Y-8.1803
G01 X33.5548 Y-8.1865
G01 X33.6609 Y-8.2500
G01 X33.6715 Y-8.2560
G01 X34.6577 Y-8.7818
G01 X34.7318 Y-8.8300
G01 X34.7637 Y-8.8619
G01 X34.7716 Y-8.8759
G01 X34.7736 Y-8.8877
G01 X34.7698 Y-8.9238
G01 X34.7562 Y-8.9642
G01 X34.7308 Y-9.0070
G01 X34.6873 Y-9.0561
G01 X34.6359 Y-9.0989
G01 X34.5902 Y-9.1247
G01 X34.5461 Y-9.1387
G01 X34.4875 Y-9.1445
G01 X34.3666 Y-9.1431
G01 X34.2389 Y-9.1383
G01 X34.1173 Y-9.1311
G01 X34.0006 Y-9.1201
G01 X33.8885 Y-9.1067
G01 X33.7819 Y-9.0902
G01 X33.6794 Y-9.0709
G01 X33.5832 Y-9.0492
G01 X33.4921 Y-9.0245
G01 X33.4055 Y-8.9971
G01 X33.3237 Y-8.9673
G01 X33.2000 Y-8.9161
G01 X33.1840 Y-8.9109
G01 X33.1489 Y-8.9008
G01 X33.1386 Y-8.8983
G01 X33.1050 Y-8.8917
G01 X33.0882 Y-8.8890
G01 X33.0712 Y-8.8874
G01 X33.0321 Y-8.8855
G01 X33.0146 Y-8.8860
G01 X32.9503 Y-8.8917
G01 X32.9322 Y-8.8944
G01 X32.9202 Y-8.8970
G01 X32.9084 Y-8.9001
G01 X32.8544 Y-8.9161
G01 X32.8431 Y-8.9200
G01 X32.8321 Y-8.9245
G01 X32.8159 Y-8.9322
G01 X32.7675 Y-8.9589
G01 X32.7567 Y-8.9652
G01 X32.7462 Y-8.9721
G01 X32.7361 Y-8.9795
G01 X32.7264 Y-8.9874
G01 X32.6873 Y-9.0209
G01 X32.6745 Y-9.0328
G01 X32.6664 Y-9.0412
G01 X32.6587 Y-9.0499
G01 X32.6252 Y-9.0901
G01 X32.6136 Y-9.1050
G01 X32.6066 Y-9.1154
G01 X32.6001 Y-9.1262
G01 X32.5737 Y-9.1754
G01 X32.5659 Y-9.1913
G01 X32.5614 Y-9.2022
G01 X32.5573 Y-9.2133
G01 X32.5408 Y-9.2666
G01 X32.5363 Y-9.2833
G01 X32.5340 Y-9.2945
G01 X32.5314 Y-9.3115
G01 X32.5255 Y-9.3802
G01 X32.5254 Y-9.3977
G01 X32.5266 Y-9.4152
G01 X32.5290 Y-9.4325
G01 X32.5312 Y-9.4439
G00 Z2.0000
G00 X32.6137 Y-9.4255
G01 F60.00
G01 Z-0.1000
G01 F120.00
G01 X32.6476 Y-9.5766
G01 X32.6513 Y-9.5881
G01 X32.6558 Y-9.5993
G01 X32.6611 Y-9.6102
G01 X32.6673 Y-9.6206
G01 X32.6741 Y-9.6305
G01 X32.6818 Y-9.6399
G01 X32.6901 Y-9.6487
G01 X32.6990 Y-9.6568
G01 X32.8000 Y-9.7419
G01 X32.8093 Y-9.7486
G01 X32.8158 Y-9.7526
G01 X32.8225 Y-9.7564
G01 X32.8329 Y-9.7614
G01 X32.8435 Y-9.7657
G01 X32.9736 Y-9.8124
G01 X33.1058 Y-9.8564
G01 X33.2367 Y-9.8962
G01 X33.3711 Y-9.9326
G01 X33.4997 Y-9.9641
G01 X33.6226 Y-9.9905
G01 X33.7481 Y-10.0138
G01 X33.8730 Y-10.0329
G01 X33.9958 Y-10.0478
G01 X34.1180 Y-10.0585
G01 X34.2388 Y-10.0650
G01 X34.3674 Y-10.0672
G01 X34.4899 Y-10.0624
G01 X34.6114 Y-10.0484
G01 X34.6254 Y-10.0462
G01 X34.7406 Y-10.0222
G01 X34.8502 Y-9.9893
G01 X34.8649 Y-9.9840
G01 X34.9695 Y-9.9408
G01 X35.0688 Y-9.8886
G01 X35.0805 Y-9.8818
G01 X35.1953 Y-9.8082
G01 X35.2981 Y-9.7287
G01 X35.3067 Y-9.7215
G01 X35.3953 Y-9.6387
G01 X35.4072 Y-9.6264
G01 X35.4868 Y-9.5339
G01 X35.5549 Y-9.4360
G01 X35.5591 Y-9.4297
G01 X35.5647 Y-9.4199
G01 X35.6193 Y-9.3169
G01 X35.6236 Y-9.3069
G01 X35.6638 Y-9.2053
G01 X35.6676 Y-9.1946
G01 X35.6697 Y-9.1874
G01 X35.7001 Y-9.0718
G01 X35.7189 Y-8.9511
G01 X35.7206 Y-8.9342
G01 X35.7262 Y-8.8164
G01 X35.7263 Y-8.8046
G01 X35.7188 Y-8.7008
G01 X35.7174 Y-8.6883
G01 X35.7150 Y-8.6761
G01 X35.6937 Y-8.5846
G01 X35.6904 Y-8.5726
G01 X35.6862 Y-8.5609
G01 X35.6511 Y-8.4740
G01 X35.6459 Y-8.4624
G01 X35.6397 Y-8.4512
G01 X35.5904 Y-8.3694
G01 X35.5840 Y-8.3595
G01 X35.5768 Y-8.3501
G01 X35.5073 Y-8.2660
G01 X35.4984 Y-8.2571
G01 X35.4151 Y-8.1795
G01 X35.4064 Y-8.1725
G01 X35.3085 Y-8.1005
G01 X35.1889 Y-8.0289
G01 X34.1100 Y-7.4533
G01 X34.0563 Y-7.3998
G01 X34.0363 Y-7.3059
G01 X34.0421 Y-7.2456
G01 X34.0607 Y-7.1846
G01 X34.0917 Y-7.1298
G01 X34.1382 Y-7.0762
G01 X34.1947 Y-7.0308
G01 X34.2543 Y-6.9998
G01 X34.3199 Y-6.9807
G01 X34.3997 Y-6.9737
G01 X34.5485 Y-6.9765
G01 X34.6937 Y-6.9857
G01 X34.8288 Y-7.0005
G01 X34.9544 Y-7.0214
G01 X35.0698 Y-7.0476
G01 X35.1750 Y-7.0793
G01 X35.2703 Y-7.1158
G01 X35.4110 Y-7.1840
G01 X35.4223 Y-7.1889
G01 X35.4649 Y-7.2057
G01 X35.4759 Y-7.2096
G01 X35.5204 Y-7.2213
G01 X35.5355 Y-7.2245
G01 X35.5752 Y-7.2291
G01 X35.5914 Y-7.2301
G01 X35.6076 Y-7.2294
G01 X35.6618 Y-7.2245
G01 X35.6735 Y-7.2227
G01 X35.6849 Y-7.2201
G01 X35.7354 Y-7.2053
G01 X35.7472 Y-7.2013
G01 X35.7587 Y-7.1965
G01 X35.7661 Y-7.1927
G01 X35.8098 Y-7.1694
G01 X35.8228 Y-7.1616
G01 X35.8351 Y-7.1526
G01 X35.8777 Y-7.1181
G01 X35.8865 Y-7.1101
G01 X35.8946 Y-7.1015
G01 X35.9307 Y-7.0584
G01 X35.9402 Y-7.0458
G01 X35.9484 Y-7.0324
G01 X35.9723 Y-6.9887
G01 X35.9774 Y-6.9786
G01 X35.9830 Y-6.9646
G01 X36.0007 Y-6.9057
G01 X36.0034 Y-6.8939
G01 X36.0052 Y-6.8819
G01 X36.0102 Y-6.8266
G01 X36.0108 Y-6.8100
G01 X36.0102 Y-6.7976
G01 X36.0041 Y-6.7310
G01 X36.0026 Y-6.7198
G01 X36.0004 Y-6.7086
G01 X35.9974 Y-6.6977
G01 X35.9789 Y-6.6386
G01 X35.9748 Y-6.6276
G01 X35.9716 Y-6.6205
G01 X35.9661 Y-6.6101
G01 X35.9599 Y-6.6002
G01 X35.9282 Y-6.5533
G01 X35.9188 Y-6.5413
G01 X35.9083 Y-6.5302
G01 X35.8997 Y-6.5225
G01 X35.8556 Y-6.4876
G01 X35.8426 Y-6.4784
G01 X35.8323 Y-6.4723
G01 X35.7166 Y-6.4098
G01 X35.5944 Y-6.3522
G01 X35.4737 Y-6.3028
G01 X35.3419 Y-6.2572
G01 X35.2079 Y-6.2187
G01 X35.0801 Y-6.1894
G01 X34.9501 Y-6.1663
G01 X34.8092 Y-6.1488
G01 X34.6660 Y-6.1385
G01 X34.5277 Y-6.1354
G01 X34.4083 Y-6.1395
G01 X34.3962 Y-6.1404
G01 X34.2860 Y-6.1526
G01 X34.2727 Y-6.1546
G01 X34.1624 Y-6.1763
G01 X34.0477 Y-6.2081
G01 X34.0391 Y-6.2111
G01 X33.9340 Y-6.2505
G01 X33.8267 Y-6.3024
G01 X33.7056 Y-6.3763
G01 X33.6031 Y-6.4521
G01 X33.5942 Y-6.4592
G01 X33.5001 Y-6.5441
G01 X33.4202 Y-6.6318
G01 X33.4153 Y-6.6374
G01 X33.4085 Y-6.6463
G01 X33.3419 Y-6.7398
G01 X33.3362 Y-6.7493
G01 X33.2849 Y-6.8417
G01 X33.2812 Y-6.8487
G01 X33.2764 Y-6.8595
G01 X33.2367 Y-6.9576
G01 X33.2329 Y-6.9680
G01 X33.2023 Y-7.0783
G01 X33.1986 Y-7.0957
G01 X33.1813 Y-7.2039
G01 X33.1795 Y-7.2214
G01 X33.1739 Y-7.3352
G01 X33.1737 Y-7.3462
G01 X33.1814 Y-7.4675
G01 X33.1828 Y-7.4786
G01 X33.1841 Y-7.4859
G01 X33.2054 Y-7.5895
G01 X33.2082 Y-7.6008
G01 X33.2117 Y-7.6118
G01 X33.2468 Y-7.7088
G01 X33.2498 Y-7.7165
G01 X33.2549 Y-7.7276
G01 X33.3061 Y-7.8216
G01 X33.3124 Y-7.8322
G01 X33.3196 Y-7.8423
G01 X33.3836 Y-7.9262
G01 X33.3907 Y-7.9349
G01 X33.3985 Y-7.9431
G01 X33.4819 Y-8.0251
G01 X33.4909 Y-8.0326
G01 X33.5823 Y-8.1032
G01 X33.5916 Y-8.1099
G01 X33.5981 Y-8.1140
G01 X33.7112 Y-8.1814
G01 X34.7007 Y-8.7090
G01 X34.7853 Y-8.7640
G01 X34.8317 Y-8.8104
G01 X34.8524 Y-8.8474
G01 X34.8588 Y-8.8850
G01 X34.8528 Y-8.9419
G01 X34.8334 Y-8.9996
G01 X34.7993 Y-9.0571
G01 X34.7463 Y-9.1168
G01 X34.6841 Y-9.1687
G01 X34.6241 Y-9.2026
G01 X34.5632 Y-9.2219
G01 X34.4912 Y-9.2290
G01 X34.3646 Y-9.2276
G01 X34.2348 Y-9.2227
G01 X34.1108 Y-9.2153
G01 X33.9916 Y-9.2041
G01 X33.8770 Y-9.1904
G01 X33.7676 Y-9.1735
G01 X33.6623 Y-9.1537
G01 X33.5628 Y-9.1312
G01 X33.4683 Y-9.1055
G01 X33.3783 Y-9.0771
G01 X33.2930 Y-9.0460
G01 X33.1711 Y-8.9955
G01 X33.1606 Y-8.9921
G01 X33.1239 Y-8.9816
G01 X33.0887 Y-8.9746
G01 X33.0776 Y-8.9728
G01 X33.0665 Y-8.9718
G01 X33.0314 Y-8.9700
G01 X33.0161 Y-8.9706
G01 X32.9638 Y-8.9752
G01 X32.9518 Y-8.9767
G01 X32.9439 Y-8.9782
G01 X32.9322 Y-8.9812
G01 X32.8840 Y-8.9954
G01 X32.8692 Y-9.0005
G01 X32.8585 Y-9.0053
G01 X32.8515 Y-9.0090
G01 X32.8083 Y-9.0328
G01 X32.7978 Y-9.0392
G01 X32.7911 Y-9.0439
G01 X32.7814 Y-9.0515
G01 X32.7423 Y-9.0851
G01 X32.7339 Y-9.0928
G01 X32.7235 Y-9.1041
G01 X32.6849 Y-9.1507
G01 X32.6778 Y-9.1609
G01 X32.6735 Y-9.1679
G01 X32.6482 Y-9.2152
G01 X32.6431 Y-9.2257
G01 X32.6375 Y-9.2401
G01 X32.6195 Y-9.2988
G01 X32.6170 Y-9.3098
G01 X32.6154 Y-9.3210
G01 X32.6099 Y-9.3837
G01 X32.6099 Y-9.3952
G01 X32.6103 Y-9.4028
G01 X32.6116 Y-9.4142
G01 X32.6137 Y-9.4255
G00 Z2.0000
G00 X32.6961 Y-9.4071
G01 F60.00
G01 Z-0.1000
G01 F120.00
G01 X32.7286 Y-9.5522
G01 X32.7322 Y-9.5632
G01 X32.7374 Y-9.5734
G01 X32.7417 Y-9.5798
G01 X32.7453 Y-9.5842
G01 X32.7535 Y-9.5923
G01 X32.8499 Y-9.6737
G01 X32.8589 Y-9.6800
G01 X32.8687 Y-9.6849
G01 X33.0039 Y-9.7335
G01 X33.1325 Y-9.7762
G01 X33.2613 Y-9.8154
G01 X33.3896 Y-9.8501
G01 X33.5152 Y-9.8810
G01 X33.6404 Y-9.9079
G01 X33.7635 Y-9.9307
G01 X33.8857 Y-9.9494
G01 X34.0085 Y-9.9642
G01 X34.1254 Y-9.9744
G01 X34.2433 Y-9.9807
G01 X34.3641 Y-9.9827
G01 X34.4844 Y-9.9781
G01 X34.6017 Y-9.9645
G01 X34.6083 Y-9.9634
G01 X34.7199 Y-9.9403
G01 X34.8258 Y-9.9084
G01 X34.8328 Y-9.9059
G01 X34.9337 Y-9.8643
G01 X35.0294 Y-9.8139
G01 X35.0350 Y-9.8107
G01 X35.1466 Y-9.7391
G01 X35.2505 Y-9.6585
G01 X35.3376 Y-9.5770
G01 X35.3433 Y-9.5711
G01 X35.4200 Y-9.4821
G01 X35.4855 Y-9.3879
G01 X35.4901 Y-9.3802
G01 X35.5430 Y-9.2806
G01 X35.5852 Y-9.1742
G01 X35.5880 Y-9.1657
G01 X35.6174 Y-9.0546
G01 X35.6354 Y-8.9382
G01 X35.6362 Y-8.9302
G01 X35.6419 Y-8.8068
G01 X35.6339 Y-8.7011
G01 X35.6114 Y-8.6038
G01 X35.6079 Y-8.5925
G01 X35.5728 Y-8.5057
G01 X35.5694 Y-8.4983
G01 X35.5150 Y-8.4083
G01 X35.4436 Y-8.3216
G01 X35.3590 Y-8.2426
G01 X35.2601 Y-8.1697
G01 X35.1491 Y-8.1034
G01 X34.0593 Y-7.5220
G01 X33.9789 Y-7.4420
G01 X33.9510 Y-7.3108
G01 X33.9588 Y-7.2291
G01 X33.9825 Y-7.1511
G01 X34.0223 Y-7.0808
G01 X34.0793 Y-7.0151
G01 X34.1483 Y-6.9597
G01 X34.2227 Y-6.9210
G01 X34.3042 Y-6.8973
G01 X34.3968 Y-6.8891
G01 X34.5520 Y-6.8921
G01 X34.7009 Y-6.9015
G01 X34.8403 Y-6.9168
G01 X34.9707 Y-6.9385
G01 X35.0913 Y-6.9658
G01 X35.2024 Y-6.9993
G01 X35.3039 Y-7.0383
G01 X35.4514 Y-7.1096
G01 X35.4993 Y-7.1284
G01 X35.5417 Y-7.1396
G01 X35.5525 Y-7.1416
G01 X35.5845 Y-7.1451
G01 X35.5922 Y-7.1456
G01 X35.6000 Y-7.1453
G01 X35.6503 Y-7.1407
G01 X35.6577 Y-7.1397
G01 X35.6631 Y-7.1384
G01 X35.7135 Y-7.1236
G01 X35.7209 Y-7.1208
G01 X35.7263 Y-7.1183
G01 X35.7700 Y-7.0949
G01 X35.7762 Y-7.0912
G01 X35.7820 Y-7.0869
G01 X35.8216 Y-7.0549
G01 X35.8259 Y-7.0512
G01 X35.8311 Y-7.0458
G01 X35.8658 Y-7.0042
G01 X35.8704 Y-6.9983
G01 X35.8743 Y-6.9919
G01 X35.8981 Y-6.9482
G01 X35.9013 Y-6.9417
G01 X35.9038 Y-6.9350
G01 X35.9191 Y-6.8836
G01 X35.9204 Y-6.8780
G01 X35.9215 Y-6.8704
G01 X35.9261 Y-6.8191
G01 X35.9264 Y-6.8112
G01 X35.9199 Y-6.7387
G01 X35.9182 Y-6.7281
G01 X35.8995 Y-6.6675
G01 X35.8954 Y-6.6571
G01 X35.8899 Y-6.6474
G01 X35.8594 Y-6.6022
G01 X35.8536 Y-6.5951
G01 X35.8498 Y-6.5912
G01 X35.8443 Y-6.5864
G01 X35.8032 Y-6.5539
G01 X35.7970 Y-6.5495
G01 X35.6765 Y-6.4842
G01 X35.5604 Y-6.4296
G01 X35.4417 Y-6.3810
G01 X35.3165 Y-6.3377
G01 X35.1891 Y-6.3010
G01 X35.0632 Y-6.2722
G01 X34.9354 Y-6.2495
G01 X34.8009 Y-6.2329
G01 X34.6641 Y-6.2229
G01 X34.5283 Y-6.2199
G01 X34.4112 Y-6.2240
G01 X34.2953 Y-6.2366
G01 X34.2889 Y-6.2375
G01 X34.1808 Y-6.2588
G01 X34.0727 Y-6.2888
G01 X33.9672 Y-6.3281
G01 X33.8671 Y-6.3766
G01 X33.7528 Y-6.4463
G01 X33.6534 Y-6.5200
G01 X33.6478 Y-6.5245
G01 X33.5597 Y-6.6039
G01 X33.4828 Y-6.6885
G01 X33.4772 Y-6.6955
G01 X33.4118 Y-6.7872
G01 X33.3587 Y-6.8827
G01 X33.3547 Y-6.8912
G01 X33.3132 Y-6.9942
G01 X33.2838 Y-7.1007
G01 X33.2820 Y-7.1090
G01 X33.2647 Y-7.2172
G01 X33.2638 Y-7.2256
G01 X33.2582 Y-7.3429
G01 X33.2656 Y-7.4601
G01 X33.2668 Y-7.4689
G01 X33.2895 Y-7.5778
G01 X33.3262 Y-7.6801
G01 X33.3310 Y-7.6908
G01 X33.3833 Y-7.7863
G01 X33.4541 Y-7.8790
G01 X33.5396 Y-7.9634
G01 X33.6384 Y-8.0396
G01 X33.7509 Y-8.1069
G01 X34.7437 Y-8.6362
G01 X34.8388 Y-8.6980
G01 X34.8997 Y-8.7590
G01 X34.9333 Y-8.8189
G01 X34.9440 Y-8.8823
G01 X34.9359 Y-8.9599
G01 X34.9107 Y-9.0351
G01 X34.8678 Y-9.1071
G01 X34.8053 Y-9.1776
G01 X34.7323 Y-9.2385
G01 X34.6580 Y-9.2805
G01 X34.5803 Y-9.3051
G01 X34.4949 Y-9.3135
G01 X34.3625 Y-9.3121
G01 X34.2307 Y-9.3071
G01 X34.1044 Y-9.2996
G01 X33.9827 Y-9.2881
G01 X33.8656 Y-9.2741
G01 X33.7533 Y-9.2568
G01 X33.6452 Y-9.2364
G01 X33.5425 Y-9.2132
G01 X33.4445 Y-9.1866
G01 X33.3511 Y-9.1571
G01 X33.2623 Y-9.1248
G01 X33.1439 Y-9.0755
G01 X33.1373 Y-9.0732
G01 X33.1041 Y-9.0638
G01 X33.0671 Y-9.0566
G01 X33.0326 Y-9.0545
G01 X33.0235 Y-9.0548
G01 X32.9711 Y-9.0594
G01 X32.9636 Y-9.0604
G01 X32.9561 Y-9.0622
G01 X32.9079 Y-9.0764
G01 X32.9008 Y-9.0789
G01 X32.8924 Y-9.0829
G01 X32.8442 Y-9.1098
G01 X32.8364 Y-9.1157
G01 X32.7933 Y-9.1529
G01 X32.7883 Y-9.1583
G01 X32.7524 Y-9.2015
G01 X32.7460 Y-9.2114
G01 X32.7202 Y-9.2601
G01 X32.7170 Y-9.2687
G01 X32.7018 Y-9.3182
G01 X32.7005 Y-9.3234
G01 X32.6993 Y-9.3305
