;FLAVOR:Marlin
;TIME:887
;Filament used: 0.691485m
;Layer height: 0.2
;MINX:97.8
;MINY:102.8
;MINZ:0.2
;MAXX:152.2
;MAXY:147.2
;MAXZ:12
;Generated with Cura_SteamEngine 4.11.0
M140 S60
M105
M190 S60
M104 S195
M105
M109 S195
M82 ;absolute extrusion mode
; Ender 3 Custom Start G-code
G92 E0 ; Reset Extruder
G28 ; Home all axes
G1 Z2.0 F3000 ; Move Z Axis up little to prevent scratching of Heat Bed
G1 X0.1 Y20 Z0.3 F5000.0 ; Move to start position
G1 X0.1 Y200.0 Z0.3 F1500.0 E15 ; Draw the first line
G1 X0.4 Y200.0 Z0.3 F5000.0 ; Move to side a little
G1 X0.4 Y20 Z0.3 F1500.0 E30 ; Draw the second line
G92 E0 ; Reset Extruder
G1 Z2.0 F3000 ; Move Z Axis up little to prevent scratching of Heat Bed
G1 X5 Y20 Z0.3 F5000.0 ; Move over to prevent blob squish
G92 E0
G92 E0
G1 F2700 E-6.5
;LAYER_COUNT:60
;LAYER:0
M107
G0 F6000 X102.557 Y107.26 Z0.2
;TYPE:SKIRT
G1 F2700 E0
G1 F1200 X103.387 Y106.507 E0.05591
G1 X104.269 Y105.816 E0.11181
G1 X105.198 Y105.189 E0.16773
G1 X106.169 Y104.63 E0.22362
G1 X107.178 Y104.142 E0.27954
G1 X108.219 Y103.727 E0.33545
G1 X109.287 Y103.387 E0.39137
G1 X110.376 Y103.125 E0.44725
G1 X111.481 Y102.941 E0.50314
G1 X113.069 Y102.815 E0.58261
G1 X113.39 Y102.806 E0.59863
G1 X113.83 Y102.8 E0.62059
G1 X135.793 Y102.8 E1.71633
G1 X136.716 Y102.812 E1.76238
G1 X137.835 Y102.868 E1.81828
G1 X138.947 Y103.003 E1.87416
G1 X140.047 Y103.218 E1.93008
G1 X141.129 Y103.511 E1.986
G1 X142.187 Y103.88 E2.04191
G1 X143.216 Y104.323 E2.0978
G1 X144.211 Y104.839 E2.15372
G1 X145.166 Y105.424 E2.20959
G1 X146.077 Y106.076 E2.26548
G1 X146.94 Y106.792 E2.32143
G1 X147.749 Y107.567 E2.37732
G1 X148.501 Y108.398 E2.43323
G1 X149.191 Y109.28 E2.4891
G1 X149.817 Y110.21 E2.54503
G1 X150.376 Y111.181 E2.60093
G1 X150.863 Y112.19 E2.65683
G1 X151.277 Y113.231 E2.71272
G1 X151.616 Y114.3 E2.76867
G1 X151.878 Y115.389 E2.82455
G1 X152.061 Y116.494 E2.88043
G1 X152.185 Y118.069 E2.95925
G1 X152.194 Y118.389 E2.97522
G1 X152.2 Y118.83 E2.99722
G1 X152.199 Y130.958 E3.60229
G1 X152.19 Y131.685 E3.63856
G1 X152.136 Y132.805 E3.69451
G1 X152.002 Y133.917 E3.75039
G1 X151.79 Y135.017 E3.80627
G1 X151.499 Y136.1 E3.86222
G1 X151.132 Y137.158 E3.91809
G1 X150.691 Y138.188 E3.97399
G1 X150.177 Y139.184 E4.02991
G1 X149.593 Y140.141 E4.08584
G1 X148.943 Y141.053 E4.14171
G1 X148.229 Y141.917 E4.19763
G1 X147.456 Y142.728 E4.25353
G1 X146.627 Y143.481 E4.3094
G1 X145.745 Y144.173 E4.36533
G1 X144.817 Y144.801 E4.42124
G1 X143.847 Y145.361 E4.47712
G1 X142.839 Y145.851 E4.53303
G1 X141.798 Y146.267 E4.58896
G1 X140.731 Y146.608 E4.64485
G1 X139.642 Y146.872 E4.70075
G1 X138.537 Y147.057 E4.75665
G1 X136.931 Y147.185 E4.83702
G1 X136.61 Y147.194 E4.85304
G1 X136.17 Y147.2 E4.875
G1 X114.005 Y147.199 E5.98081
G1 X113.307 Y147.19 E6.01564
G1 X112.187 Y147.135 E6.07159
G1 X111.075 Y147.001 E6.12746
G1 X109.975 Y146.788 E6.18336
G1 X108.893 Y146.497 E6.23926
G1 X107.834 Y146.13 E6.29518
G1 X106.805 Y145.687 E6.35107
G1 X105.809 Y145.173 E6.40699
G1 X104.853 Y144.589 E6.46288
G1 X103.941 Y143.938 E6.51878
G1 X103.077 Y143.224 E6.5747
G1 X102.267 Y142.45 E6.6306
G1 X101.514 Y141.62 E6.68651
G1 X100.822 Y140.739 E6.7424
G1 X100.194 Y139.81 E6.79834
G1 X99.635 Y138.84 E6.8542
G1 X99.146 Y137.831 E6.91013
G1 X98.731 Y136.791 E6.966
G1 X98.39 Y135.723 E7.02193
G1 X98.127 Y134.634 E7.07782
G1 X97.942 Y133.529 E7.13372
G1 X97.815 Y131.915 E7.21449
G1 X97.806 Y131.582 E7.23111
G1 X97.8 Y131.158 E7.25227
G1 X97.801 Y118.962 E7.86073
G1 X97.81 Y118.297 E7.89391
G1 X97.866 Y117.177 E7.94985
G1 X98 Y116.065 E8.00573
G1 X98.214 Y114.965 E8.06164
G1 X98.506 Y113.883 E8.11755
G1 X98.874 Y112.825 E8.17344
G1 X99.317 Y111.795 E8.22938
G1 X99.832 Y110.8 E8.28527
G1 X100.416 Y109.844 E8.34116
G1 X101.068 Y108.933 E8.39706
G1 X101.783 Y108.07 E8.45297
G1 X102.557 Y107.26 E8.50886
G0 F6000 X103.144 Y107.528
G1 F1200 X103.97 Y106.803 E8.56369
G1 X104.847 Y106.141 E8.61851
G1 X105.769 Y105.544 E8.67331
G1 X106.733 Y105.015 E8.72817
G1 X107.732 Y104.558 E8.78298
G1 X108.762 Y104.175 E8.8378
G1 X109.817 Y103.867 E8.89264
G1 X110.891 Y103.638 E8.94742
G1 X111.98 Y103.487 E9.00227
G1 X113.086 Y103.415 E9.05757
G1 X113.407 Y103.406 E9.07359
G1 X113.83 Y103.4 E9.0947
G1 X135.793 Y103.4 E10.19043
G1 X136.707 Y103.412 E10.23604
G1 X137.805 Y103.467 E10.29089
G1 X138.895 Y103.603 E10.34569
G1 X139.973 Y103.817 E10.40052
G1 X141.033 Y104.109 E10.45537
G1 X142.068 Y104.478 E10.51019
G1 X143.074 Y104.92 E10.56501
G1 X144.044 Y105.435 E10.6198
G1 X144.975 Y106.019 E10.67463
G1 X145.861 Y106.669 E10.72946
G1 X146.698 Y107.382 E10.78431
G1 X147.48 Y108.154 E10.83913
G1 X148.204 Y108.98 E10.89393
G1 X148.866 Y109.857 E10.94875
G1 X149.463 Y110.78 E11.00359
G1 X149.99 Y111.744 E11.0584
G1 X150.447 Y112.744 E11.11326
G1 X150.829 Y113.774 E11.16807
G1 X151.136 Y114.829 E11.22288
G1 X151.364 Y115.904 E11.27771
G1 X151.515 Y116.993 E11.33256
G1 X151.585 Y118.085 E11.38715
G1 X151.594 Y118.405 E11.40312
G1 X151.6 Y118.83 E11.42433
G1 X151.599 Y130.951 E12.02905
G1 X151.59 Y131.678 E12.06532
G1 X151.536 Y132.776 E12.12016
G1 X151.403 Y133.866 E12.17495
G1 X151.191 Y134.945 E12.22981
G1 X150.901 Y136.004 E12.28459
G1 X150.534 Y137.04 E12.33942
G1 X150.093 Y138.047 E12.39427
G1 X149.581 Y139.019 E12.44908
G1 X148.998 Y139.951 E12.50392
G1 X148.35 Y140.838 E12.55873
G1 X147.639 Y141.676 E12.61355
G1 X146.869 Y142.46 E12.66838
G1 X146.043 Y143.185 E12.72321
G1 X145.168 Y143.849 E12.77801
G1 X144.246 Y144.448 E12.83286
G1 X143.283 Y144.977 E12.88768
G1 X142.284 Y145.435 E12.94251
G1 X141.255 Y145.82 E12.99732
G1 X140.2 Y146.128 E13.05215
G1 X139.126 Y146.359 E13.10696
G1 X138.037 Y146.512 E13.16182
G1 X136.914 Y146.585 E13.21797
G1 X136.593 Y146.594 E13.23399
G1 X136.17 Y146.6 E13.2551
G1 X114.012 Y146.599 E14.36056
G1 X113.314 Y146.59 E14.39539
G1 X112.217 Y146.536 E14.45018
G1 X111.126 Y146.402 E14.50502
G1 X110.048 Y146.189 E14.55984
G1 X108.988 Y145.898 E14.61469
G1 X107.952 Y145.531 E14.66952
G1 X106.946 Y145.09 E14.72432
G1 X105.974 Y144.577 E14.77915
G1 X105.043 Y143.994 E14.83395
G1 X104.156 Y143.345 E14.88879
G1 X103.318 Y142.634 E14.94362
G1 X102.535 Y141.863 E14.99844
G1 X101.81 Y141.037 E15.05327
G1 X101.146 Y140.161 E15.10811
G1 X100.548 Y139.239 E15.16294
G1 X100.019 Y138.276 E15.21775
G1 X99.562 Y137.277 E15.27256
G1 X99.178 Y136.247 E15.3274
G1 X98.87 Y135.193 E15.38219
G1 X98.639 Y134.118 E15.43704
G1 X98.488 Y133.03 E15.49184
G1 X98.415 Y131.899 E15.54839
G1 X98.406 Y131.566 E15.56501
G1 X98.4 Y131.158 E15.58536
G1 X98.401 Y118.97 E16.19343
G1 X98.41 Y118.305 E16.22661
G1 X98.465 Y117.207 E16.28145
G1 X98.6 Y116.116 E16.3363
G1 X98.813 Y115.039 E16.39107
G1 X99.105 Y113.979 E16.44593
G1 X99.472 Y112.943 E16.50076
G1 X99.914 Y111.937 E16.55558
G1 X100.428 Y110.966 E16.61039
G1 X101.011 Y110.035 E16.66519
G1 X101.661 Y109.148 E16.72006
G1 X102.373 Y108.311 E16.77488
G1 X103.144 Y107.528 E16.8297
G0 F6000 X103.73 Y107.803
G1 F1200 X104.552 Y107.107 E16.88344
G1 X105.423 Y106.473 E16.93719
G1 X106.338 Y105.906 E16.99089
G1 X107.293 Y105.409 E17.0446
G1 X108.283 Y104.984 E17.09835
G1 X109.301 Y104.633 E17.15207
G1 X110.342 Y104.359 E17.20578
G1 X111.401 Y104.163 E17.25951
G1 X112.471 Y104.046 E17.31321
G1 X113.103 Y104.015 E17.34478
G1 X113.424 Y104.006 E17.3608
G1 X113.83 Y104 E17.38106
G1 X136.001 Y104.001 E18.48717
G1 X136.699 Y104.011 E18.522
G1 X137.774 Y104.067 E18.5757
G1 X138.842 Y104.202 E18.62941
G1 X139.898 Y104.416 E18.68317
G1 X140.934 Y104.708 E18.73687
G1 X141.947 Y105.075 E18.79062
G1 X142.929 Y105.517 E18.84435
G1 X143.875 Y106.031 E18.89806
G1 X144.781 Y106.613 E18.95178
G1 X145.641 Y107.261 E19.0055
G1 X146.45 Y107.971 E19.0592
G1 X147.205 Y108.74 E19.11297
G1 X147.901 Y109.562 E19.1667
G1 X148.533 Y110.433 E19.22039
G1 X149.099 Y111.349 E19.27411
G1 X149.596 Y112.305 E19.32787
G1 X150.02 Y113.294 E19.38155
G1 X150.37 Y114.313 E19.43531
G1 X150.643 Y115.354 E19.489
G1 X150.839 Y116.413 E19.54273
G1 X150.955 Y117.484 E19.59647
G1 X150.985 Y118.102 E19.62734
G1 X150.994 Y118.422 E19.64331
G1 X151 Y118.83 E19.66367
G1 X150.999 Y130.943 E20.26799
G1 X150.99 Y131.67 E20.30426
G1 X150.937 Y132.746 E20.35801
G1 X150.804 Y133.815 E20.41175
G1 X150.592 Y134.87 E20.46544
G1 X150.302 Y135.908 E20.51921
G1 X149.936 Y136.92 E20.5729
G1 X149.496 Y137.903 E20.62663
G1 X148.984 Y138.851 E20.68038
G1 X148.404 Y139.758 E20.7341
G1 X147.757 Y140.619 E20.78783
G1 X147.049 Y141.43 E20.84154
G1 X146.282 Y142.186 E20.89527
G1 X145.461 Y142.883 E20.949
G1 X144.591 Y143.517 E21.0027
G1 X143.676 Y144.085 E21.05643
G1 X142.722 Y144.584 E21.11015
G1 X141.733 Y145.01 E21.16387
G1 X140.715 Y145.362 E21.21761
G1 X139.674 Y145.637 E21.27133
G1 X138.616 Y145.835 E21.32503
G1 X137.545 Y145.953 E21.37878
G1 X136.897 Y145.985 E21.41115
G1 X136.576 Y145.994 E21.42717
G1 X136.17 Y146 E21.44743
G1 X114.02 Y145.999 E22.5525
G1 X113.322 Y145.99 E22.58732
G1 X112.247 Y145.936 E22.64102
G1 X111.178 Y145.802 E22.69477
G1 X110.122 Y145.59 E22.74851
G1 X109.085 Y145.3 E22.80223
G1 X108.073 Y144.933 E22.85594
G1 X107.09 Y144.493 E22.90967
G1 X106.143 Y143.981 E22.96338
G1 X105.236 Y143.4 E23.01711
G1 X104.375 Y142.753 E23.07085
G1 X103.565 Y142.044 E23.12455
G1 X102.809 Y141.277 E23.17828
G1 X102.112 Y140.456 E23.23201
G1 X101.478 Y139.585 E23.28576
G1 X100.911 Y138.67 E23.33946
G1 X100.413 Y137.715 E23.39319
G1 X99.987 Y136.726 E23.44692
G1 X99.636 Y135.708 E23.50064
G1 X99.361 Y134.667 E23.55436
G1 X99.164 Y133.608 E23.6081
G1 X99.047 Y132.538 E23.6618
G1 X99.014 Y131.883 E23.69452
G1 X99.005 Y131.55 E23.71114
G1 X99 Y131.158 E23.7307
G1 X99.001 Y118.978 E24.33836
G1 X99.01 Y118.313 E24.37154
G1 X99.065 Y117.237 E24.42529
G1 X99.199 Y116.169 E24.47899
G1 X99.412 Y115.113 E24.53274
G1 X99.703 Y114.077 E24.58642
G1 X100.07 Y113.064 E24.64018
G1 X100.511 Y112.082 E24.69388
G1 X101.024 Y111.135 E24.74762
G1 X101.606 Y110.229 E24.80134
G1 X102.253 Y109.368 E24.85507
G1 X102.963 Y108.558 E24.90881
G1 X103.73 Y107.803 E24.9625
G0 F6000 X103.552 Y108.811
G1 F1200 X104.315 Y108.084 E25.01508
G1 X105.132 Y107.417 E25.0677
G1 X105.997 Y106.814 E25.12031
G1 X106.905 Y106.278 E25.17291
G1 X107.851 Y105.813 E25.2255
G1 X108.83 Y105.42 E25.27813
G1 X109.835 Y105.103 E25.33071
G1 X110.862 Y104.863 E25.38332
G1 X111.904 Y104.702 E25.43593
G1 X113.119 Y104.614 E25.4967
G1 X113.44 Y104.605 E25.51272
G1 X113.83 Y104.6 E25.53218
G1 X135.992 Y104.601 E26.63785
G1 X136.69 Y104.611 E26.67267
G1 X137.743 Y104.667 E26.72528
G1 X138.789 Y104.801 E26.7779
G1 X139.821 Y105.015 E26.83048
G1 X140.834 Y105.306 E26.88306
G1 X141.823 Y105.673 E26.93569
G1 X142.78 Y106.114 E26.98826
G1 X143.702 Y106.627 E27.0409
G1 X144.582 Y107.207 E27.09348
G1 X145.415 Y107.853 E27.14607
G1 X146.197 Y108.56 E27.19867
G1 X146.924 Y109.325 E27.25132
G1 X147.59 Y110.142 E27.30391
G1 X148.192 Y111.007 E27.35648
G1 X148.727 Y111.916 E27.4091
G1 X149.192 Y112.862 E27.46169
G1 X149.583 Y113.841 E27.51429
G1 X149.9 Y114.847 E27.56691
G1 X150.139 Y115.874 E27.61952
G1 X150.299 Y116.916 E27.67211
G1 X150.386 Y118.119 E27.73229
G1 X150.395 Y118.439 E27.74826
G1 X150.4 Y118.83 E27.76777
G1 X150.399 Y130.936 E28.37174
G1 X150.39 Y131.663 E28.40801
G1 X150.337 Y132.716 E28.46061
G1 X150.204 Y133.762 E28.51322
G1 X149.993 Y134.795 E28.56582
G1 X149.703 Y135.809 E28.61843
G1 X149.338 Y136.798 E28.67103
G1 X148.899 Y137.756 E28.7236
G1 X148.388 Y138.679 E28.77624
G1 X147.809 Y139.56 E28.82883
G1 X147.165 Y140.394 E28.8814
G1 X146.46 Y141.178 E28.934
G1 X145.697 Y141.906 E28.98662
G1 X144.881 Y142.573 E29.0392
G1 X144.017 Y143.177 E29.09179
G1 X143.109 Y143.714 E29.14442
G1 X142.164 Y144.181 E29.19701
G1 X141.186 Y144.574 E29.2496
G1 X140.18 Y144.892 E29.30223
G1 X139.154 Y145.134 E29.35482
G1 X138.112 Y145.296 E29.40743
G1 X136.881 Y145.386 E29.46901
G1 X136.56 Y145.395 E29.48503
G1 X136.17 Y145.4 E29.50449
G1 X114.028 Y145.399 E30.60916
G1 X113.33 Y145.39 E30.64399
G1 X112.277 Y145.336 E30.69659
G1 X111.231 Y145.203 E30.7492
G1 X110.198 Y144.991 E30.80181
G1 X109.184 Y144.701 E30.85443
G1 X108.196 Y144.335 E30.90699
G1 X107.237 Y143.896 E30.95961
G1 X106.315 Y143.385 E31.0122
G1 X105.434 Y142.805 E31.06482
G1 X104.6 Y142.161 E31.11739
G1 X103.817 Y141.455 E31.16999
G1 X103.09 Y140.691 E31.22261
G1 X102.422 Y139.875 E31.27522
G1 X101.819 Y139.011 E31.32778
G1 X101.282 Y138.103 E31.38041
G1 X100.816 Y137.157 E31.43303
G1 X100.423 Y136.179 E31.48561
G1 X100.106 Y135.174 E31.53818
G1 X99.865 Y134.147 E31.59081
G1 X99.703 Y133.105 E31.64342
G1 X99.614 Y131.867 E31.70535
G1 X99.605 Y131.534 E31.72197
G1 X99.6 Y131.158 E31.74073
G1 X99.601 Y118.986 E32.34799
G1 X99.61 Y118.321 E32.38117
G1 X99.665 Y117.268 E32.43378
G1 X99.798 Y116.222 E32.48638
G1 X100.011 Y115.19 E32.53895
G1 X100.302 Y114.176 E32.59158
G1 X100.668 Y113.187 E32.6442
G1 X101.108 Y112.229 E32.69679
G1 X101.62 Y111.308 E32.74936
G1 X102.2 Y110.427 E32.80199
G1 X102.845 Y109.593 E32.85459
G1 X103.552 Y108.811 E32.90718
G0 F6000 X104.14 Y109.069
G1 F1200 X104.899 Y108.372 E32.95859
G1 X105.711 Y107.735 E33.01008
G1 X106.569 Y107.163 E33.06153
G1 X107.469 Y106.66 E33.11297
G1 X108.405 Y106.227 E33.16442
G1 X109.372 Y105.869 E33.21586
G1 X110.364 Y105.586 E33.26733
G1 X111.375 Y105.381 E33.31879
G1 X112.398 Y105.255 E33.37022
G1 X113.136 Y105.214 E33.40709
G1 X113.457 Y105.205 E33.42311
G1 X113.83 Y105.2 E33.44172
G1 X135.793 Y105.2 E34.53746
G1 X136.682 Y105.211 E34.58182
G1 X137.711 Y105.266 E34.63323
G1 X138.734 Y105.4 E34.6847
G1 X139.743 Y105.614 E34.73616
G1 X140.732 Y105.904 E34.78758
G1 X141.696 Y106.271 E34.83904
G1 X142.629 Y106.711 E34.8905
G1 X143.525 Y107.222 E34.94197
G1 X144.378 Y107.801 E34.9934
G1 X145.184 Y108.444 E35.04484
G1 X145.938 Y109.148 E35.0963
G1 X146.635 Y109.908 E35.14775
G1 X147.271 Y110.72 E35.19921
G1 X147.842 Y111.579 E35.25067
G1 X148.345 Y112.479 E35.30211
G1 X148.777 Y113.416 E35.35358
G1 X149.135 Y114.383 E35.40503
G1 X149.416 Y115.375 E35.45647
G1 X149.62 Y116.386 E35.50792
G1 X149.745 Y117.41 E35.55939
G1 X149.786 Y118.136 E35.59567
G1 X149.795 Y118.456 E35.61164
G1 X149.8 Y118.83 E35.6303
G1 X149.799 Y130.929 E36.23392
G1 X149.79 Y131.656 E36.27019
G1 X149.737 Y132.686 E36.32165
G1 X149.605 Y133.708 E36.37306
G1 X149.394 Y134.718 E36.42454
G1 X149.105 Y135.708 E36.47599
G1 X148.74 Y136.673 E36.52746
G1 X148.302 Y137.606 E36.57888
G1 X147.793 Y138.503 E36.63034
G1 X147.215 Y139.357 E36.68179
G1 X146.573 Y140.165 E36.73327
G1 X145.871 Y140.92 E36.78471
G1 X145.112 Y141.618 E36.83615
G1 X144.302 Y142.256 E36.88759
G1 X143.444 Y142.829 E36.93907
G1 X142.545 Y143.333 E36.99048
G1 X141.609 Y143.767 E37.04196
G1 X140.642 Y144.127 E37.09344
G1 X139.651 Y144.41 E37.14485
G1 X138.64 Y144.616 E37.19633
G1 X137.617 Y144.743 E37.24776
G1 X136.864 Y144.786 E37.28539
G1 X136.543 Y144.795 E37.30141
G1 X136.17 Y144.8 E37.32002
G1 X114.036 Y144.799 E38.42429
G1 X113.338 Y144.79 E38.45911
G1 X112.308 Y144.737 E38.51057
G1 X111.285 Y144.604 E38.56204
G1 X110.276 Y144.392 E38.61347
G1 X109.286 Y144.103 E38.66493
G1 X108.321 Y143.737 E38.71642
G1 X107.388 Y143.299 E38.76784
G1 X106.491 Y142.789 E38.81932
G1 X105.637 Y142.211 E38.87077
G1 X104.83 Y141.569 E38.92221
G1 X104.075 Y140.866 E38.97368
G1 X103.377 Y140.107 E39.02513
G1 X102.74 Y139.296 E39.07658
G1 X102.168 Y138.438 E39.12802
G1 X101.663 Y137.539 E39.17946
G1 X101.23 Y136.603 E39.23092
G1 X100.871 Y135.636 E39.28238
G1 X100.588 Y134.644 E39.33384
G1 X100.383 Y133.634 E39.38526
G1 X100.256 Y132.61 E39.43674
G1 X100.214 Y131.85 E39.47471
G1 X100.205 Y131.517 E39.49133
G1 X100.2 Y131.158 E39.50925
G1 X100.201 Y118.994 E40.11611
G1 X100.21 Y118.329 E40.14929
G1 X100.264 Y117.299 E40.20075
G1 X100.398 Y116.276 E40.25222
G1 X100.61 Y115.267 E40.30366
G1 X100.9 Y114.278 E40.35508
G1 X101.266 Y113.313 E40.40657
G1 X101.705 Y112.38 E40.45801
G1 X102.216 Y111.484 E40.50947
G1 X102.794 Y110.63 E40.56092
G1 X103.437 Y109.824 E40.61236
G1 X104.14 Y109.069 E40.66383
G0 F6000 X104.727 Y109.335
G1 F1200 X105.482 Y108.667 E40.71412
G1 X106.288 Y108.062 E40.7644
G1 X107.139 Y107.522 E40.81468
G1 X108.03 Y107.052 E40.86494
