; generated by PrusaSlicer 2.3.1+win64 on 2022-08-20 at 17:19:14 UTC

; 

; external perimeters extrusion width = 0.45mm
; perimeters extrusion width = 0.45mm
; infill extrusion width = 0.45mm
; solid infill extrusion width = 0.45mm
; top infill extrusion width = 0.40mm
; first layer extrusion width = 0.42mm

M201 X9000 Y9000 Z500 E10000 ; sets maximum accelerations, mm/sec^2
M203 X2000 Y2000 Z2000 E160 ; sets maximum feedrates, mm/sec
M204 P1500 R1500 T1500 ; sets acceleration (P, T) and retract acceleration (R), mm/sec^2
M205 X10.00 Y10.00 Z0.20 E2.50 ; sets the jerk limits, mm/sec
M205 S0 T0 ; sets the minimum extruding and travel feed rate, mm/sec
M107
M190 S50 ; set bed temperature and wait for it to be reached
M104 S200 ; set temperature
;TYPE:Custom
G28 ; home all axes
G1 Z5 F5000 ; lift nozzle
M109 S200 ; set temperature and wait for it to be reached
G21 ; set units to millimeters
G90 ; use absolute coordinates
M82 ; use absolute distances for extrusion
G92 E0
; Filament gcode
;LAYER_CHANGE
;Z:0.25
;HEIGHT:0.25
G1 Z0.250 F7800.000
G1 E-2.00000 F2400.000
G92 E0
G1 X78.822 Y52.796 F7800.000
G1 E2.00000 F2400.000
;TYPE:Skirt
;WIDTH:0.42
G1 F1800.000
G1 X79.342 Y50.893 E2.07512
G1 X80.004 Y49.442 E2.13587
G1 X80.867 Y48.100 E2.19661
G1 X81.913 Y46.896 E2.25736
G1 X83.128 Y45.849 E2.31842
G1 X84.474 Y44.993 E2.37917
G1 X85.929 Y44.338 E2.43992
G1 X87.463 Y43.898 E2.50066
G1 X89.043 Y43.683 E2.56141
G1 X196.877 Y43.408 E6.66748
G1 X197.937 Y43.459 E6.70790
G1 X198.996 Y43.613 E6.74862
G1 X200.027 Y43.866 E6.78904
G1 X201.029 Y44.216 E6.82945
G1 X201.993 Y44.660 E6.86986
G1 X202.910 Y45.195 E6.91028
G1 X203.771 Y45.814 E6.95069
G1 X204.570 Y46.513 E6.99110
G1 X205.299 Y47.285 E7.03152
G1 X205.950 Y48.123 E7.07193
G1 X206.522 Y49.026 E7.11266
G1 X207.002 Y49.973 E7.15307
G1 X207.388 Y50.962 E7.19349
G1 X207.679 Y51.983 E7.23390
G1 X207.870 Y53.026 E7.27431
G1 X207.962 Y54.084 E7.31473
G1 X208.619 Y329.755 E17.81164
G1 X208.444 Y331.720 E17.88676
G1 X207.924 Y333.623 E17.96187
G1 X207.254 Y335.089 E18.02325
G1 X206.384 Y336.436 E18.08431
G1 X205.329 Y337.643 E18.14537
G1 X204.111 Y338.686 E18.20643
G1 X202.756 Y339.543 E18.26749
G1 X201.283 Y340.198 E18.32886
G1 X199.739 Y340.631 E18.38992
G1 X198.141 Y340.838 E18.45129
G1 X90.356 Y341.108 E22.55549
G1 X88.416 Y340.930 E22.62967
G1 X86.529 Y340.413 E22.70416
G1 X85.027 Y339.723 E22.76710
G1 X83.650 Y338.823 E22.82972
G1 X82.416 Y337.724 E22.89266
G1 X81.359 Y336.453 E22.95559
G1 X80.502 Y335.040 E23.01853
G1 X79.867 Y333.523 E23.08115
G1 X79.462 Y331.921 E23.14409
G1 X79.300 Y330.284 E23.20671
G1 X78.647 Y54.761 E33.69799
G1 X78.814 Y52.886 E33.76968
G1 X79.177 Y52.918 F7800.000
G1 F1800.000
G1 X79.686 Y51.021 E33.84448
G1 X80.326 Y49.615 E33.90329
G1 X81.162 Y48.317 E33.96211
G1 X82.176 Y47.151 E34.02092
G1 X83.347 Y46.144 E34.07973
G1 X84.650 Y45.314 E34.13854
G1 X86.058 Y44.680 E34.19736
G1 X87.543 Y44.256 E34.25617
G1 X89.082 Y44.048 E34.31529
G1 X196.878 Y43.774 E38.41991
G1 X198.921 Y43.972 E38.49807
G1 X200.889 Y44.555 E38.57623
G1 X202.710 Y45.502 E38.65439
G1 X204.318 Y46.778 E38.73255
G1 X205.653 Y48.337 E38.81071
G1 X206.667 Y50.122 E38.88887
G1 X207.322 Y52.067 E38.96703
G1 X207.596 Y54.110 E39.04550
G1 X208.253 Y329.755 E49.54145
G1 X208.084 Y331.655 E49.61409
G1 X207.580 Y333.495 E49.68672
G1 X206.936 Y334.908 E49.74584
G1 X206.089 Y336.219 E49.80527
G1 X205.061 Y337.393 E49.86470
G1 X203.880 Y338.401 E49.92382
G1 X202.566 Y339.229 E49.98294
G1 X201.147 Y339.858 E50.04206
G1 X199.644 Y340.277 E50.10149
G1 X198.103 Y340.473 E50.16061
G1 X90.356 Y340.742 E54.26338
G1 X88.473 Y340.568 E54.33541
G1 X86.649 Y340.066 E54.40743
G1 X85.201 Y339.401 E54.46809
G1 X83.862 Y338.524 E54.52905
G1 X82.674 Y337.463 E54.58971
G1 X81.655 Y336.238 E54.65036
G1 X80.830 Y334.876 E54.71102
G1 X80.215 Y333.406 E54.77168
G1 X79.824 Y331.862 E54.83233
G1 X79.666 Y330.269 E54.89330
G1 X79.013 Y54.761 E65.38401
G1 X79.169 Y53.008 E65.45102
G1 X79.534 Y53.041 F7800.000
G1 F1800.000
G1 X79.545 Y52.917 E65.45575
G1 X80.032 Y51.140 E65.52593
G1 X80.654 Y49.781 E65.58282
G1 X81.464 Y48.525 E65.63971
G1 X82.446 Y47.400 E65.69661
G1 X83.580 Y46.427 E65.75350
G1 X84.842 Y45.627 E65.81039
G1 X86.206 Y45.017 E65.86728
G1 X87.643 Y44.609 E65.92418
G1 X89.124 Y44.412 E65.98107
G1 X196.878 Y44.141 E70.08408
G1 X198.854 Y44.332 E70.15969
G1 X200.758 Y44.897 E70.23529
G1 X202.519 Y45.814 E70.31089
G1 X204.072 Y47.051 E70.38650
G1 X205.362 Y48.560 E70.46210
G1 X206.340 Y50.288 E70.53771
G1 X206.970 Y52.171 E70.61331
G1 X207.230 Y54.140 E70.68892
G1 X207.887 Y329.756 E81.18374
G1 X207.721 Y331.599 E81.25422
G1 X207.234 Y333.376 E81.32440
G1 X206.609 Y334.742 E81.38159
G1 X205.788 Y336.010 E81.43909
G1 X204.797 Y337.139 E81.49628
G1 X203.654 Y338.113 E81.55348
G1 X202.382 Y338.912 E81.61067
G1 X201.008 Y339.518 E81.66787
G1 X199.561 Y339.920 E81.72506
G1 X198.062 Y340.108 E81.78256
G1 X90.356 Y340.375 E85.88376
G1 X88.537 Y340.207 E85.95333
G1 X86.775 Y339.723 E86.02290
G1 X85.375 Y339.078 E86.08161
G1 X84.085 Y338.233 E86.14031
G1 X82.935 Y337.207 E86.19902
G1 X81.950 Y336.020 E86.25772
G1 X81.152 Y334.701 E86.31643
G1 X80.558 Y333.279 E86.37513
G1 X80.182 Y331.784 E86.43384
G1 X80.032 Y330.249 E86.49254
G1 X79.380 Y54.760 E96.98252
G1 X79.526 Y53.130 E97.04484
G1 E95.04484 F2400.000
G92 E0
G1 X196.941 Y193.364 F7800.000
G1 E2.00000 F2400.000
;TYPE:External perimeter
;WIDTH:0.484564
G1 F1800.000
G1 X196.974 Y193.194 E2.00778
;WIDTH:0.458826
G1 X197.008 Y193.023 E2.01509
;WIDTH:0.433088
G1 X197.014 Y192.975 E2.01703
;WIDTH:0.420214
G1 X197.033 Y192.681 E2.02824
;WIDTH:0.381718
G1 X197.051 Y192.387 E2.03828
;WIDTH:0.343222
G1 X197.070 Y192.094 E2.04714
;WIDTH:0.304725
G1 X197.030 Y191.474 E2.06335
;WIDTH:0.420215
G1 X197.003 Y191.131 E2.07643
G1 X196.935 Y190.791 E2.08967
G1 E0.08967 F2400.000
G92 E0
G1 X196.625 Y59.422 F7800.000
G1 E2.00000 F2400.000
;WIDTH:0.484569
G1 F1800.000
G1 X196.658 Y59.252 E2.00778
;WIDTH:0.45883
G1 X196.692 Y59.081 E2.01509
;WIDTH:0.433094
G1 X196.698 Y59.033 E2.01703
;WIDTH:0.420219
G1 X196.717 Y58.739 E2.02824
;WIDTH:0.38172
G1 X196.735 Y58.445 E2.03828
;WIDTH:0.343222
G1 X196.754 Y58.151 E2.04714
;WIDTH:0.304724
G1 X196.714 Y57.531 E2.06335
;WIDTH:0.420215
G1 X196.687 Y57.189 E2.07643
G1 X196.619 Y56.849 E2.08967
G1 X196.577 Y56.643 F7800.000
;WIDTH:0.42
G1 F1800.000
G1 X196.489 Y56.661 E2.09310
G1 X196.364 Y56.361 E2.10545
G1 X196.154 Y55.945 E2.12320
G1 X195.879 Y55.507 E2.14291
G1 X195.439 Y55.233 E2.16264
G1 X195.022 Y55.025 E2.18039
G1 X194.715 Y54.899 E2.19302
G1 X194.750 Y54.722 E2.19989
G1 X195.349 Y54.743 E2.22273
G1 X195.841 Y54.848 E2.24190
G1 X196.465 Y54.905 E2.26573
G1 X196.525 Y55.499 E2.28849
G1 X196.628 Y55.977 E2.30708
G1 X196.665 Y56.625 E2.33182
G1 X196.493 Y56.610 F7800.000
G1 E0.33182 F2400.000
G92 E0
G1 X194.526 Y54.770 F7800.000
G1 E2.00000 F2400.000
;WIDTH:0.484549
G1 F1800.000
G1 X194.193 Y54.704 E2.01522
;WIDTH:0.43605
G1 X194.142 Y54.698 E2.01723
;WIDTH:0.422907
G1 X193.841 Y54.680 E2.02883
;WIDTH:0.385505
G1 X193.539 Y54.662 E2.03925
;WIDTH:0.348104
G1 X193.238 Y54.644 E2.04850
;WIDTH:0.310817
G1 X192.634 Y54.683 E2.06467
;WIDTH:0.42307
G1 X192.299 Y54.709 E2.07755
G1 X191.966 Y54.776 E2.09060
G1 E0.09060 F2400.000
G92 E0
G1 X175.665 Y194.272 F7800.000
G1 E2.00000 F2400.000
;WIDTH:0.42
G1 F1800.000
G1 X189.118 Y194.246 E2.51223
G1 X189.611 Y194.273 E2.53106
G1 X190.365 Y194.358 E2.55996
G1 X190.454 Y195.132 E2.58961
G1 X190.490 Y196.144 E2.62816
G1 X190.520 Y209.057 E3.11987
G1 X175.700 Y209.092 E3.68418
G1 X175.666 Y194.362 E4.24506
G1 X175.509 Y193.693 F7800.000
G1 E2.24506 F2400.000
G92 E0
G1 X175.656 Y190.092 F7800.000
G1 E2.00000 F2400.000
G1 F1800.000
G1 X175.621 Y175.272 E2.56431
G1 X190.441 Y175.237 E3.12862
G1 X190.471 Y188.149 E3.62026
G1 X190.465 Y188.657 E3.63959
G1 X190.428 Y189.172 E3.65926
G1 X190.315 Y189.897 E3.68721
G1 X189.608 Y190.014 E3.71452
G1 X189.109 Y190.053 E3.73355
G1 X188.619 Y190.061 E3.75224
G1 X175.746 Y190.092 E4.24242
G1 X175.056 Y190.094 F7800.000
G1 E2.24242 F2400.000
G92 E0
G1 X98.859 Y192.309 F7800.000
G1 E2.00000 F2400.000
G1 F1800.000
G1 X98.732 Y193.290 E2.03766
G1 X98.356 Y194.204 E2.07532
G1 X97.756 Y194.991 E2.11298
G1 X96.973 Y195.594 E2.15064
G1 X96.060 Y195.975 E2.18830
G1 X95.079 Y196.106 E2.22595
G1 X94.099 Y195.980 E2.26361
G1 X93.184 Y195.603 E2.30127
G1 X92.398 Y195.003 E2.33893
G1 X91.794 Y194.220 E2.37659
G1 X91.413 Y193.307 E2.41425
G1 X91.282 Y192.327 E2.45191
G1 X91.409 Y191.346 E2.48957
G1 X91.785 Y190.431 E2.52723
G1 X92.385 Y189.645 E2.56489
G1 X93.169 Y189.041 E2.60254
G1 X94.081 Y188.661 E2.64020
G1 X95.010 Y188.536 E2.67587
G1 X96.041 Y188.656 E2.71540
G1 X96.957 Y189.033 E2.75312
G1 X97.743 Y189.633 E2.79078
G1 X98.347 Y190.416 E2.82844
G1 X98.728 Y191.329 E2.86610
G1 X98.847 Y192.220 E2.90033
G1 X99.379 Y192.608 F7800.000
G1 E0.90033 F2400.000
G92 E0
G1 X90.705 Y57.382 F7800.000
G1 E2.00000 F2400.000
;TYPE:Perimeter
G1 F1800.000
G1 X90.528 Y57.348 E2.00687
G1 X90.524 Y55.533 E2.07598
G1 X91.256 Y55.529 E2.10384
G1 X91.806 Y55.504 E2.12482
G1 X91.153 Y56.295 E2.16389
G1 X90.740 Y57.299 E2.20524
G1 E0.20524 F2400.000
G92 E0
G1 X175.352 Y61.273 F7800.000
G1 E2.00000 F2400.000
;TYPE:External perimeter
G1 F1800.000
G1 X190.171 Y61.238 E2.56431
G1 X190.206 Y76.058 E3.12862
G1 X175.387 Y76.093 E3.69293
G1 X175.352 Y61.363 E4.25381
G1 X175.195 Y60.694 F7800.000
G1 E2.25381 F2400.000
G92 E0
G1 X114.851 Y194.050 F7800.000
G1 E2.00000 F2400.000
;TYPE:Perimeter
G1 F1800.000
G1 X114.888 Y209.602 E2.59221
G1 X99.335 Y209.639 E3.18442
G1 X99.298 Y194.086 E3.77663
G1 X114.761 Y194.050 E4.36541
G1 X114.486 Y194.417 F7800.000
;TYPE:External perimeter
G1 F1800.000
G1 X114.521 Y209.237 E4.92972
G1 X99.701 Y209.272 E5.49403
G1 X99.666 Y194.452 E6.05834
G1 X114.396 Y194.417 E6.61922
G1 X115.065 Y194.260 F7800.000
G1 E4.61922 F2400.000
G92 E0
G1 X114.806 Y175.050 F7800.000
G1 E2.00000 F2400.000
;TYPE:Perimeter
G1 F1800.000
G1 X114.843 Y190.602 E2.59221
G1 X99.290 Y190.639 E3.18442
G1 X99.254 Y175.086 E3.77663
G1 X114.716 Y175.050 E4.36541
G1 X114.441 Y175.417 F7800.000
;TYPE:External perimeter
G1 F1800.000
G1 X114.476 Y190.237 E4.92972
G1 X99.656 Y190.272 E5.49403
G1 X99.621 Y175.452 E6.05834
G1 X114.351 Y175.417 E6.61922
G1 X115.020 Y175.260 F7800.000
G1 E4.61922 F2400.000
G92 E0
G1 X114.537 Y61.050 F7800.000
G1 E2.00000 F2400.000
;TYPE:Perimeter
G1 F1800.000
G1 X114.574 Y76.603 E2.59221
G1 X99.021 Y76.639 E3.18442
G1 X98.985 Y61.087 E3.77663
G1 X114.447 Y61.050 E4.36541
G1 X114.172 Y61.417 F7800.000
;TYPE:External perimeter
G1 F1800.000
G1 X114.207 Y76.237 E4.92972
G1 X99.387 Y76.272 E5.49403
G1 X99.352 Y61.452 E6.05834
G1 X114.082 Y61.417 E6.61922
G1 X114.751 Y61.260 F7800.000
G1 E4.61922 F2400.000
G92 E0
G1 X135.829 Y192.535 F7800.000
G1 E2.00000 F2400.000
;TYPE:Perimeter
G1 F1800.000
G1 X154.313 Y192.491 E2.70381
G1 X154.356 Y210.974 E3.40761
G1 X135.873 Y211.018 E4.11142
G1 X135.830 Y192.625 E4.81180
G1 X136.197 Y192.900 F7800.000
G1 F1800.000
G1 X153.947 Y192.858 E5.48771
G1 X153.989 Y210.609 E6.16362
G1 X136.239 Y210.651 E6.83952
G1 X136.197 Y192.990 E7.51200
G1 X136.564 Y193.266 F7800.000
G1 F1800.000
G1 X153.582 Y193.225 E8.16001
G1 X153.622 Y210.243 E8.80802
G1 X136.604 Y210.284 E9.45603
G1 X136.564 Y193.356 E10.10061
G1 X136.931 Y193.631 F7800.000
G1 F1800.000
G1 X153.216 Y193.593 E10.72072
G1 X153.255 Y209.878 E11.34083
G1 X136.970 Y209.916 E11.96094
G1 X136.931 Y193.721 E12.57762
G1 X137.298 Y193.997 F7800.000
G1 F1800.000
G1 X152.851 Y193.960 E13.16983
G1 X152.888 Y209.513 E13.76204
G1 X137.335 Y209.549 E14.35425
G1 X137.299 Y194.087 E14.94303
G1 X137.665 Y194.362 F7800.000
;TYPE:External perimeter
G1 F1800.000
G1 X152.485 Y194.327 E15.50734
G1 X152.520 Y209.147 E16.07165
G1 X137.700 Y209.182 E16.63596
G1 X137.666 Y194.452 E17.19684
G1 X137.509 Y193.783 F7800.000
G1 E15.19684 F2400.000
G92 E0
G1 X154.358 Y211.491 F7800.000
G1 E2.00000 F2400.000
;TYPE:Perimeter
G1 F1800.000
G1 X154.401 Y229.974 E2.70381
G1 X135.918 Y230.018 E3.40761
G1 X135.874 Y211.535 E4.11142
G1 X154.268 Y211.491 E4.81180
G1 X153.992 Y211.858 F7800.000
G1 F1800.000
G1 X154.034 Y229.609 E5.48771
G1 X136.283 Y229.651 E6.16362
G1 X136.241 Y211.900 E6.83952
G1 X153.902 Y211.858 E7.51200
G1 X153.627 Y212.225 F7800.000
G1 F1800.000
G1 X153.667 Y229.243 E8.16001
G1 X136.649 Y229.284 E8.80802
G1 X136.609 Y212.266 E9.45603
G1 X153.537 Y212.226 E10.10061
G1 X153.261 Y212.593 F7800.000
G1 F1800.000
G1 X153.300 Y228.878 E10.72072
G1 X137.014 Y228.916 E11.34083
G1 X136.976 Y212.631 E11.96094
G1 X153.171 Y212.593 E12.57762
G1 X152.896 Y212.960 F7800.000
G1 F1800.000
G1 X152.932 Y228.512 E13.16983
G1 X137.380 Y228.549 E13.76204
G1 X137.343 Y212.997 E14.35425
G1 X152.806 Y212.960 E14.94303
G1 X152.530 Y213.327 F7800.000
;TYPE:External perimeter
G1 F1800.000
G1 X152.565 Y228.147 E15.50734
G1 X137.745 Y228.182 E16.07165
G1 X137.710 Y213.362 E16.63596
G1 X152.440 Y213.327 E17.19684
G1 X153.109 Y213.170 F7800.000
G1 E15.19684 F2400.000
G92 E0
G1 X173.358 Y211.446 F7800.000
G1 E2.00000 F2400.000
;TYPE:Perimeter
G1 F1800.000
G1 X173.401 Y229.930 E2.70381
G1 X154.918 Y229.973 E3.40761
G1 X154.874 Y211.490 E4.11142
G1 X173.268 Y211.446 E4.81180
G1 X172.992 Y211.813 F7800.000
G1 F1800.000
G1 X173.034 Y229.564 E5.48771
G1 X155.283 Y229.606 E6.16362
G1 X155.241 Y211.855 E6.83952
G1 X172.902 Y211.814 E7.51200
G1 X172.627 Y212.181 F7800.000
G1 F1800.000
G1 X172.667 Y229.199 E8.16001
G1 X155.649 Y229.239 E8.80802
G1 X155.609 Y212.221 E9.45603
G1 X172.537 Y212.181 E10.10061
G1 X172.261 Y212.548 F7800.000
G1 F1800.000
G1 X172.300 Y228.833 E10.72072
G1 X156.014 Y228.872 E11.34083
G1 X155.976 Y212.586 E11.96094
G1 X172.171 Y212.548 E12.57762
G1 X171.896 Y212.915 F7800.000
G1 F1800.000
G1 X171.932 Y228.468 E13.16983
G1 X156.380 Y228.504 E13.76204
G1 X156.343 Y212.952 E14.35425
G1 X171.806 Y212.915 E14.94303
G1 X171.530 Y213.282 F7800.000
;TYPE:External perimeter
G1 F1800.000
G1 X171.565 Y228.102 E15.50734
G1 X156.745 Y228.137 E16.07165
G1 X156.710 Y213.317 E16.63596
G1 X171.440 Y213.282 E17.19684
G1 X172.109 Y213.126 F7800.000
G1 E15.19684 F2400.000
G92 E0
G1 X192.358 Y211.401 F7800.000
G1 E2.00000 F2400.000
;TYPE:Perimeter
G1 F1800.000
G1 X192.401 Y229.885 E2.70381
G1 X173.918 Y229.928 E3.40761
G1 X173.874 Y211.445 E4.11142
G1 X192.268 Y211.402 E4.81180
G1 X191.992 Y211.769 F7800.000
G1 F1800.000
G1 X192.034 Y229.519 E5.48771
G1 X174.283 Y229.561 E6.16362
G1 X174.241 Y211.810 E6.83952
G1 X191.902 Y211.769 E7.51200
G1 X191.627 Y212.136 F7800.000
G1 F1800.000
G1 X191.667 Y229.154 E8.16001
G1 X174.649 Y229.194 E8.80802
G1 X174.609 Y212.176 E9.45603
G1 X191.537 Y212.136 E10.10061
G1 X191.261 Y212.503 F7800.000
G1 F1800.000
G1 X191.300 Y228.788 E10.72072
G1 X175.014 Y228.827 E11.34083
G1 X174.976 Y212.541 E11.96094
G1 X191.171 Y212.503 E12.57762
G1 X190.896 Y212.870 F7800.000
G1 F1800.000
G1 X190.932 Y228.423 E13.16983
G1 X175.380 Y228.460 E13.76204
G1 X175.343 Y212.907 E14.35425
G1 X190.806 Y212.870 E14.94303
G1 X190.530 Y213.237 F7800.000
;TYPE:External perimeter
G1 F1800.000
G1 X190.565 Y228.057 E15.50734
G1 X175.745 Y228.092 E16.07165
G1 X175.710 Y213.272 E16.63596
G1 X190.440 Y213.238 E17.19684
G1 X191.109 Y213.081 F7800.000
G1 E15.19684 F2400.000
G92 E0
G1 X173.356 Y210.930 F7800.000
G1 E2.00000 F2400.000
;TYPE:Perimeter
G1 F1800.000
G1 X154.873 Y210.973 E2.70381
G1 X154.829 Y192.490 E3.40761
G1 X173.313 Y192.446 E4.11142
G1 X173.356 Y210.840 E4.81180
G1 X172.989 Y210.564 F7800.000
G1 F1800.000
G1 X155.238 Y210.606 E5.48771
G1 X155.197 Y192.855 E6.16362
G1 X172.947 Y192.813 E6.83952
G1 X172.989 Y210.474 E7.51200
G1 X172.622 Y210.199 F7800.000
G1 F1800.000
G1 X155.604 Y210.239 E8.16001
G1 X155.564 Y193.221 E8.80802
G1 X172.582 Y193.181 E9.45603
G1 X172.622 Y210.109 E10.10061
G1 X172.255 Y209.833 F7800.000
G1 F1800.000
G1 X155.969 Y209.872 E10.72072
G1 X155.931 Y193.586 E11.34083
G1 X172.216 Y193.548 E11.96094
G1 X172.255 Y209.743 E12.57762
G1 X171.888 Y209.468 F7800.000
G1 F1800.000
G1 X156.335 Y209.504 E13.16983
